; HEADER_BLOCK_START
; generated by OrcaSlicer 1.7.0 on 2024-02-10 at 11:54:32
; total layer number: 43
; HEADER_BLOCK_END

; THUMBNAIL_BLOCK_START
; THUMBNAIL_BLOCK_END

; external perimeters extrusion width = 0.40mm
; perimeters extrusion width = 0.40mm
; infill extrusion width = 0.45mm
; solid infill extrusion width = 0.40mm
; top infill extrusion width = 0.40mm
; first layer extrusion width = 0.56mm

; EXECUTABLE_BLOCK_START
EXCLUDE_OBJECT_DEFINE NAME=corner_lock_body_4.STL_id_0_copy_0 CENTER=150,150 POLYGON=[[126,162.737],[126.01,162.497],[126.042,162.259],[126.094,162.025],[126.166,161.796],[126.258,161.575],[126.368,161.362],[126.548,161.05],[129.825,155.375],[129.966,155.155],[130.128,154.949],[130.309,154.76],[154.76,130.309],[154.949,130.128],[155.155,129.966],[155.375,129.825],[161.05,126.548],[161.362,126.368],[161.575,126.258],[161.796,126.166],[162.025,126.094],[162.259,126.042],[162.497,126.01],[162.737,126],[165.263,126],[165.503,126.01],[165.741,126.042],[165.975,126.094],[166.204,126.166],[166.425,126.258],[166.638,126.368],[172.625,129.825],[172.845,129.966],[173.051,130.128],[173.24,130.309],[173.412,130.507],[173.563,130.72],[173.694,130.946],[173.803,131.184],[173.889,131.432],[173.95,131.686],[173.988,131.945],[174,132.207],[174,159.861],[173.987,160.13],[173.947,160.397],[173.882,160.659],[173.791,160.913],[173.675,161.157],[173.537,161.389],[173.376,161.605],[173.195,161.805],[161.805,173.195],[161.605,173.376],[161.389,173.537],[161.157,173.675],[160.913,173.791],[160.659,173.882],[160.397,173.947],[160.13,173.987],[159.861,174],[132.207,174],[131.945,173.988],[131.686,173.95],[131.432,173.889],[131.184,173.803],[130.946,173.694],[130.72,173.563],[130.507,173.412],[130.309,173.24],[130.128,173.051],[129.966,172.845],[129.825,172.625],[126.548,166.95],[126.368,166.638],[126.258,166.425],[126.166,166.204],[126.094,165.975],[126.042,165.741],[126.01,165.503],[126,165.263],[126,162.737]]
M73 P0 R23
;TYPE:Custom
M104 S0 ; Stops SuperSlicer from sending temp waits separately
M140 S0
print_start EXTRUDER=260 BED=105 CHAMBER=0 
G90
G21
M83 ; use relative distances for extrusion
; Filament gcode
SET_PRESSURE_ADVANCE ADVANCE=0.032; Override pressure advance value
M106 S0
;LAYER_CHANGE
;Z:0.2
;HEIGHT:0.2
;BEFORE_LAYER_CHANGE
;0.2
G92 E0

G1 E-.8 F1800
;AFTER_LAYER_CHANGE
;0.2
;_SET_FAN_SPEED_CHANGING_LAYER
SET_VELOCITY_LIMIT ACCEL=500
G1 Z.4 F18000
G1 X140.609 Y140.823
G1 Z.4
G1 Z.2
G1 E.8 F1800
;TYPE:Skirt
;WIDTH:0.56
G1 F7200
G1 X153.368 Y128.083 E.73645
G1 X154.083 Y127.587 E.03554
G1 X160.07 Y124.13 E.28237
G1 X160.789 Y123.786 E.03258
G1 X161.681 Y123.523 E.03797
G1 X162.404 Y123.427 E.0298
G1 X165.395 Y123.419 E.12219
G1 X166.515 Y123.566 E.04613
G1 X167.636 Y123.974 E.04872
G1 X174.225 Y127.78 E.31079
G1 X174.85 Y128.272 E.0325
G1 X175.529 Y129.025 E.04141
G1 X176.054 Y129.892 E.04141
G1 X176.405 Y130.843 E.04141
G1 X176.584 Y132.207 E.05616
G1 X176.581 Y160.01 E1.13564
G1 X176.507 Y160.755 E.03058
G1 X176.308 Y161.551 E.03351
G1 X176.021 Y162.242 E.03058
G1 X175.599 Y162.946 E.03351
G1 X175.022 Y163.633 E.03665
G1 X163.525 Y175.125 E.66396
G1 X162.505 Y175.881 E.05187
G1 X161.266 Y176.394 E.05478
G1 X159.861 Y176.584 E.05791
G1 X132.207 Y176.584 E1.12956
G1 X131.339 Y176.512 E.03554
G1 X130.566 Y176.324 E.0325
G1 X129.892 Y176.054 E.02965
G1 X129.203 Y175.656 E.0325
G1 X128.423 Y175.008 E.04141
G1 X127.78 Y174.225 E.04141
G1 X124.13 Y167.93 E.29719
G1 X123.635 Y166.771 E.05151
G1 X123.427 Y165.596 E.04873
G1 X123.427 Y162.404 E.13037
G1 X123.523 Y161.681 E.0298
G1 X123.786 Y160.789 E.03797
G1 X124.13 Y160.07 E.03258
G1 X127.78 Y153.775 E.29719
G1 X128.474 Y152.94 E.04435
G1 X140.581 Y140.851 E.69884
G1 X140.945 Y141.216 F18000
G1 F7200
G1 X153.688 Y128.49 E.73559
G1 X154.341 Y128.035 E.03253
G1 X160.328 Y124.578 E.28237
G1 X160.987 Y124.263 E.02982
G1 X161.793 Y124.028 E.03429
G1 X162.427 Y123.944 E.02612
G1 X165.373 Y123.935 E.12034
G1 X166.403 Y124.071 E.04245
G1 X167.397 Y124.433 E.04321
G1 X173.945 Y128.215 E.30886
G1 X174.493 Y128.647 E.02849
G1 X175.108 Y129.325 E.03739
G1 X175.584 Y130.107 E.0374
G1 X175.903 Y130.965 E.03739
G1 X176.067 Y132.207 E.05115
G1 X176.067 Y159.861 E1.12956
G1 X175.996 Y160.679 E.03354
G1 X175.821 Y161.377 E.02937
G1 X175.554 Y162.021 E.02851
G1 X175.184 Y162.638 E.02937
G1 X174.656 Y163.267 E.03354
G1 X163.178 Y174.741 E.66293
G1 X162.239 Y175.437 E.04772
G1 X161.14 Y175.893 E.04859
G1 X159.861 Y176.067 E.05274
G1 X132.207 Y176.067 E1.12956
G1 X131.413 Y176 E.03253
G1 X130.735 Y175.835 E.02849
G1 X129.503 Y175.235 E.05599
G1 X128.798 Y174.652 E.03739
G1 X128.215 Y173.945 E.0374
G1 X124.578 Y167.672 E.29619
G1 X124.128 Y166.615 E.04691
G1 X123.944 Y165.573 E.04321
G1 X123.944 Y162.427 E.12853
G1 X124.028 Y161.793 E.02612
G1 X124.263 Y160.987 E.03429
G1 X124.578 Y160.328 E.02982
G1 X128.215 Y154.055 E.29619
G1 X128.839 Y153.306 E.03983
G1 X140.917 Y141.244 E.69719
; printing object corner_lock_body_4.STL id:0 copy 0
G1 E-.56 F1800
;WIPE_START
G1 F7200
G1 X141.625 Y140.537 E-.24
;WIPE_END
EXCLUDE_OBJECT_START NAME=corner_lock_body_4.STL_id_0_copy_0
G1 Z.6 F18000
G1 X151.036 Y173.11 Z.6
G1 Z.2
G1 E.8 F1800
;TYPE:Outer wall
;WIDTH:0.51573
G1 F7200
G1 X150.814 Y173.092 E.00833
;WIDTH:0.559999
G1 X150.541 Y173.07 E.01119
G1 X143.384 Y173.07 E.29231
;WIDTH:0.605447
G1 X142.983 Y173.047 E.01784
;WIDTH:0.650895
G1 X142.582 Y173.025 E.01929
;WIDTH:0.697399
G1 X142.503 Y173.001 E.00429
;WIDTH:0.743903
G1 X142.423 Y172.978 E.00459
;WIDTH:0.790406
G1 X142.343 Y172.955 E.0049
G1 X141.786 Y172.958 E.03289
;WIDTH:0.784651
G1 X141.709 Y172.98 E.00474
;WIDTH:0.740739
G1 X141.631 Y173.002 E.00446
;WIDTH:0.696827
G1 X141.553 Y173.024 E.00418
;WIDTH:0.652915
G1 X141.475 Y173.045 E.0039
;WIDTH:0.609003
G1 X141.189 Y173.07 E.01284
;WIDTH:0.559999
G1 X133.673 Y173.07 E.30698
G1 X133.373 Y173.091 E.0123
;WIDTH:0.518538
G1 X133.072 Y173.111 E.01132
;WIDTH:0.477076
G1 X131.883 Y173.088 E.0408
;WIDTH:0.46098
G1 X131.681 Y173.031 E.00691
;WIDTH:0.448594
G1 X131.189 Y172.817 E.01721
;WIDTH:0.465917
G1 X130.811 Y172.486 E.01678
;WIDTH:0.471621
G1 X130.581 Y172.164 E.0134
;WIDTH:0.477291
G1 X127.157 Y166.227 E.23515
;WIDTH:0.484209
G1 X127.08 Y166.039 E.00708
;WIDTH:0.524218
G1 X126.952 Y165.553 E.01911
;WIDTH:0.559999
G1 X126.93 Y164.84 E.02913
G1 X126.933 Y162.68 E.08822
;WIDTH:0.554013
G1 X126.973 Y162.392 E.01174
;WIDTH:0.526737
G1 X127.012 Y162.104 E.01111
;WIDTH:0.49946
G1 X127.229 Y161.643 E.01837
;WIDTH:0.471336
G1 X130.672 Y155.694 E.23262
;WIDTH:0.466741
G1 X130.945 Y155.384 E.01385
;WIDTH:0.447082
G1 X131.277 Y155.127 E.0134
;WIDTH:0.465877
M73 P0 R22
G1 X131.662 Y154.968 E.01393
;WIDTH:0.466727
G1 X132.049 Y154.893 E.0132
;WIDTH:0.467199
G1 X132.928 Y154.892 E.02944
;WIDTH:0.513599
G1 X133.193 Y154.915 E.00989
;WIDTH:0.559999
G1 X133.458 Y154.938 E.01087
G1 X140.5 Y154.93 E.28763
G1 X141.174 Y154.904 E.02754
G1 X141.721 Y154.815 E.02267
G1 X142.258 Y154.645 E.023
G1 X142.72 Y154.425 E.02089
G1 X143.244 Y154.053 E.02625
G1 X143.596 Y153.691 E.02063
;WIDTH:0.519222
G1 X143.932 Y153.321 E.01882
;WIDTH:0.471458
G1 X153.321 Y143.932 E.44946
;WIDTH:0.498202
G1 X153.588 Y143.684 E.01311
;WIDTH:0.529101
G1 X153.797 Y143.482 E.01116
;WIDTH:0.559999
G1 X154.006 Y143.281 E.01187
G1 X154.321 Y142.875 E.02099
G1 X154.582 Y142.422 E.02134
G1 X154.757 Y141.946 E.02073
G1 X154.872 Y141.438 E.02128
G1 X154.93 Y140.862 E.02365
G1 X154.938 Y133.653 E.29443
G1 X154.916 Y133.364 E.01184
;WIDTH:0.516424
G1 X154.895 Y133.075 E.01084
;WIDTH:0.472848
G1 X154.893 Y132.06 E.03449
;WIDTH:0.466862
G1 X155.007 Y131.541 E.01779
;WIDTH:0.455193
G1 X155.105 Y131.336 E.00739
;WIDTH:0.452259
G1 X155.427 Y130.892 E.01772
;WIDTH:0.476695
G1 X155.838 Y130.583 E.01761
G1 X161.643 Y127.229 E.22973
;WIDTH:0.50587
G1 X162.087 Y127.024 E.01789
;WIDTH:0.531957
G1 X162.518 Y126.936 E.01698
;WIDTH:0.559999
G1 X165.386 Y126.926 E.11715
;WIDTH:0.539873
G1 X165.901 Y127.014 E.0205
;WIDTH:0.497843
G1 X166.356 Y127.229 E.01809
;WIDTH:0.472106
G1 X172.313 Y130.679 E.23337
G1 X172.616 Y130.932 E.01339
;WIDTH:0.456786
G1 X172.915 Y131.358 E.01704
;WIDTH:0.465918
G1 X173.077 Y131.834 E.01678
;WIDTH:0.472503
G1 X173.114 Y132.228 E.01343
;WIDTH:0.480394
G1 X173.11 Y133.148 E.03181
;WIDTH:0.520197
G1 X173.09 Y133.423 E.01039
;WIDTH:0.559999
G1 X173.07 Y133.698 E.01126
G1 X173.07 Y140.402 E.27381
;WIDTH:0.602646
G1 X173.049 Y141.259 E.03792
;WIDTH:0.652392
G1 X173.024 Y141.34 E.00407
;WIDTH:0.702138
G1 X172.999 Y141.421 E.00441
;WIDTH:0.751884
G1 X172.974 Y141.502 E.00474
;WIDTH:0.801629
G1 F7117.353
G1 X172.949 Y141.583 E.00507
G1 X172.964 Y142.001 E.02509
;WIDTH:0.771386
G1 F7200
G1 X172.985 Y142.123 E.00712
;WIDTH:0.729109
G1 X173.007 Y142.245 E.0067
;WIDTH:0.686832
G1 X173.028 Y142.366 E.00629
;WIDTH:0.644554
G1 X173.049 Y142.488 E.00588
;WIDTH:0.602277
G1 X173.07 Y142.61 E.00546
;WIDTH:0.559999
G1 X173.07 Y150.317 E.31481
G1 X173.091 Y150.63 E.01281
;WIDTH:0.518501
G1 X173.111 Y150.944 E.01179
;WIDTH:0.477002
G1 X173.114 Y159.136 E.28091
;WIDTH:0.482309
G1 X173.109 Y159.49 E.0123
;WIDTH:0.510985
G1 X173.077 Y159.851 E.01339
;WIDTH:0.539661
G1 X173.044 Y160.212 E.01421
;WIDTH:0.550647
G1 X172.865 Y160.696 E.0207
G1 X172.679 Y161.003 E.0144
;WIDTH:0.534445
G1 X172.434 Y161.286 E.01453
;WIDTH:0.489885
G1 X172.051 Y161.686 E.01955
;WIDTH:0.468281
G1 X168.425 Y165.315 E.17238
;WIDTH:0.51414
G1 X168.222 Y165.486 E.00989
;WIDTH:0.559999
G1 X168.019 Y165.657 E.01085
G1 X165.842 Y167.837 E.12585
G1 X165.58 Y168.132 E.0161
;WIDTH:0.514821
G1 X165.317 Y168.426 E.0147
;WIDTH:0.471234
G1 X161.691 Y172.056 E.17359
;WIDTH:0.472133
G1 X161.663 Y172.083 E.00132
;WIDTH:0.5091
G1 X161.19 Y172.531 E.02402
;WIDTH:0.549497
G1 X160.768 Y172.826 E.02059
G1 X160.316 Y173.012 E.01956
;WIDTH:0.535568
G1 X159.691 Y173.103 E.02455
;WIDTH:0.494851
G1 X159.137 Y173.114 E.0198
;WIDTH:0.47146
G1 X151.087 Y173.114 E.27251
;WIDTH:0.51573
G1 X151.076 Y173.113 E.00041
G1 E-.56 F1800
;WIPE_START
G1 F7200
G1 X150.814 Y173.092 E-.06312
G1 X150.541 Y173.07 E-.06574
G1 X150.078 Y173.07 E-.11114
;WIPE_END
G1 Z.6 F18000
G1 X171.28 Y134.086 Z.6
M73 P1 R22
G1 Z.2
G1 E.8 F1800
;WIDTH:0.559999
G1 F7200
G1 X170.233 Y134.107 E.04279
G1 X169.706 Y134.063 E.02158
G1 X168.85 Y133.794 E.03666
G1 X168.612 Y133.649 E.01136
;WIDTH:0.520196
G1 X168.374 Y133.505 E.01049
;WIDTH:0.510754
G1 X168.066 Y133.38 E.0123
;WIDTH:0.541114
G1 X167.758 Y133.255 E.0131
;WIDTH:0.559999
G1 X167.293 Y133.068 E.02046
G1 X166.758 Y132.89 E.02303
G1 X166.176 Y132.74 E.02453
G1 X165.246 Y132.549 E.0388
G1 X164.807 Y132.305 E.02051
G1 X164.548 Y131.992 E.0166
;WIDTH:0.59475
G1 X164.482 Y131.825 E.00783
;WIDTH:0.629501
G1 X164.417 Y131.657 E.00832
;WIDTH:0.664251
G1 X164.352 Y131.49 E.00881
;WIDTH:0.696461
G1 X164.327 Y131.416 E.00404
;WIDTH:0.708182
G1 X164.333 Y128.435 E.15664
G1 X164.422 Y128.267 E.01001
;WIDTH:0.658788
G1 X164.511 Y128.099 E.00927
;WIDTH:0.609394
G1 X164.6 Y127.93 E.00852
;WIDTH:0.559999
G1 X165.016 Y127.551 E.02298
G1 X165.415 Y127.445 E.01688
;WIDTH:0.539873
G1 X165.794 Y127.456 E.01489
;WIDTH:0.497843
G1 X166.142 Y127.599 E.01351
;WIDTH:0.472106
G1 X172.098 Y131.05 E.23337
G1 X172.291 Y131.188 E.00806
;WIDTH:0.456786
G1 X172.579 Y131.589 E.01613
;WIDTH:0.461197
G1 X172.68 Y132.013 E.0144
;WIDTH:0.477118
G1 X172.677 Y133.075 E.03644
;WIDTH:0.513881
G1 X172.645 Y133.249 E.00659
;WIDTH:0.550644
G1 X172.613 Y133.424 E.00711
;WIDTH:0.559999
G1 X172.288 Y133.84 E.02155
G1 X171.796 Y134.075 E.02231
G1 X171.32 Y134.085 E.01943
G1 E-.56 F1800
;WIPE_START
G1 F7200
G1 X170.32 Y134.105 E-.24
;WIPE_END
G1 Z.6 F18000
G1 X171.214 Y143.103 Z.6
G1 Z.2
G1 E.8 F1800
G1 F7200
G1 X170.701 Y143.089 E.02098
G1 X170.335 Y142.907 E.01671
G1 X169.995 Y142.511 E.02131
G1 X169.952 Y142.327 E.00768
;WIDTH:0.532335
G1 X169.909 Y142.144 E.00727
;WIDTH:0.534985
G1 X169.94 Y141.649 E.01931
;WIDTH:0.559999
G1 X170.096 Y141.327 E.01459
G1 X170.494 Y140.996 E.02114
G1 X171.029 Y140.876 E.02242
G1 X171.388 Y140.941 E.01488
G1 X171.729 Y141.141 E.01615
;WIDTH:0.602646
G1 X172.056 Y141.556 E.02338
;WIDTH:0.652392
G1 X172.091 Y141.579 E.002
;WIDTH:0.702138
G1 X172.126 Y141.601 E.00217
;WIDTH:0.751884
G1 X172.161 Y141.624 E.00233
;WIDTH:0.801629
G1 F7117.353
G1 X172.196 Y141.646 E.0025
G1 X172.233 Y142.064 E.02514
;WIDTH:0.776905
G1 F7200
G1 X172.18 Y142.167 E.00668
;WIDTH:0.733524
G1 X172.127 Y142.269 E.00628
;WIDTH:0.690143
G1 X172.074 Y142.371 E.00589
;WIDTH:0.646762
G1 X172.022 Y142.474 E.00549
;WIDTH:0.603381
G1 X171.969 Y142.576 E.0051
;WIDTH:0.559999
G1 X171.697 Y142.882 E.0167
G1 X171.251 Y143.087 E.02007
G1 E-.56 F1800
;WIPE_START
G1 F7200
G1 X170.701 Y143.089 E-.13196
G1 X170.335 Y142.907 E-.09816
G1 X170.308 Y142.875 E-.00987
;WIPE_END
G1 Z.6 F18000
G1 X167.697 Y150.27 Z.6
G1 Z.2
G1 E.8 F1800
G1 F7200
G1 X167.442 Y150.214 E.01064
G1 X167.195 Y150.04 E.01234
G1 X167.056 Y149.849 E.00967
;WIDTH:0.558555
G1 X166.993 Y149.585 E.01107
;WIDTH:0.528853
G1 X166.995 Y149.502 E.00319
;WIDTH:0.5252
G1 X166.991 Y146.082 E.13027
;WIDTH:0.572311
G1 X166.966 Y145.772 E.01299
G1 X166.964 Y144.665 E.04629
;WIDTH:0.599778
G1 X166.98 Y144.576 E.00398
;WIDTH:0.628101
G1 X166.996 Y144.487 E.00418
G1 X167.342 Y143.997 E.02773
;WIDTH:0.625881
G1 X167.586 Y143.517 E.02479
;WIDTH:0.620002
G1 X167.776 Y142.953 E.02714
;WIDTH:0.623619
G1 X167.882 Y142.32 E.02944
;WIDTH:0.62602
G1 X167.885 Y141.724 E.02744
;WIDTH:0.626881
G1 X167.797 Y141.137 E.02741
G1 X167.62 Y140.566 E.02755
;WIDTH:0.626209
G1 X167.394 Y140.094 E.02414
;WIDTH:0.619475
G1 X167.062 Y139.599 E.02712
;WIDTH:0.623744
G1 X166.99 Y139.501 E.00559
G1 X166.977 Y139.418 E.00386
;WIDTH:0.597602
G1 X166.964 Y139.335 E.00369
;WIDTH:0.57146
G1 X166.977 Y138.072 E.0527
;WIDTH:0.54646
G1 X166.989 Y137.918 E.00617
;WIDTH:0.52146
G1 X166.989 Y134.498 E.12926
;WIDTH:0.559999
G1 X167.036 Y134.192 E.01264
G1 X167.184 Y133.966 E.01103
G1 X167.401 Y133.805 E.01103
G1 X167.659 Y133.737 E.01092
;WIDTH:0.541114
G1 X167.818 Y133.768 E.00638
;WIDTH:0.51363
G1 X167.977 Y133.8 E.00602
;WIDTH:0.49233
G1 X168.169 Y133.889 E.0075
;WIDTH:0.526165
G1 X168.307 Y134.02 E.00727
;WIDTH:0.559999
G1 X168.445 Y134.151 E.00778
G1 X168.522 Y134.409 E.01101
G1 X168.53 Y138.92 E.18427
G1 X168.957 Y139.689 E.03593
G1 X169.3 Y140.611 E.04019
G1 X169.413 Y141.214 E.02506
G1 X169.441 Y141.744 E.02169
;WIDTH:0.519704
G1 X169.45 Y142.198 E.01707
;WIDTH:0.533158
G1 X169.43 Y142.506 E.01196
;WIDTH:0.559999
G1 X169.41 Y142.814 E.01262
G1 X169.249 Y143.536 E.0302
G1 X168.953 Y144.324 E.03438
G1 X168.53 Y145.075 E.0352
G1 X168.522 Y149.593 E.18456
G1 X168.445 Y149.849 E.01093
G1 X168.267 Y150.052 E.01102
;WIDTH:0.516118
G1 X167.967 Y150.208 E.01264
;WIDTH:0.51842
G1 X167.836 Y150.24 E.00505
;WIDTH:0.551275
G1 X167.736 Y150.265 E.00416
G1 E-.56 F1800
;WIPE_START
G1 F7200
G1 X167.442 Y150.214 E-.07146
G1 X167.195 Y150.04 E-.0725
G1 X167.056 Y149.849 E-.0568
G1 X167.018 Y149.69 E-.03925
;WIPE_END
G1 Z.6 F18000
G1 X165.859 Y150.073 Z.6
G1 Z.2
G1 E.8 F1800
;WIDTH:0.559999
G1 F7200
G1 X165.573 Y149.93 E.01306
G1 X165.461 Y149.796 E.00717
G1 X165.37 Y149.502 E.01256
G1 X165.37 Y148.666 E.03414
G1 X165.234 Y148.53 E.00785
G1 X162.766 Y148.53 E.10081
G1 X162.63 Y148.666 E.00785
G1 X162.63 Y149.503 E.03418
G1 X162.579 Y149.727 E.00939
G1 X162.495 Y149.858 E.00635
G1 X162.205 Y150.057 E.01439
G1 X161.918 Y150.064 E.01174
G1 X161.622 Y149.891 E.01397
G1 X161.505 Y149.658 E.01064
;WIDTH:0.541315
G1 X161.491 Y149.557 E.00402
;WIDTH:0.527517
G1 X161.489 Y146.083 E.133
;WIDTH:0.572308
G1 X161.514 Y145.928 E.00657
G1 X161.564 Y145.902 E.00235
G1 X161.564 Y144.665 E.05171
;WIDTH:0.597598
G1 X161.551 Y144.444 E.00974
;WIDTH:0.623743
G1 X161.538 Y144.222 E.01019
G1 X161.135 Y143.668 E.03141
;WIDTH:0.623543
G1 X160.859 Y143.065 E.03044
;WIDTH:0.616954
G1 X160.718 Y142.478 E.02737
;WIDTH:0.61717
G1 X160.685 Y141.875 E.02738
;WIDTH:0.619621
G1 X160.761 Y141.276 E.0275
;WIDTH:0.623221
G1 X160.931 Y140.745 E.02557
G1 X161.235 Y140.17 E.02978
;WIDTH:0.628103
G1 X161.536 Y139.785 E.02261
G1 X161.55 Y139.56 E.01043
;WIDTH:0.599781
