; HEADER_BLOCK_START
; generated by OrcaSlicer 1.7.0 on 2024-02-08 at 00:54:45
; total layer number: 4
; HEADER_BLOCK_END

; THUMBNAIL_BLOCK_START
; THUMBNAIL_BLOCK_END

; external perimeters extrusion width = 0.40mm
; perimeters extrusion width = 0.40mm
; infill extrusion width = 0.45mm
; solid infill extrusion width = 0.40mm
; top infill extrusion width = 0.40mm
; first layer extrusion width = 0.56mm

; EXECUTABLE_BLOCK_START
EXCLUDE_OBJECT_DEFINE NAME=Orca-PA-Calibration-Test CENTER=0,0 POLYGON=[[5,5],[295,5],[295,295],[5,295],[5,5]]
M73 P0 R12
;TYPE:Custom
M104 S0 ; Stops SuperSlicer from sending temp waits separately
M140 S0
print_start EXTRUDER=260 BED=105 CHAMBER=0 
G90
G21
M83 ; use relative distances for extrusion
; Filament gcode
SET_PRESSURE_ADVANCE ADVANCE=0.045; Override pressure advance value
M106 S0
;LAYER_CHANGE
;Z:0.25
;HEIGHT:0.25
;BEFORE_LAYER_CHANGE
;0.25
G92 E0

G1 E-.8 F1800
;AFTER_LAYER_CHANGE
;0.25
;_SET_FAN_SPEED_CHANGING_LAYER
SET_VELOCITY_LIMIT ACCEL=500
;CUSTOM_GCODE
; start pressure advance pattern for layer
G1 E-.8 ; retract
G1 X76.65 Y123.007 F18000 ; Move to start XY position
M73 P0 R11
G1 E.8 F1800 ;  ; unretract
G1 Z.25 F18000 ; Move to start Z position
SET_PRESSURE_ADVANCE ADVANCE=0; Override pressure advance value
G1 E-.8 F1800 ; retract
G1 X76.65 Y123.007 F18000 ; Move to box start
G1 E.8 F1800 ;  ; unretract

G1 X76.65 Y165.433 E2.12121 ; Draw perimeter (up)

G1 X218.35 Y165.433 E7.08469 ; Draw perimeter (right)

M73 P1 R11
G1 X218.35 Y123.007 E2.12121 ; Draw perimeter (down)

G1 X76.65 Y123.007 E7.08469 ; Draw perimeter (left)
G1 E-.8 ; retract
G1 X77.156 Y123.513 F18000 ; Step inwards to print next perimeter
G1 E.8 F1800 ;  ; unretract

G1 X77.156 Y164.927 E2.07058 ; Draw perimeter (up)

M73 P2 R11
G1 X217.844 Y164.927 E7.03406 ; Draw perimeter (right)

G1 X217.844 Y123.513 E2.07058 ; Draw perimeter (down)

G1 X77.156 Y123.513 E7.03406 ; Draw perimeter (left)
M73 P3 R11
G1 E-.8 ; retract
G1 X77.662 Y124.019 F18000 ; Step inwards to print next perimeter
G1 E.8 F1800 ;  ; unretract

G1 X77.662 Y164.421 E2.01995 ; Draw perimeter (up)

G1 X217.338 Y164.421 E6.98343 ; Draw perimeter (right)

M73 P4 R11
G1 X217.338 Y124.019 E2.01995 ; Draw perimeter (down)

G1 X77.662 Y124.019 E6.98343 ; Draw perimeter (left)
M73 P5 R11
G1 E-.8 ; retract
G1 X76.65 Y165.94 F18000 ; Move to box start
G1 E.8 F1800 ;  ; unretract

G1 X76.65 Y182.446 E.82528 ; Draw perimeter (up)

G1 X198.542 Y182.446 E6.0943 ; Draw perimeter (right)

M73 P6 R11
G1 X198.542 Y165.94 E.82528 ; Draw perimeter (down)

G1 X76.65 Y165.94 E6.0943 ; Draw perimeter (left)
G1 E-.8 ; retract
G1 X77.156 Y166.446 F18000 ; Step inwards to print next perimeter
G1 E.8 F1800 ;  ; unretract

G1 X77.156 Y181.94 E.77464 ; Draw perimeter (up)

G1 X198.035 Y181.94 E6.04367 ; Draw perimeter (right)

M73 P7 R11
G1 X198.035 Y166.446 E.77464 ; Draw perimeter (down)

G1 X77.156 Y166.446 E6.04367 ; Draw perimeter (left)
M73 P8 R11
G1 E-.8 ; retract
G1 X77.662 Y166.952 F18000 ; Step inwards to print next perimeter
G1 E.8 F1800 ;  ; unretract

G1 X77.662 Y181.433 E.72401 ; Draw perimeter (up)

G1 X197.529 Y181.433 E5.99303 ; Draw perimeter (right)

M73 P8 R10
G1 X197.529 Y166.952 E.72401 ; Draw perimeter (down)

G1 X77.662 Y166.952 E5.99303 ; Draw perimeter (left)
M73 P9 R10
G1 E-.8 ; retract
G1 X78.036 Y167.326 F18000 ; Move to fill start
G1 E.8 F1800 ;  ; unretract
G1 E-.8 ; retract
G1 X78.752 Y167.326 F18000 ; Fill: Step right
G1 E.8 F1800 ;  ; unretract

G1 X78.036 Y168.042 E.05063 ; Fill: Print up/left
G1 E-.8 ; retract
G1 X78.036 Y168.758 F18000 ; Fill: Step up
G1 E.8 F1800 ;  ; unretract

G1 X79.468 Y167.326 E.10126 ; Fill: Print down/right
G1 E-.8 ; retract
G1 X80.184 Y167.326 F18000 ; Fill: Step right
G1 E.8 F1800 ;  ; unretract

G1 X78.036 Y169.474 E.1519 ; Fill: Print up/left
G1 E-.8 ; retract
G1 X78.036 Y170.19 F18000 ; Fill: Step up
G1 E.8 F1800 ;  ; unretract

G1 X80.9 Y167.326 E.20253 ; Fill: Print down/right
G1 E-.8 ; retract
G1 X81.616 Y167.326 F18000 ; Fill: Step right
G1 E.8 F1800 ;  ; unretract

G1 X78.036 Y170.906 E.25316 ; Fill: Print up/left
G1 E-.8 ; retract
G1 X78.036 Y171.622 F18000 ; Fill: Step up
G1 E.8 F1800 ;  ; unretract

G1 X82.332 Y167.326 E.30379 ; Fill: Print down/right
G1 E-.8 ; retract
G1 X83.048 Y167.326 F18000 ; Fill: Step right
G1 E.8 F1800 ;  ; unretract

G1 X78.036 Y172.338 E.35443 ; Fill: Print up/left
G1 E-.8 ; retract
G1 X78.036 Y173.054 F18000 ; Fill: Step up
G1 E.8 F1800 ;  ; unretract

G1 X83.764 Y167.326 E.40506 ; Fill: Print down/right
G1 E-.8 ; retract
G1 X84.48 Y167.326 F18000 ; Fill: Step right
G1 E.8 F1800 ;  ; unretract

G1 X78.036 Y173.77 E.45569 ; Fill: Print up/left
G1 E-.8 ; retract
G1 X78.036 Y174.486 F18000 ; Fill: Step up
G1 E.8 F1800 ;  ; unretract

G1 X85.196 Y167.326 E.50632 ; Fill: Print down/right
G1 E-.8 ; retract
G1 X85.912 Y167.326 F18000 ; Fill: Step right
G1 E.8 F1800 ;  ; unretract

G1 X78.036 Y175.203 E.55696 ; Fill: Print up/left
G1 E-.8 ; retract
G1 X78.036 Y175.919 F18000 ; Fill: Step up
G1 E.8 F1800 ;  ; unretract

G1 X86.629 Y167.326 E.60759 ; Fill: Print down/right
G1 E-.8 ; retract
G1 X87.345 Y167.326 F18000 ; Fill: Step right
G1 E.8 F1800 ;  ; unretract

G1 X78.036 Y176.635 E.65822 ; Fill: Print up/left
M73 P10 R10
G1 E-.8 ; retract
G1 X78.036 Y177.351 F18000 ; Fill: Step up
G1 E.8 F1800 ;  ; unretract

G1 X88.061 Y167.326 E.70885 ; Fill: Print down/right
G1 E-.8 ; retract
G1 X88.777 Y167.326 F18000 ; Fill: Step right
G1 E.8 F1800 ;  ; unretract

G1 X78.036 Y178.067 E.75949 ; Fill: Print up/left
G1 E-.8 ; retract
G1 X78.036 Y178.783 F18000 ; Fill: Step up
G1 E.8 F1800 ;  ; unretract

G1 X89.493 Y167.326 E.81012 ; Fill: Print down/right
G1 E-.8 ; retract
G1 X90.209 Y167.326 F18000 ; Fill: Step right
G1 E.8 F1800 ;  ; unretract

G1 X78.036 Y179.499 E.86075 ; Fill: Print up/left
G1 E-.8 ; retract
G1 X78.036 Y180.215 F18000 ; Fill: Step up
G1 E.8 F1800 ;  ; unretract

G1 X90.925 Y167.326 E.91138 ; Fill: Print down/right
G1 E-.8 ; retract
G1 X91.641 Y167.326 F18000 ; Fill: Step right
G1 E.8 F1800 ;  ; unretract

G1 X78.036 Y180.931 E.96202 ; Fill: Print up/left
G1 E-.8 ; retract
G1 X78.623 Y181.06 F18000 ; Fill: Step right
G1 E.8 F1800 ;  ; unretract

G1 X92.357 Y167.326 E.97111 ; Fill: Print down/right
G1 E-.8 ; retract
G1 X93.073 Y167.326 F18000 ; Fill: Step right
G1 E.8 F1800 ;  ; unretract

G1 X79.339 Y181.06 E.97111 ; Fill: Print up/left
G1 E-.8 ; retract
G1 X80.055 Y181.06 F18000 ; Fill: Step right
G1 E.8 F1800 ;  ; unretract

G1 X93.789 Y167.326 E.97111 ; Fill: Print down/right
G1 E-.8 ; retract
G1 X94.506 Y167.326 F18000 ; Fill: Step right
M73 P11 R10
G1 E.8 F1800 ;  ; unretract

G1 X80.771 Y181.06 E.97111 ; Fill: Print up/left
G1 E-.8 ; retract
G1 X81.487 Y181.06 F18000 ; Fill: Step right
G1 E.8 F1800 ;  ; unretract

G1 X95.222 Y167.326 E.97111 ; Fill: Print down/right
G1 E-.8 ; retract
G1 X95.938 Y167.326 F18000 ; Fill: Step right
G1 E.8 F1800 ;  ; unretract

G1 X82.203 Y181.06 E.97111 ; Fill: Print up/left
G1 E-.8 ; retract
G1 X82.919 Y181.06 F18000 ; Fill: Step right
G1 E.8 F1800 ;  ; unretract

G1 X96.654 Y167.326 E.97111 ; Fill: Print down/right
G1 E-.8 ; retract
G1 X97.37 Y167.326 F18000 ; Fill: Step right
G1 E.8 F1800 ;  ; unretract

G1 X83.636 Y181.06 E.97111 ; Fill: Print up/left
G1 E-.8 ; retract
G1 X84.352 Y181.06 F18000 ; Fill: Step right
G1 E.8 F1800 ;  ; unretract

G1 X98.086 Y167.326 E.97111 ; Fill: Print down/right
G1 E-.8 ; retract
G1 X98.802 Y167.326 F18000 ; Fill: Step right
G1 E.8 F1800 ;  ; unretract

G1 X85.068 Y181.06 E.97111 ; Fill: Print up/left
G1 E-.8 ; retract
G1 X85.784 Y181.06 F18000 ; Fill: Step right
G1 E.8 F1800 ;  ; unretract

G1 X99.518 Y167.326 E.97111 ; Fill: Print down/right
G1 E-.8 ; retract
G1 X100.234 Y167.326 F18000 ; Fill: Step right
G1 E.8 F1800 ;  ; unretract

G1 X86.5 Y181.06 E.97111 ; Fill: Print up/left
M73 P12 R10
G1 E-.8 ; retract
G1 X87.216 Y181.06 F18000 ; Fill: Step right
G1 E.8 F1800 ;  ; unretract

G1 X100.95 Y167.326 E.97111 ; Fill: Print down/right
G1 E-.8 ; retract
G1 X101.666 Y167.326 F18000 ; Fill: Step right
G1 E.8 F1800 ;  ; unretract

G1 X87.932 Y181.06 E.97111 ; Fill: Print up/left
G1 E-.8 ; retract
G1 X88.648 Y181.06 F18000 ; Fill: Step right
G1 E.8 F1800 ;  ; unretract

G1 X102.382 Y167.326 E.97111 ; Fill: Print down/right
G1 E-.8 ; retract
G1 X103.099 Y167.326 F18000 ; Fill: Step right
G1 E.8 F1800 ;  ; unretract

G1 X89.364 Y181.06 E.97111 ; Fill: Print up/left
G1 E-.8 ; retract
G1 X90.08 Y181.06 F18000 ; Fill: Step right
G1 E.8 F1800 ;  ; unretract

G1 X103.815 Y167.326 E.97111 ; Fill: Print down/right
G1 E-.8 ; retract
G1 X104.531 Y167.326 F18000 ; Fill: Step right
G1 E.8 F1800 ;  ; unretract

G1 X90.796 Y181.06 E.97111 ; Fill: Print up/left
G1 E-.8 ; retract
G1 X91.513 Y181.06 F18000 ; Fill: Step right
G1 E.8 F1800 ;  ; unretract

G1 X105.247 Y167.326 E.97111 ; Fill: Print down/right
G1 E-.8 ; retract
G1 X105.963 Y167.326 F18000 ; Fill: Step right
G1 E.8 F1800 ;  ; unretract

G1 X92.229 Y181.06 E.97111 ; Fill: Print up/left
G1 E-.8 ; retract
G1 X92.945 Y181.06 F18000 ; Fill: Step right
G1 E.8 F1800 ;  ; unretract

G1 X106.679 Y167.326 E.97111 ; Fill: Print down/right
M73 P13 R10
G1 E-.8 ; retract
G1 X107.395 Y167.326 F18000 ; Fill: Step right
G1 E.8 F1800 ;  ; unretract

G1 X93.661 Y181.06 E.97111 ; Fill: Print up/left
G1 E-.8 ; retract
G1 X94.377 Y181.06 F18000 ; Fill: Step right
G1 E.8 F1800 ;  ; unretract

G1 X108.111 Y167.326 E.97111 ; Fill: Print down/right
G1 E-.8 ; retract
G1 X108.827 Y167.326 F18000 ; Fill: Step right
G1 E.8 F1800 ;  ; unretract

G1 X95.093 Y181.06 E.97111 ; Fill: Print up/left
G1 E-.8 ; retract
G1 X95.809 Y181.06 F18000 ; Fill: Step right
G1 E.8 F1800 ;  ; unretract

G1 X109.543 Y167.326 E.97111 ; Fill: Print down/right
G1 E-.8 ; retract
G1 X110.259 Y167.326 F18000 ; Fill: Step right
G1 E.8 F1800 ;  ; unretract

G1 X96.525 Y181.06 E.97111 ; Fill: Print up/left
G1 E-.8 ; retract
G1 X97.241 Y181.06 F18000 ; Fill: Step right
G1 E.8 F1800 ;  ; unretract

G1 X110.976 Y167.326 E.97111 ; Fill: Print down/right
G1 E-.8 ; retract
G1 X111.692 Y167.326 F18000 ; Fill: Step right
G1 E.8 F1800 ;  ; unretract

G1 X97.957 Y181.06 E.97111 ; Fill: Print up/left
G1 E-.8 ; retract
G1 X98.673 Y181.06 F18000 ; Fill: Step right
G1 E.8 F1800 ;  ; unretract

G1 X112.408 Y167.326 E.97111 ; Fill: Print down/right
G1 E-.8 ; retract
G1 X113.124 Y167.326 F18000 ; Fill: Step right
G1 E.8 F1800 ;  ; unretract

G1 X99.389 Y181.06 E.97111 ; Fill: Print up/left
M73 P14 R10
G1 E-.8 ; retract
G1 X100.106 Y181.06 F18000 ; Fill: Step right
G1 E.8 F1800 ;  ; unretract

G1 X113.84 Y167.326 E.97111 ; Fill: Print down/right
G1 E-.8 ; retract
G1 X114.556 Y167.326 F18000 ; Fill: Step right
G1 E.8 F1800 ;  ; unretract

G1 X100.822 Y181.06 E.97111 ; Fill: Print up/left
G1 E-.8 ; retract
G1 X101.538 Y181.06 F18000 ; Fill: Step right
G1 E.8 F1800 ;  ; unretract

G1 X115.272 Y167.326 E.97111 ; Fill: Print down/right
G1 E-.8 ; retract
G1 X115.988 Y167.326 F18000 ; Fill: Step right
G1 E.8 F1800 ;  ; unretract

G1 X102.254 Y181.06 E.97111 ; Fill: Print up/left
G1 E-.8 ; retract
G1 X102.97 Y181.06 F18000 ; Fill: Step right
G1 E.8 F1800 ;  ; unretract

G1 X116.704 Y167.326 E.97111 ; Fill: Print down/right
G1 E-.8 ; retract
G1 X117.42 Y167.326 F18000 ; Fill: Step right
G1 E.8 F1800 ;  ; unretract

G1 X103.686 Y181.06 E.97111 ; Fill: Print up/left
G1 E-.8 ; retract
G1 X104.402 Y181.06 F18000 ; Fill: Step right
G1 E.8 F1800 ;  ; unretract

G1 X118.136 Y167.326 E.97111 ; Fill: Print down/right
G1 E-.8 ; retract
G1 X118.852 Y167.326 F18000 ; Fill: Step right
G1 E.8 F1800 ;  ; unretract

G1 X105.118 Y181.06 E.97111 ; Fill: Print up/left
G1 E-.8 ; retract
G1 X105.834 Y181.06 F18000 ; Fill: Step right
M73 P15 R10
G1 E.8 F1800 ;  ; unretract

G1 X119.569 Y167.326 E.97111 ; Fill: Print down/right
G1 E-.8 ; retract
G1 X120.285 Y167.326 F18000 ; Fill: Step right
G1 E.8 F1800 ;  ; unretract

G1 X106.55 Y181.06 E.97111 ; Fill: Print up/left
G1 E-.8 ; retract
G1 X107.266 Y181.06 F18000 ; Fill: Step right
G1 E.8 F1800 ;  ; unretract

G1 X121.001 Y167.326 E.97111 ; Fill: Print down/right
G1 E-.8 ; retract
G1 X121.717 Y167.326 F18000 ; Fill: Step right
G1 E.8 F1800 ;  ; unretract

G1 X107.983 Y181.06 E.97111 ; Fill: Print up/left
G1 E-.8 ; retract
G1 X108.699 Y181.06 F18000 ; Fill: Step right
G1 E.8 F1800 ;  ; unretract

G1 X122.433 Y167.326 E.97111 ; Fill: Print down/right
G1 E-.8 ; retract
G1 X123.149 Y167.326 F18000 ; Fill: Step right
G1 E.8 F1800 ;  ; unretract

G1 X109.415 Y181.06 E.97111 ; Fill: Print up/left
G1 E-.8 ; retract
G1 X110.131 Y181.06 F18000 ; Fill: Step right
G1 E.8 F1800 ;  ; unretract

G1 X123.865 Y167.326 E.97111 ; Fill: Print down/right
G1 E-.8 ; retract
G1 X124.581 Y167.326 F18000 ; Fill: Step right
G1 E.8 F1800 ;  ; unretract

G1 X110.847 Y181.06 E.97111 ; Fill: Print up/left
G1 E-.8 ; retract
G1 X111.563 Y181.06 F18000 ; Fill: Step right
G1 E.8 F1800 ;  ; unretract

G1 X125.297 Y167.326 E.97111 ; Fill: Print down/right
M73 P16 R10
G1 E-.8 ; retract
G1 X126.013 Y167.326 F18000 ; Fill: Step right
G1 E.8 F1800 ;  ; unretract

G1 X112.279 Y181.06 E.97111 ; Fill: Print up/left
G1 E-.8 ; retract
G1 X112.995 Y181.06 F18000 ; Fill: Step right
G1 E.8 F1800 ;  ; unretract

G1 X126.729 Y167.326 E.97111 ; Fill: Print down/right
G1 E-.8 ; retract
G1 X127.445 Y167.326 F18000 ; Fill: Step right
G1 E.8 F1800 ;  ; unretract

G1 X113.711 Y181.06 E.97111 ; Fill: Print up/left
G1 E-.8 ; retract
G1 X114.427 Y181.06 F18000 ; Fill: Step right
G1 E.8 F1800 ;  ; unretract

G1 X128.162 Y167.326 E.97111 ; Fill: Print down/right
G1 E-.8 ; retract
G1 X128.878 Y167.326 F18000 ; Fill: Step right
G1 E.8 F1800 ;  ; unretract

G1 X115.143 Y181.06 E.97111 ; Fill: Print up/left
G1 E-.8 ; retract
G1 X115.859 Y181.06 F18000 ; Fill: Step right
G1 E.8 F1800 ;  ; unretract

G1 X129.594 Y167.326 E.97111 ; Fill: Print down/right
M73 P16 R9
G1 E-.8 ; retract
G1 X130.31 Y167.326 F18000 ; Fill: Step right
G1 E.8 F1800 ;  ; unretract

G1 X116.576 Y181.06 E.97111 ; Fill: Print up/left
G1 E-.8 ; retract
G1 X117.292 Y181.06 F18000 ; Fill: Step right
G1 E.8 F1800 ;  ; unretract

G1 X131.026 Y167.326 E.97111 ; Fill: Print down/right
G1 E-.8 ; retract
G1 X131.742 Y167.326 F18000 ; Fill: Step right
G1 E.8 F1800 ;  ; unretract

G1 X118.008 Y181.06 E.97111 ; Fill: Print up/left
M73 P17 R9
G1 E-.8 ; retract
G1 X118.724 Y181.06 F18000 ; Fill: Step right
G1 E.8 F1800 ;  ; unretract

G1 X132.458 Y167.326 E.97111 ; Fill: Print down/right
G1 E-.8 ; retract
G1 X133.174 Y167.326 F18000 ; Fill: Step right
G1 E.8 F1800 ;  ; unretract

G1 X119.44 Y181.06 E.97111 ; Fill: Print up/left
G1 E-.8 ; retract
G1 X120.156 Y181.06 F18000 ; Fill: Step right
G1 E.8 F1800 ;  ; unretract

G1 X133.89 Y167.326 E.97111 ; Fill: Print down/right
G1 E-.8 ; retract
G1 X134.606 Y167.326 F18000 ; Fill: Step right
G1 E.8 F1800 ;  ; unretract

G1 X120.872 Y181.06 E.97111 ; Fill: Print up/left
G1 E-.8 ; retract
G1 X121.588 Y181.06 F18000 ; Fill: Step right
G1 E.8 F1800 ;  ; unretract

G1 X135.322 Y167.326 E.97111 ; Fill: Print down/right
G1 E-.8 ; retract
G1 X136.039 Y167.326 F18000 ; Fill: Step right
G1 E.8 F1800 ;  ; unretract

G1 X122.304 Y181.06 E.97111 ; Fill: Print up/left
G1 E-.8 ; retract
G1 X123.02 Y181.06 F18000 ; Fill: Step right
G1 E.8 F1800 ;  ; unretract

G1 X136.755 Y167.326 E.97111 ; Fill: Print down/right
G1 E-.8 ; retract
G1 X137.471 Y167.326 F18000 ; Fill: Step right
G1 E.8 F1800 ;  ; unretract

G1 X123.736 Y181.06 E.97111 ; Fill: Print up/left
G1 E-.8 ; retract
G1 X124.453 Y181.06 F18000 ; Fill: Step right
G1 E.8 F1800 ;  ; unretract

G1 X138.187 Y167.326 E.97111 ; Fill: Print down/right
M73 P18 R9
G1 E-.8 ; retract
G1 X138.903 Y167.326 F18000 ; Fill: Step right
G1 E.8 F1800 ;  ; unretract

G1 X125.169 Y181.06 E.97111 ; Fill: Print up/left
G1 E-.8 ; retract
G1 X125.885 Y181.06 F18000 ; Fill: Step right
G1 E.8 F1800 ;  ; unretract

G1 X139.619 Y167.326 E.97111 ; Fill: Print down/right
G1 E-.8 ; retract
G1 X140.335 Y167.326 F18000 ; Fill: Step right
