; HEADER_BLOCK_START
; generated by OrcaSlicer 1.7.0 on 2024-02-09 at 23:03:53
; total layer number: 2
; HEADER_BLOCK_END

; THUMBNAIL_BLOCK_START
; THUMBNAIL_BLOCK_END

; external perimeters extrusion width = 0.40mm
; perimeters extrusion width = 0.40mm
; infill extrusion width = 0.45mm
; solid infill extrusion width = 0.40mm
; top infill extrusion width = 0.40mm
; first layer extrusion width = 0.56mm

; EXECUTABLE_BLOCK_START
EXCLUDE_OBJECT_DEFINE NAME=flat_rectangle.stl_id_0_copy_0 CENTER=150,150 POLYGON=[[75,76.5],[75.0228,76.2395],[75.0905,75.987],[75.201,75.75],[75.3509,75.5358],[75.5358,75.3509],[75.75,75.201],[75.987,75.0905],[76.2395,75.0228],[76.5,75],[223.5,75],[223.76,75.0228],[224.013,75.0905],[224.25,75.201],[224.464,75.3509],[224.649,75.5358],[224.799,75.75],[224.91,75.987],[224.977,76.2395],[225,76.5],[225,223.5],[224.977,223.76],[224.91,224.013],[224.799,224.25],[224.649,224.464],[224.464,224.649],[224.25,224.799],[224.013,224.91],[223.76,224.977],[223.5,225],[76.5,225],[76.2395,224.977],[75.987,224.91],[75.75,224.799],[75.5358,224.649],[75.3509,224.464],[75.201,224.25],[75.0905,224.013],[75.0228,223.76],[75,223.5],[75,76.5]]
M73 P0 R15
;TYPE:Custom
M104 S0 ; Stops SuperSlicer from sending temp waits separately
M140 S0
print_start EXTRUDER=260 BED=105 CHAMBER=0 
G90
G21
M83 ; use relative distances for extrusion
; Filament gcode
SET_PRESSURE_ADVANCE ADVANCE=0.042; Override pressure advance value
M106 S0
;LAYER_CHANGE
;Z:0.2
;HEIGHT:0.2
;BEFORE_LAYER_CHANGE
;0.2
G92 E0

G1 E-.8 F1800
;AFTER_LAYER_CHANGE
;0.2
;_SET_FAN_SPEED_CHANGING_LAYER
SET_VELOCITY_LIMIT ACCEL=500
G1 Z.4 F18000
G1 X73.205 Y73.39
G1 Z.4
G1 Z.2
G1 E.8 F1800
;TYPE:Skirt
;WIDTH:0.56
G1 F6962.177
G1 X73.967 Y72.746 E.04075
G1 X74.705 Y72.341 E.03438
G1 X75.454 Y72.092 E.03226
G1 X76.5 Y71.966 E.04302
G1 X223.764 Y71.977 E6.0151
G1 X224.546 Y72.092 E.03225
G1 X225.295 Y72.341 E.03226
G1 X225.99 Y72.716 E.03226
G1 X226.794 Y73.39 E.04287
G1 X227.284 Y74.01 E.03226
G1 X227.659 Y74.705 E.03226
G1 X227.908 Y75.454 E.03225
G1 X228.034 Y76.5 E.04303
G1 X228.034 Y223.5 E6.0043
G1 X227.908 Y224.546 E.04303
G1 X227.659 Y225.295 E.03225
G1 X227.284 Y225.99 E.03226
G1 X226.795 Y226.61 E.03225
G1 X225.99 Y227.284 E.04288
G1 X225.295 Y227.659 E.03226
G1 X224.546 Y227.908 E.03225
G1 X223.5 Y228.034 E.04303
G1 X76.5 Y228.034 E6.0043
G1 X75.454 Y227.908 E.04303
G1 X74.705 Y227.659 E.03225
G1 X74.01 Y227.284 E.03226
G1 X73.39 Y226.794 E.03226
G1 X72.716 Y225.99 E.04288
G1 X72.341 Y225.295 E.03226
G1 X72.092 Y224.546 E.03226
G1 X71.966 Y223.5 E.04302
G1 X71.966 Y76.5 E6.0043
G1 X72.092 Y75.454 E.04302
G1 X72.341 Y74.705 E.03226
G1 X72.716 Y74.01 E.03225
G1 X73.181 Y73.422 E.03062
G1 X73.571 Y73.756 F18000
G1 F6962.177
G1 X74.263 Y73.169 E.03707
G1 X74.923 Y72.809 E.0307
G1 X75.588 Y72.591 E.02858
G1 X76.5 Y72.483 E.03751
G1 X223.719 Y72.493 E6.01326
G1 X224.664 Y72.659 E.03919
G1 X225.314 Y72.92 E.02858
G1 X225.908 Y73.289 E.02858
G1 X226.429 Y73.756 E.02857
G1 X226.861 Y74.306 E.02858
M73 P1 R15
G1 X227.191 Y74.923 E.02858
G1 X227.409 Y75.588 E.02857
G1 X227.517 Y76.5 E.03751
G1 X227.517 Y223.5 E6.0043
M73 P1 R14
G1 X227.409 Y224.412 E.03751
G1 X227.191 Y225.077 E.02857
G1 X226.861 Y225.694 E.02858
G1 X226.429 Y226.244 E.02857
G1 X225.694 Y226.861 E.0392
G1 X225.077 Y227.191 E.02858
G1 X224.412 Y227.409 E.02857
G1 X223.5 Y227.517 E.03751
G1 X76.5 Y227.517 E6.0043
G1 X75.588 Y227.409 E.03751
G1 X74.923 Y227.191 E.02857
G1 X74.306 Y226.861 E.02858
G1 X73.756 Y226.429 E.02858
G1 X73.139 Y225.694 E.03919
G1 X72.809 Y225.077 E.02858
G1 X72.591 Y224.412 E.02858
G1 X72.483 Y223.5 E.03751
G1 X72.483 Y76.5 E6.0043
G1 X72.591 Y75.588 E.03751
G1 X72.809 Y74.923 E.02858
G1 X73.139 Y74.306 E.02857
G1 X73.546 Y73.787 E.02694
; printing object flat_rectangle.stl id:0 copy 0
G1 E-.56 F1800
;WIPE_START
G1 F6962.177
G1 X74.263 Y73.169 E-.22724
G1 X74.31 Y73.144 E-.01276
;WIPE_END
EXCLUDE_OBJECT_START NAME=flat_rectangle.stl_id_0_copy_0
G1 Z.6 F18000
G1 X223.488 Y224.72 Z.6
G1 Z.2
G1 E.8 F1800
;TYPE:Outer wall
;WIDTH:0.559999
G1 F6962.186
G1 X76.643 Y224.72 E5.99797
G1 X76.084 Y224.643 E.02303
G1 X75.718 Y224.431 E.01725
G1 X75.447 Y224.108 E.01725
G1 X75.357 Y223.862 E.01069
G1 X75.28 Y223.488 E.01561
G1 X75.28 Y76.643 E5.99797
M73 P2 R14
G1 X75.357 Y76.084 E.02303
G1 X75.569 Y75.717 E.0173
G1 X75.78 Y75.537 E.01131
G1 X76.077 Y75.359 E.01416
G1 X76.524 Y75.28 E.01853
G1 X223.357 Y75.28 E5.9975
G1 X223.916 Y75.358 E.02305
G1 X224.282 Y75.569 E.01724
G1 X224.553 Y75.892 E.01725
G1 X224.701 Y76.3 E.01772
G1 X224.72 Y76.565 E.01088
G1 X224.72 Y223.357 E5.9958
G1 X224.643 Y223.916 E.02303
G1 X224.431 Y224.282 E.01725
G1 X224.108 Y224.553 E.01725
G1 X223.862 Y224.643 E.01069
G1 X223.527 Y224.712 E.01398
G1 E-.56 F1800
;WIPE_START
G1 F6962.186
G1 X222.527 Y224.712 E-.24
;WIPE_END
G1 Z.6 F18000
G1 X222.866 Y75.435 Z.6
G1 Z.2
G1 E.8 F1800
;TYPE:Bottom surface
;WIDTH:0.560285
G1 F6958.337
G1 X224.332 Y76.902 E.08476
G1 X224.332 Y77.633 E.0299
G1 X222.367 Y75.668 E.1136
G1 X221.635 Y75.668 E.0299
G1 X224.332 Y78.365 E.15589
G1 X224.332 Y79.097 E.0299
G1 X220.903 Y75.668 E.19817
G1 X220.172 Y75.668 E.0299
G1 X224.332 Y79.828 E.24046
G1 X224.332 Y80.56 E.0299
G1 X219.44 Y75.668 E.28275
G1 X218.708 Y75.668 E.0299
G1 X224.332 Y81.292 E.32504
G1 X224.332 Y82.023 E.0299
G1 X217.977 Y75.668 E.36732
G1 X217.245 Y75.668 E.0299
G1 X224.332 Y82.755 E.40961
G1 X224.332 Y83.487 E.0299
G1 X216.513 Y75.668 E.4519
G1 X215.782 Y75.668 E.0299
G1 X224.332 Y84.218 E.49419
G1 X224.332 Y84.95 E.0299
G1 X215.05 Y75.668 E.53647
G1 X214.318 Y75.668 E.0299
G1 X224.332 Y85.682 E.57876
G1 X224.332 Y86.413 E.0299
G1 X213.587 Y75.668 E.62105
G1 X212.855 Y75.668 E.0299
G1 X224.332 Y87.145 E.66334
G1 X224.332 Y87.877 E.0299
G1 X212.123 Y75.668 E.70562
G1 X211.392 Y75.668 E.0299
G1 X224.332 Y88.608 E.74791
M73 P3 R14
G1 X224.332 Y89.34 E.0299
G1 X210.66 Y75.668 E.7902
G1 X209.928 Y75.668 E.0299
G1 X224.332 Y90.072 E.83249
G1 X224.332 Y90.803 E.0299
G1 X209.197 Y75.668 E.87477
G1 X208.465 Y75.668 E.0299
G1 X224.332 Y91.535 E.91706
G1 X224.332 Y92.267 E.0299
G1 X207.733 Y75.668 E.95935
G1 X207.002 Y75.668 E.0299
G1 X224.332 Y92.998 E1.00164
G1 X224.332 Y93.73 E.0299
G1 X206.27 Y75.668 E1.04392
G1 X205.538 Y75.668 E.0299
G1 X224.332 Y94.462 E1.08621
G1 X224.332 Y95.193 E.0299
G1 X204.807 Y75.668 E1.1285
G1 X204.075 Y75.668 E.0299
G1 X224.332 Y95.925 E1.17079
G1 X224.332 Y96.657 E.0299
G1 X203.343 Y75.668 E1.21307
G1 X202.612 Y75.668 E.0299
G1 X224.332 Y97.388 E1.25536
G1 X224.332 Y98.12 E.0299
G1 X201.88 Y75.668 E1.29765
G1 X201.148 Y75.668 E.0299
G1 X224.332 Y98.852 E1.33994
G1 X224.332 Y99.583 E.0299
G1 X200.417 Y75.668 E1.38222
G1 X199.685 Y75.668 E.0299
G1 X224.332 Y100.315 E1.42451
G1 X224.332 Y101.047 E.0299
G1 X198.953 Y75.668 E1.4668
G1 X198.222 Y75.668 E.0299
G1 X224.332 Y101.778 E1.50909
G1 X224.332 Y102.51 E.0299
G1 X197.49 Y75.668 E1.55137
M73 P4 R14
G1 X196.758 Y75.668 E.0299
G1 X224.332 Y103.242 E1.59366
G1 X224.332 Y103.973 E.0299
G1 X196.027 Y75.668 E1.63595
G1 X195.295 Y75.668 E.0299
G1 X224.332 Y104.705 E1.67824
G1 X224.332 Y105.437 E.0299
G1 X194.563 Y75.668 E1.72052
G1 X193.832 Y75.668 E.0299
G1 X224.332 Y106.168 E1.76281
G1 X224.332 Y106.9 E.0299
G1 X193.1 Y75.668 E1.8051
G1 X192.368 Y75.668 E.0299
G1 X224.332 Y107.632 E1.84739
G1 X224.332 Y108.363 E.0299
G1 X191.637 Y75.668 E1.88967
G1 X190.905 Y75.668 E.0299
G1 X224.332 Y109.095 E1.93196
G1 X224.332 Y109.827 E.0299
G1 X190.173 Y75.668 E1.97425
G1 X189.442 Y75.668 E.0299
G1 X224.332 Y110.558 E2.01654
G1 X224.332 Y111.29 E.0299
G1 X188.71 Y75.668 E2.05882
G1 X187.978 Y75.668 E.0299
G1 X224.332 Y112.022 E2.10111
G1 X224.332 Y112.753 E.0299
G1 X187.247 Y75.668 E2.1434
G1 X186.515 Y75.668 E.0299
G1 X224.332 Y113.485 E2.18569
M73 P5 R14
G1 X224.332 Y114.217 E.0299
G1 X185.783 Y75.668 E2.22797
G1 X185.052 Y75.668 E.0299
G1 X224.332 Y114.948 E2.27026
G1 X224.332 Y115.68 E.0299
G1 X184.32 Y75.668 E2.31255
G1 X183.588 Y75.668 E.0299
G1 X224.332 Y116.412 E2.35484
G1 X224.332 Y117.143 E.0299
G1 X182.857 Y75.668 E2.39712
G1 X182.125 Y75.668 E.0299
G1 X224.332 Y117.875 E2.43941
G1 X224.332 Y118.607 E.0299
G1 X181.393 Y75.668 E2.4817
G1 X180.662 Y75.668 E.0299
G1 X224.332 Y119.338 E2.52399
G1 X224.332 Y120.07 E.0299
G1 X179.93 Y75.668 E2.56627
G1 X179.198 Y75.668 E.0299
G1 X224.332 Y120.802 E2.60856
G1 X224.332 Y121.533 E.0299
G1 X178.467 Y75.668 E2.65085
G1 X177.735 Y75.668 E.0299
G1 X224.332 Y122.265 E2.69313
M73 P6 R14
G1 X224.332 Y122.997 E.0299
G1 X177.003 Y75.668 E2.73542
G1 X176.272 Y75.668 E.0299
G1 X224.332 Y123.728 E2.77771
G1 X224.332 Y124.46 E.0299
G1 X175.54 Y75.668 E2.82
G1 X174.808 Y75.668 E.0299
G1 X224.332 Y125.192 E2.86228
G1 X224.332 Y125.923 E.0299
G1 X174.077 Y75.668 E2.90457
G1 X173.345 Y75.668 E.0299
G1 X224.332 Y126.655 E2.94686
G1 X224.332 Y127.387 E.0299
G1 X172.613 Y75.668 E2.98915
G1 X171.882 Y75.668 E.0299
G1 X224.332 Y128.118 E3.03143
G1 X224.332 Y128.85 E.0299
G1 X171.15 Y75.668 E3.07372
G1 X170.419 Y75.668 E.0299
G1 X224.332 Y129.581 E3.11601
G1 X224.332 Y130.313 E.0299
G1 X169.687 Y75.668 E3.1583
M73 P7 R14
G1 X168.955 Y75.668 E.0299
G1 X224.332 Y131.045 E3.20058
G1 X224.332 Y131.776 E.0299
G1 X168.224 Y75.668 E3.24287
G1 X167.492 Y75.668 E.0299
G1 X224.332 Y132.508 E3.28516
G1 X224.332 Y133.24 E.0299
G1 X166.76 Y75.668 E3.32745
G1 X166.029 Y75.668 E.0299
G1 X224.332 Y133.971 E3.36973
G1 X224.332 Y134.703 E.0299
G1 X165.297 Y75.668 E3.41202
M73 P7 R13
G1 X164.565 Y75.668 E.0299
G1 X224.332 Y135.435 E3.45431
G1 X224.332 Y136.166 E.0299
G1 X163.834 Y75.668 E3.4966
G1 X163.102 Y75.668 E.0299
G1 X224.332 Y136.898 E3.53888
M73 P8 R13
G1 X224.332 Y137.63 E.0299
G1 X162.37 Y75.668 E3.58117
G1 X161.639 Y75.668 E.0299
G1 X224.332 Y138.361 E3.62346
G1 X224.332 Y139.093 E.0299
G1 X160.907 Y75.668 E3.66575
G1 X160.175 Y75.668 E.0299
G1 X224.332 Y139.825 E3.70803
G1 X224.332 Y140.556 E.0299
G1 X159.444 Y75.668 E3.75032
G1 X158.712 Y75.668 E.0299
G1 X224.332 Y141.288 E3.79261
G1 X224.332 Y142.02 E.0299
G1 X157.98 Y75.668 E3.8349
G1 X157.249 Y75.668 E.0299
G1 X224.332 Y142.751 E3.87718
G1 X224.332 Y143.483 E.0299
G1 X156.517 Y75.668 E3.91947
M73 P9 R13
G1 X155.785 Y75.668 E.0299
G1 X224.332 Y144.215 E3.96176
G1 X224.332 Y144.946 E.0299
G1 X155.054 Y75.668 E4.00405
G1 X154.322 Y75.668 E.0299
G1 X224.332 Y145.678 E4.04633
G1 X224.332 Y146.41 E.0299
G1 X153.59 Y75.668 E4.08862
G1 X152.859 Y75.668 E.0299
G1 X224.332 Y147.141 E4.13091
G1 X224.332 Y147.873 E.0299
G1 X152.127 Y75.668 E4.1732
G1 X151.395 Y75.668 E.0299
G1 X224.332 Y148.605 E4.21548
G1 X224.332 Y149.336 E.0299
G1 X150.664 Y75.668 E4.25777
G1 X149.932 Y75.668 E.0299
M73 P10 R13
G1 X224.332 Y150.068 E4.30006
G1 X224.332 Y150.8 E.0299
G1 X149.2 Y75.668 E4.34235
G1 X148.469 Y75.668 E.0299
G1 X224.332 Y151.531 E4.38463
G1 X224.332 Y152.263 E.0299
G1 X147.737 Y75.668 E4.42692
G1 X147.005 Y75.668 E.0299
G1 X224.332 Y152.995 E4.46921
G1 X224.332 Y153.726 E.0299
G1 X146.274 Y75.668 E4.5115
G1 X145.542 Y75.668 E.0299
G1 X224.332 Y154.458 E4.55378
G1 X224.332 Y155.19 E.0299
G1 X144.81 Y75.668 E4.59607
M73 P11 R13
G1 X144.079 Y75.668 E.0299
G1 X224.332 Y155.921 E4.63836
G1 X224.332 Y156.653 E.0299
G1 X143.347 Y75.668 E4.68065
G1 X142.615 Y75.668 E.0299
G1 X224.332 Y157.385 E4.72293
G1 X224.332 Y158.116 E.0299
G1 X141.884 Y75.668 E4.76522
G1 X141.152 Y75.668 E.0299
G1 X224.332 Y158.848 E4.80751
G1 X224.332 Y159.58 E.0299
G1 X140.42 Y75.668 E4.8498
G1 X139.689 Y75.668 E.0299
G1 X224.332 Y160.311 E4.89208
G1 X224.332 Y161.043 E.0299
G1 X138.957 Y75.668 E4.93437
M73 P12 R13
G1 X138.225 Y75.668 E.0299
G1 X224.332 Y161.775 E4.97666
G1 X224.332 Y162.506 E.0299
G1 X137.494 Y75.668 E5.01895
G1 X136.762 Y75.668 E.0299
G1 X224.332 Y163.238 E5.06123
G1 X224.332 Y163.97 E.0299
G1 X136.03 Y75.668 E5.10352
G1 X135.299 Y75.668 E.0299
G1 X224.332 Y164.701 E5.14581
G1 X224.332 Y165.433 E.0299
G1 X134.567 Y75.668 E5.1881
G1 X133.835 Y75.668 E.0299
G1 X224.332 Y166.165 E5.23038
M73 P13 R13
G1 X224.332 Y166.896 E.0299
G1 X133.104 Y75.668 E5.27267
G1 X132.372 Y75.668 E.0299
G1 X224.332 Y167.628 E5.31496
G1 X224.332 Y168.36 E.0299
G1 X131.64 Y75.668 E5.35725
G1 X130.909 Y75.668 E.0299
G1 X224.332 Y169.091 E5.39953
G1 X224.332 Y169.823 E.0299
G1 X130.177 Y75.668 E5.44182
G1 X129.445 Y75.668 E.0299
G1 X224.332 Y170.555 E5.48411
M73 P14 R13
G1 X224.332 Y171.286 E.0299
G1 X128.714 Y75.668 E5.5264
G1 X127.982 Y75.668 E.0299
G1 X224.332 Y172.018 E5.56868
M73 P14 R12
G1 X224.332 Y172.75 E.0299
G1 X127.25 Y75.668 E5.61097
G1 X126.519 Y75.668 E.0299
G1 X224.332 Y173.481 E5.65326
G1 X224.332 Y174.213 E.0299
G1 X125.787 Y75.668 E5.69555
G1 X125.055 Y75.668 E.0299
G1 X224.332 Y174.945 E5.73783
G1 X224.332 Y175.676 E.0299
G1 X124.324 Y75.668 E5.78012
M73 P15 R12
G1 X123.592 Y75.668 E.0299
G1 X224.332 Y176.408 E5.82241
G1 X224.332 Y177.14 E.0299
G1 X122.86 Y75.668 E5.8647
G1 X122.129 Y75.668 E.0299
G1 X224.332 Y177.871 E5.90698
G1 X224.332 Y178.603 E.0299
G1 X121.397 Y75.668 E5.94927
G1 X120.665 Y75.668 E.0299
G1 X224.332 Y179.335 E5.99156
G1 X224.332 Y180.066 E.0299
G1 X119.934 Y75.668 E6.03384
M73 P16 R12
G1 X119.202 Y75.668 E.0299
G1 X224.332 Y180.798 E6.07613
G1 X224.332 Y181.53 E.0299
G1 X118.47 Y75.668 E6.11842
G1 X117.739 Y75.668 E.0299
G1 X224.332 Y182.261 E6.16071
G1 X224.332 Y182.993 E.0299
G1 X117.007 Y75.668 E6.20299
G1 X116.275 Y75.668 E.0299
G1 X224.332 Y183.725 E6.24528
G1 X224.332 Y184.456 E.0299
G1 X115.544 Y75.668 E6.28757
M73 P17 R12
G1 X114.812 Y75.668 E.0299
G1 X224.332 Y185.188 E6.32986
G1 X224.332 Y185.92 E.0299
G1 X114.08 Y75.668 E6.37214
G1 X113.349 Y75.668 E.0299
G1 X224.332 Y186.651 E6.41443
G1 X224.332 Y187.383 E.0299
G1 X112.617 Y75.668 E6.45672
G1 X111.885 Y75.668 E.0299
G1 X224.332 Y188.115 E6.49901
G1 X224.332 Y188.846 E.0299
G1 X111.154 Y75.668 E6.54129
M73 P18 R12
G1 X110.422 Y75.668 E.0299
G1 X224.332 Y189.578 E6.58358
G1 X224.332 Y190.31 E.0299
G1 X109.69 Y75.668 E6.62587
G1 X108.959 Y75.668 E.0299
G1 X224.332 Y191.041 E6.66816
G1 X224.332 Y191.773 E.0299
G1 X108.227 Y75.668 E6.71044
G1 X107.495 Y75.668 E.0299
G1 X224.332 Y192.505 E6.75273
M73 P19 R12
G1 X224.332 Y193.236 E.0299
G1 X106.764 Y75.668 E6.79502
G1 X106.032 Y75.668 E.0299
G1 X224.332 Y193.968 E6.83731
G1 X224.332 Y194.7 E.0299
G1 X105.3 Y75.668 E6.87959
G1 X104.569 Y75.668 E.0299
G1 X224.332 Y195.431 E6.92188
G1 X224.332 Y196.163 E.0299
G1 X103.837 Y75.668 E6.96417
G1 X103.105 Y75.668 E.0299
G1 X224.332 Y196.895 E7.00646
M73 P20 R12
G1 X224.332 Y197.626 E.0299
G1 X102.374 Y75.668 E7.04874
G1 X101.642 Y75.668 E.0299
G1 X224.332 Y198.358 E7.09103
G1 X224.332 Y199.09 E.0299
G1 X100.91 Y75.668 E7.13332
G1 X100.179 Y75.668 E.0299
G1 X224.332 Y199.821 E7.17561
M73 P20 R11
G1 X224.332 Y200.553 E.0299
G1 X99.447 Y75.668 E7.21789
M73 P21 R11
G1 X98.715 Y75.668 E.0299
G1 X224.332 Y201.285 E7.26018
G1 X224.332 Y202.016 E.0299
G1 X97.984 Y75.668 E7.30247
G1 X97.252 Y75.668 E.0299
G1 X224.332 Y202.748 E7.34476
G1 X224.332 Y203.48 E.0299
G1 X96.52 Y75.668 E7.38704
G1 X95.789 Y75.668 E.0299
G1 X224.332 Y204.211 E7.42933
M73 P22 R11
G1 X224.332 Y204.943 E.0299
G1 X95.057 Y75.668 E7.47162
G1 X94.325 Y75.668 E.0299
G1 X224.332 Y205.675 E7.51391
G1 X224.332 Y206.406 E.0299
G1 X93.594 Y75.668 E7.55619
G1 X92.862 Y75.668 E.0299
G1 X224.332 Y207.138 E7.59848
G1 X224.332 Y207.87 E.0299
G1 X92.13 Y75.668 E7.64077
M73 P23 R11
G1 X91.399 Y75.668 E.0299
G1 X224.332 Y208.601 E7.68306
G1 X224.332 Y209.333 E.0299
G1 X90.667 Y75.668 E7.72534
G1 X89.935 Y75.668 E.0299
G1 X224.332 Y210.065 E7.76763
G1 X224.332 Y210.796 E.0299
G1 X89.204 Y75.668 E7.80992
G1 X88.472 Y75.668 E.0299
G1 X224.332 Y211.528 E7.85221
M73 P24 R11
G1 X224.332 Y212.26 E.0299
G1 X87.74 Y75.668 E7.89449
G1 X87.009 Y75.668 E.0299
G1 X224.332 Y212.991 E7.93678
G1 X224.332 Y213.723 E.0299
G1 X86.277 Y75.668 E7.97907
G1 X85.545 Y75.668 E.0299
G1 X224.332 Y214.455 E8.02136
G1 X224.332 Y215.186 E.0299
G1 X84.814 Y75.668 E8.06364
M73 P25 R11
G1 X84.082 Y75.668 E.0299
G1 X224.332 Y215.918 E8.10593
G1 X224.332 Y216.65 E.0299
G1 X83.35 Y75.668 E8.14822
G1 X82.619 Y75.668 E.0299
