; HEADER_BLOCK_START
; generated by OrcaSlicer 1.7.0 on 2024-02-07 at 22:54:31
; total layer number: 2
; HEADER_BLOCK_END

; THUMBNAIL_BLOCK_START
; THUMBNAIL_BLOCK_END

; external perimeters extrusion width = 0.40mm
; perimeters extrusion width = 0.40mm
; infill extrusion width = 0.45mm
; solid infill extrusion width = 0.40mm
; top infill extrusion width = 0.40mm
; first layer extrusion width = 0.56mm

; EXECUTABLE_BLOCK_START
EXCLUDE_OBJECT_DEFINE NAME=flat_rectangle.stl_id_0_copy_0 CENTER=150,150 POLYGON=[[100,101],[100.015,100.826],[100.06,100.658],[100.134,100.5],[100.234,100.357],[100.357,100.234],[100.5,100.134],[100.658,100.06],[100.826,100.015],[101,100],[199,100],[199.174,100.015],[199.342,100.06],[199.5,100.134],[199.643,100.234],[199.766,100.357],[199.866,100.5],[199.94,100.658],[199.985,100.826],[200,101],[200,199],[199.985,199.174],[199.94,199.342],[199.866,199.5],[199.766,199.643],[199.643,199.766],[199.5,199.866],[199.342,199.94],[199.174,199.985],[199,200],[101,200],[100.826,199.985],[100.658,199.94],[100.5,199.866],[100.357,199.766],[100.234,199.643],[100.134,199.5],[100.06,199.342],[100.015,199.174],[100,199],[100,101]]
M73 P0 R7
;TYPE:Custom
M104 S0 ; Stops SuperSlicer from sending temp waits separately
M140 S0
print_start EXTRUDER=260 BED=105 CHAMBER=0 
G90
G21
M83 ; use relative distances for extrusion
; Filament gcode
SET_PRESSURE_ADVANCE ADVANCE=0.045; Override pressure advance value
M106 S0
;LAYER_CHANGE
;Z:0.2
;HEIGHT:0.2
;BEFORE_LAYER_CHANGE
;0.2
G92 E0

G1 E-.8 F1800
;AFTER_LAYER_CHANGE
;0.2
;_SET_FAN_SPEED_CHANGING_LAYER
SET_VELOCITY_LIMIT ACCEL=500
G1 Z.4 F18000
G1 X96.992 Y97.115
G1 Z.4
G1 Z.2
G1 E.8 F1800
;TYPE:Skirt
;WIDTH:0.56
G1 F4800
G1 X97.727 Y96.478 E.03987
G1 X98.72 Y95.905 E.04698
G1 X99.64 Y95.586 E.03987
G1 X101 Y95.415 E.05618
G1 X199.4 Y95.432 E4.03188
G1 X200.36 Y95.586 E.03987
G1 X201.28 Y95.905 E.03987
G1 X202.13 Y96.378 E.03987
G1 X203.008 Y97.115 E.04698
G1 X203.622 Y97.87 E.03987
G1 X204.096 Y98.72 E.03988
G1 X204.414 Y99.639 E.03986
G1 X204.585 Y101 E.05619
G1 X204.585 Y199 E4.01551
G1 X204.414 Y200.361 E.05619
G1 X204.096 Y201.28 E.03986
G1 X203.622 Y202.13 E.03988
G1 X203.008 Y202.885 E.03986
G1 X202.13 Y203.622 E.04698
G1 X201.28 Y204.096 E.03988
G1 X200.361 Y204.414 E.03986
G1 X199 Y204.585 E.05619
G1 X101 Y204.585 E4.01551
M73 P1 R7
G1 X99.639 Y204.414 E.05619
G1 X98.72 Y204.096 E.03986
G1 X97.87 Y203.622 E.03988
G1 X97.115 Y203.008 E.03987
G1 X96.398 Y202.159 E.04556
G1 X95.905 Y201.28 E.04129
G1 X95.586 Y200.36 E.03987
G1 X95.415 Y199 E.05618
G1 X95.415 Y101 E4.01551
G1 X95.586 Y99.64 E.05618
G1 X95.905 Y98.72 E.03987
G1 X96.378 Y97.87 E.03987
G1 X96.966 Y97.146 E.03823
G1 X97.357 Y97.48 F18000
G1 F4800
G1 X98.024 Y96.901 E.03618
G1 X98.939 Y96.373 E.04329
G1 X99.773 Y96.086 E.03618
G1 X101 Y95.932 E.05065
G1 X199.355 Y95.947 E4.03004
G1 X200.227 Y96.085 E.03618
G1 X201.061 Y96.373 E.03618
G1 X201.834 Y96.801 E.03618
G1 X202.643 Y97.48 E.04328
G1 X203.199 Y98.166 E.03618
G1 X203.627 Y98.939 E.03619
G1 X203.914 Y99.773 E.03617
G1 X204.068 Y101 E.05066
G1 X204.068 Y199 E4.01551
M73 P2 R7
G1 X203.914 Y200.227 E.05066
G1 X203.627 Y201.061 E.03617
G1 X203.199 Y201.834 E.03619
G1 X202.643 Y202.52 E.03617
G1 X201.834 Y203.199 E.04328
G1 X201.061 Y203.627 E.03619
G1 X200.227 Y203.914 E.03617
G1 X199 Y204.068 E.05066
G1 X101 Y204.068 E4.01551
G1 X99.773 Y203.914 E.05066
G1 X98.939 Y203.627 E.03617
G1 X98.166 Y203.199 E.03619
G1 X97.48 Y202.643 E.03618
G1 X96.801 Y201.833 E.04329
G1 X96.373 Y201.061 E.03618
G1 X96.085 Y200.227 E.03618
G1 X95.932 Y199 E.05065
G1 X95.932 Y101 E4.01551
G1 X96.085 Y99.773 E.05065
G1 X96.373 Y98.939 E.03618
G1 X96.801 Y98.167 E.03618
G1 X97.332 Y97.512 E.03454
G1 X97.723 Y97.846 F18000
G1 F4800
G1 X98.32 Y97.325 E.03249
G1 X99.157 Y96.842 E.03959
G1 X99.907 Y96.585 E.03249
G1 X101 Y96.449 E.04512
G1 X199.309 Y96.462 E4.02819
M73 P3 R7
G1 X200.093 Y96.585 E.03249
G1 X200.843 Y96.842 E.03249
G1 X201.537 Y97.225 E.03249
G1 X202.277 Y97.846 E.03959
G1 X202.775 Y98.463 E.03249
G1 X203.158 Y99.157 E.03249
G1 X203.415 Y99.907 E.03248
G1 X203.551 Y101 E.04513
G1 X203.551 Y199 E4.01551
G1 X203.415 Y200.093 E.04513
G1 X203.158 Y200.843 E.03248
G1 X202.775 Y201.537 E.0325
G1 X202.277 Y202.154 E.03248
G1 X201.537 Y202.775 E.03959
G1 X200.843 Y203.158 E.0325
G1 X200.093 Y203.415 E.03248
G1 X199 Y203.551 E.04513
G1 X101 Y203.551 E4.01551
G1 X99.907 Y203.415 E.04513
G1 X99.157 Y203.158 E.03248
G1 X98.463 Y202.775 E.03249
G1 X97.846 Y202.277 E.03248
G1 X97.225 Y201.537 E.03959
G1 X96.842 Y200.843 E.03248
G1 X96.585 Y200.093 E.03249
G1 X96.449 Y199 E.04512
G1 X96.449 Y101 E4.01551
G1 X96.585 Y99.907 E.04512
G1 X96.842 Y99.157 E.03249
G1 X97.225 Y98.463 E.03248
G1 X97.698 Y97.877 E.03085
G1 X98.088 Y98.212 F18000
G1 F4800
G1 X98.617 Y97.749 E.02879
G1 X99.376 Y97.31 E.0359
G1 X100.041 Y97.084 E.02879
G1 X101 Y96.966 E.03959
G1 X199.264 Y96.977 E4.02634
M73 P4 R7
G1 X199.959 Y97.084 E.02879
G1 X200.624 Y97.31 E.02879
G1 X201.24 Y97.649 E.02879
G1 X201.911 Y98.212 E.0359
G1 X202.351 Y98.76 E.02879
G1 X202.69 Y99.376 E.0288
G1 X202.916 Y100.041 E.02879
G1 X203.034 Y101 E.03959
G1 X203.034 Y199 E4.01551
G1 X202.916 Y199.959 E.03959
G1 X202.69 Y200.624 E.02879
G1 X202.351 Y201.24 E.0288
G1 X201.912 Y201.788 E.02879
G1 X201.24 Y202.351 E.0359
G1 X200.624 Y202.69 E.0288
G1 X199.959 Y202.916 E.02879
G1 X199 Y203.034 E.03959
G1 X101 Y203.034 E4.01551
G1 X100.041 Y202.916 E.0396
G1 X99.376 Y202.69 E.02878
G1 X98.76 Y202.351 E.0288
G1 X98.212 Y201.911 E.02879
G1 X97.649 Y201.24 E.0359
G1 X97.31 Y200.624 E.02879
G1 X97.084 Y199.959 E.02879
G1 X96.966 Y199 E.03959
G1 X96.966 Y101 E4.01551
M73 P5 R7
G1 X97.084 Y100.041 E.03959
G1 X97.31 Y99.376 E.02879
G1 X97.649 Y98.76 E.02879
G1 X98.063 Y98.243 E.02716
G1 X98.454 Y98.577 F18000
G1 F4800
G1 X98.913 Y98.172 E.0251
G1 X99.594 Y97.779 E.03221
G1 X100.175 Y97.584 E.0251
G1 X101 Y97.483 E.03406
G1 X199.219 Y97.492 E4.0245
G1 X199.825 Y97.584 E.0251
G1 X200.406 Y97.779 E.0251
G1 X200.944 Y98.072 E.0251
G1 X201.546 Y98.577 E.03221
G1 X201.928 Y99.056 E.0251
G1 X202.221 Y99.594 E.02511
G1 X202.416 Y100.175 E.02509
G1 X202.517 Y101 E.03406
G1 X202.517 Y199 E4.01551
G1 X202.416 Y199.825 E.03406
G1 X202.221 Y200.406 E.02509
G1 X201.928 Y200.944 E.02511
G1 X201.546 Y201.423 E.0251
G1 X200.944 Y201.928 E.03221
G1 X200.406 Y202.221 E.02511
G1 X199.825 Y202.416 E.02509
G1 X199 Y202.517 E.03406
G1 X101 Y202.517 E4.01551
M73 P6 R7
G1 X100.175 Y202.416 E.03406
G1 X99.594 Y202.221 E.02509
G1 X99.056 Y201.928 E.02511
G1 X98.577 Y201.546 E.0251
G1 X98.092 Y200.972 E.03078
G1 X97.779 Y200.406 E.02652
G1 X97.584 Y199.825 E.0251
G1 X97.483 Y199 E.03406
G1 X97.483 Y101 E4.01551
G1 X97.584 Y100.175 E.03406
G1 X97.779 Y99.594 E.0251
G1 X98.072 Y99.056 E.0251
G1 X98.429 Y98.609 E.02346
; printing object flat_rectangle.stl id:0 copy 0
G1 E-.56 F1800
;WIPE_START
G1 F4800
G1 X98.913 Y98.172 E-.15649
G1 X99.215 Y97.998 E-.08351
;WIPE_END
EXCLUDE_OBJECT_START NAME=flat_rectangle.stl_id_0_copy_0
G1 Z.6 F18000
G1 X199.358 Y199.62 Z.6
G1 Z.2
G1 E.8 F1800
;TYPE:Outer wall
;WIDTH:0.559999
G1 F4800
G1 X198.988 Y199.72 E.01571
G1 X101.095 Y199.72 E4.01112
G1 X100.875 Y199.694 E.00905
G1 X100.633 Y199.602 E.01059
G1 X100.397 Y199.383 E.01322
G1 X100.28 Y198.988 E.01688
G1 X100.28 Y101.095 E4.01112
M73 P7 R7
G1 X100.306 Y100.875 E.00905
G1 X100.398 Y100.633 E.0106
G1 X100.617 Y100.397 E.01322
G1 X101.012 Y100.28 E.01688
G1 X198.905 Y100.28 E4.01111
G1 X199.09 Y100.3 E.0076
G1 X199.353 Y100.389 E.01139
G1 X199.54 Y100.547 E.01002
G1 X199.663 Y100.759 E.01004
G1 X199.72 Y101.044 E.01191
G1 X199.72 Y198.905 E4.00983
G1 X199.673 Y199.245 E.01405
G1 X199.548 Y199.46 E.01019
G1 X199.389 Y199.594 E.00855
G1 E-.56 F1800
;WIPE_START
G1 F4800
G1 X198.988 Y199.72 E-.10082
G1 X198.408 Y199.72 E-.13918
;WIPE_END
G1 Z.6 F18000
G1 X198.169 Y100.443 Z.6
M73 P8 R7
G1 Z.2
G1 E.8 F1800
;TYPE:Bottom surface
;WIDTH:0.560543
G1 F6954.868
G1 X199.332 Y101.607 E.06747
G1 X199.332 Y102.339 E.03003
G1 X197.67 Y100.676 E.09644
G1 X196.938 Y100.676 E.03003
G1 X199.332 Y103.071 E.1389
G1 X199.332 Y103.803 E.03003
G1 X196.206 Y100.676 E.18137
G1 X195.473 Y100.676 E.03003
G1 X199.332 Y104.535 E.22384
G1 X199.332 Y105.267 E.03003
G1 X194.741 Y100.676 E.26631
G1 X194.009 Y100.676 E.03003
G1 X199.332 Y105.999 E.30877
G1 X199.332 Y106.731 E.03003
G1 X193.277 Y100.676 E.35124
G1 X192.545 Y100.676 E.03003
G1 X199.332 Y107.463 E.39371
G1 X199.332 Y108.195 E.03003
G1 X191.813 Y100.676 E.43617
G1 X191.081 Y100.676 E.03003
G1 X199.332 Y108.927 E.47864
G1 X199.332 Y109.659 E.03003
G1 X190.349 Y100.676 E.52111
G1 X189.617 Y100.675 E.03003
G1 X199.332 Y110.391 E.56357
G1 X199.332 Y111.123 E.03003
G1 X188.885 Y100.675 E.60604
G1 X188.152 Y100.675 E.03003
G1 X199.332 Y111.855 E.64851
G1 X199.332 Y112.587 E.03003
G1 X187.42 Y100.675 E.69098
G1 X186.688 Y100.675 E.03003
G1 X199.332 Y113.319 E.73344
G1 X199.332 Y114.051 E.03003
M73 P9 R7
G1 X185.956 Y100.675 E.77591
G1 X185.224 Y100.675 E.03003
G1 X199.332 Y114.783 E.81838
G1 X199.332 Y115.515 E.03003
G1 X184.492 Y100.675 E.86084
G1 X183.76 Y100.675 E.03003
G1 X199.332 Y116.247 E.90331
G1 X199.332 Y116.979 E.03003
G1 X183.028 Y100.675 E.94578
G1 X182.296 Y100.675 E.03003
G1 X199.332 Y117.711 E.98824
G1 X199.332 Y118.443 E.03003
G1 X181.564 Y100.675 E1.03071
G1 X180.832 Y100.675 E.03003
G1 X199.332 Y119.175 E1.07318
G1 X199.332 Y119.907 E.03003
G1 X180.099 Y100.675 E1.11565
G1 X179.367 Y100.675 E.03003
G1 X199.332 Y120.639 E1.15811
G1 X199.332 Y121.371 E.03003
G1 X178.635 Y100.674 E1.20058
M73 P10 R7
G1 X177.903 Y100.674 E.03003
G1 X199.332 Y122.103 E1.24305
G1 X199.332 Y122.835 E.03003
G1 X177.171 Y100.674 E1.28551
G1 X176.439 Y100.674 E.03003
G1 X199.332 Y123.567 E1.32798
G1 X199.332 Y124.3 E.03003
G1 X175.707 Y100.674 E1.37045
G1 X174.975 Y100.674 E.03003
G1 X199.332 Y125.032 E1.41291
G1 X199.332 Y125.764 E.03003
G1 X174.243 Y100.674 E1.45538
G1 X173.511 Y100.674 E.03003
G1 X199.332 Y126.496 E1.49785
G1 X199.332 Y127.228 E.03003
G1 X172.779 Y100.674 E1.54032
G1 X172.046 Y100.674 E.03003
G1 X199.332 Y127.96 E1.58278
M73 P11 R7
G1 X199.332 Y128.692 E.03003
G1 X171.314 Y100.674 E1.62525
G1 X170.582 Y100.674 E.03003
G1 X199.332 Y129.424 E1.66772
G1 X199.332 Y130.156 E.03003
G1 X169.85 Y100.674 E1.71018
G1 X169.118 Y100.674 E.03003
G1 X199.332 Y130.888 E1.75265
G1 X199.332 Y131.62 E.03003
G1 X168.386 Y100.674 E1.79512
G1 X167.654 Y100.674 E.03003
G1 X199.332 Y132.352 E1.83758
G1 X199.332 Y133.084 E.03003
G1 X166.922 Y100.673 E1.88005
M73 P11 R6
G1 X166.19 Y100.673 E.03003
G1 X199.332 Y133.816 E1.92252
M73 P12 R6
G1 X199.332 Y134.548 E.03003
G1 X165.458 Y100.673 E1.96499
G1 X164.726 Y100.673 E.03003
G1 X199.332 Y135.28 E2.00745
G1 X199.332 Y136.012 E.03003
G1 X163.993 Y100.673 E2.04992
G1 X163.261 Y100.673 E.03003
G1 X199.332 Y136.744 E2.09239
G1 X199.332 Y137.476 E.03003
G1 X162.529 Y100.673 E2.13485
G1 X161.797 Y100.673 E.03003
G1 X199.332 Y138.208 E2.17732
G1 X199.332 Y138.94 E.03003
G1 X161.065 Y100.673 E2.21979
M73 P13 R6
G1 X160.333 Y100.673 E.03003
G1 X199.332 Y139.672 E2.26225
G1 X199.332 Y140.404 E.03003
G1 X159.601 Y100.673 E2.30472
G1 X158.869 Y100.673 E.03003
G1 X199.332 Y141.136 E2.34719
G1 X199.332 Y141.868 E.03003
G1 X158.137 Y100.673 E2.38966
G1 X157.405 Y100.673 E.03003
G1 X199.332 Y142.6 E2.43212
G1 X199.332 Y143.332 E.03003
G1 X156.673 Y100.673 E2.47459
G1 X155.94 Y100.673 E.03003
G1 X199.332 Y144.064 E2.51706
M73 P14 R6
G1 X199.332 Y144.796 E.03003
G1 X155.208 Y100.672 E2.55952
G1 X154.476 Y100.672 E.03003
G1 X199.332 Y145.528 E2.60199
G1 X199.332 Y146.26 E.03003
G1 X153.744 Y100.672 E2.64446
G1 X153.012 Y100.672 E.03003
G1 X199.332 Y146.992 E2.68692
G1 X199.332 Y147.724 E.03003
G1 X152.28 Y100.672 E2.72939
G1 X151.548 Y100.672 E.03003
G1 X199.332 Y148.456 E2.77186
M73 P15 R6
G1 X199.332 Y149.189 E.03003
G1 X150.816 Y100.672 E2.81433
G1 X150.084 Y100.672 E.03003
G1 X199.332 Y149.921 E2.85679
G1 X199.332 Y150.653 E.03003
G1 X149.352 Y100.672 E2.89926
G1 X148.619 Y100.672 E.03003
G1 X199.332 Y151.385 E2.94173
G1 X199.332 Y152.117 E.03003
G1 X147.887 Y100.672 E2.98419
G1 X147.155 Y100.672 E.03003
G1 X199.332 Y152.849 E3.02666
M73 P16 R6
G1 X199.332 Y153.581 E.03003
G1 X146.423 Y100.672 E3.06913
G1 X145.691 Y100.672 E.03003
G1 X199.332 Y154.313 E3.11159
G1 X199.332 Y155.045 E.03003
G1 X144.959 Y100.672 E3.15406
G1 X144.227 Y100.672 E.03003
G1 X199.332 Y155.777 E3.19653
G1 X199.332 Y156.509 E.03003
G1 X143.495 Y100.671 E3.239
M73 P17 R6
G1 X142.763 Y100.671 E.03003
G1 X199.332 Y157.241 E3.28146
G1 X199.332 Y157.973 E.03003
G1 X142.031 Y100.671 E3.32393
G1 X141.299 Y100.671 E.03003
G1 X199.332 Y158.705 E3.3664
G1 X199.332 Y159.437 E.03003
G1 X140.566 Y100.671 E3.40886
G1 X139.834 Y100.671 E.03003
G1 X199.332 Y160.169 E3.45133
M73 P18 R6
G1 X199.332 Y160.901 E.03003
G1 X139.102 Y100.671 E3.4938
G1 X138.37 Y100.671 E.03003
G1 X199.332 Y161.633 E3.53626
G1 X199.332 Y162.365 E.03003
G1 X137.638 Y100.671 E3.57873
G1 X136.906 Y100.671 E.03003
G1 X199.332 Y163.097 E3.6212
G1 X199.332 Y163.829 E.03003
G1 X136.174 Y100.671 E3.66367
M73 P19 R6
G1 X135.442 Y100.671 E.03003
G1 X199.332 Y164.561 E3.70613
G1 X199.332 Y165.293 E.03003
G1 X134.71 Y100.671 E3.7486
G1 X133.978 Y100.671 E.03003
G1 X199.332 Y166.025 E3.79107
G1 X199.332 Y166.757 E.03003
G1 X133.246 Y100.671 E3.83353
G1 X132.513 Y100.671 E.03003
G1 X199.332 Y167.489 E3.876
M73 P20 R6
G1 X199.332 Y168.221 E.03003
G1 X131.781 Y100.67 E3.91847
G1 X131.049 Y100.67 E.03003
G1 X199.332 Y168.953 E3.96093
G1 X199.332 Y169.685 E.03003
G1 X130.317 Y100.67 E4.0034
G1 X129.585 Y100.67 E.03003
G1 X199.332 Y170.417 E4.04587
M73 P21 R6
G1 X199.332 Y171.149 E.03003
G1 X128.853 Y100.67 E4.08834
G1 X128.121 Y100.67 E.03003
G1 X199.332 Y171.881 E4.1308
G1 X199.332 Y172.613 E.03003
G1 X127.389 Y100.67 E4.17327
G1 X126.657 Y100.67 E.03003
G1 X199.332 Y173.345 E4.21574
M73 P22 R6
G1 X199.332 Y174.078 E.03003
G1 X125.925 Y100.67 E4.2582
G1 X125.193 Y100.67 E.03003
G1 X199.332 Y174.81 E4.30067
G1 X199.332 Y175.542 E.03003
G1 X124.46 Y100.67 E4.34314
G1 X123.728 Y100.67 E.03003
G1 X199.332 Y176.274 E4.3856
G1 X199.332 Y177.006 E.03003
M73 P23 R6
G1 X122.996 Y100.67 E4.42807
G1 X122.264 Y100.67 E.03003
G1 X199.332 Y177.738 E4.47054
G1 X199.332 Y178.47 E.03003
G1 X121.532 Y100.67 E4.51301
G1 X120.8 Y100.67 E.03003
G1 X199.332 Y179.202 E4.55547
G1 X199.332 Y179.934 E.03003
G1 X120.068 Y100.669 E4.59794
M73 P24 R6
G1 X119.336 Y100.669 E.03003
G1 X199.332 Y180.666 E4.64041
M73 P24 R5
G1 X199.332 Y181.398 E.03003
G1 X118.604 Y100.669 E4.68287
G1 X117.872 Y100.669 E.03003
G1 X199.332 Y182.13 E4.72534
M73 P25 R5
G1 X199.332 Y182.862 E.03003
G1 X117.14 Y100.669 E4.76781
G1 X116.407 Y100.669 E.03003
G1 X199.332 Y183.594 E4.81027
G1 X199.332 Y184.326 E.03003
G1 X115.675 Y100.669 E4.85274
G1 X114.943 Y100.669 E.03003
G1 X199.332 Y185.058 E4.89521
M73 P26 R5
G1 X199.332 Y185.79 E.03003
G1 X114.211 Y100.669 E4.93768
G1 X113.479 Y100.669 E.03003
G1 X199.332 Y186.522 E4.98014
G1 X199.332 Y187.254 E.03003
G1 X112.747 Y100.669 E5.02261
G1 X112.015 Y100.669 E.03003
G1 X199.332 Y187.986 E5.06508
M73 P27 R5
G1 X199.332 Y188.718 E.03003
G1 X111.283 Y100.669 E5.10754
G1 X110.551 Y100.669 E.03003
G1 X199.332 Y189.45 E5.15001
G1 X199.332 Y190.182 E.03003
G1 X109.819 Y100.669 E5.19248
G1 X109.086 Y100.668 E.03003
G1 X199.332 Y190.914 E5.23494
M73 P28 R5
G1 X199.332 Y191.646 E.03003
G1 X108.354 Y100.668 E5.27741
G1 X107.622 Y100.668 E.03003
G1 X199.332 Y192.378 E5.31988
G1 X199.332 Y193.11 E.03003
G1 X106.89 Y100.668 E5.36235
M73 P29 R5
G1 X106.158 Y100.668 E.03003
G1 X199.332 Y193.842 E5.40481
G1 X199.332 Y194.574 E.03003
G1 X105.426 Y100.668 E5.44728
G1 X104.694 Y100.668 E.03003
G1 X199.332 Y195.306 E5.48975
G1 X199.332 Y196.038 E.03003
G1 X103.962 Y100.668 E5.53221
M73 P30 R5
G1 X103.23 Y100.668 E.03003
G1 X199.332 Y196.77 E5.57468
G1 X199.332 Y197.502 E.03003
G1 X102.498 Y100.668 E5.61715
G1 X101.766 Y100.668 E.03003
G1 X199.332 Y198.234 E5.65961
M73 P31 R5
G1 X199.329 Y198.963 E.02988
G1 X101.033 Y100.668 E5.70187
