; HEADER_BLOCK_START
; generated by OrcaSlicer 1.7.0 on 2024-02-08 at 01:21:20
; total layer number: 2
; HEADER_BLOCK_END

; THUMBNAIL_BLOCK_START
; THUMBNAIL_BLOCK_END

; external perimeters extrusion width = 0.40mm
; perimeters extrusion width = 0.40mm
; infill extrusion width = 0.45mm
; solid infill extrusion width = 0.40mm
; top infill extrusion width = 0.40mm
; first layer extrusion width = 0.56mm

; EXECUTABLE_BLOCK_START
EXCLUDE_OBJECT_DEFINE NAME=flat_rectangle.stl_id_0_copy_0 CENTER=150,150 POLYGON=[[75,76.5],[75.0228,76.2395],[75.0905,75.987],[75.201,75.75],[75.3509,75.5358],[75.5358,75.3509],[75.75,75.201],[75.987,75.0905],[76.2395,75.0228],[76.5,75],[223.5,75],[223.76,75.0228],[224.013,75.0905],[224.25,75.201],[224.464,75.3509],[224.649,75.5358],[224.799,75.75],[224.91,75.987],[224.977,76.2395],[225,76.5],[225,223.5],[224.977,223.76],[224.91,224.013],[224.799,224.25],[224.649,224.464],[224.464,224.649],[224.25,224.799],[224.013,224.91],[223.76,224.977],[223.5,225],[76.5,225],[76.2395,224.977],[75.987,224.91],[75.75,224.799],[75.5358,224.649],[75.3509,224.464],[75.201,224.25],[75.0905,224.013],[75.0228,223.76],[75,223.5],[75,76.5]]
M73 P0 R15
;TYPE:Custom
M104 S0 ; Stops SuperSlicer from sending temp waits separately
M140 S0
print_start EXTRUDER=260 BED=105 CHAMBER=0 
G90
G21
M83 ; use relative distances for extrusion
; Filament gcode
SET_PRESSURE_ADVANCE ADVANCE=0.025; Override pressure advance value
M106 S0
;LAYER_CHANGE
;Z:0.2
;HEIGHT:0.2
;BEFORE_LAYER_CHANGE
;0.2
G92 E0

G1 E-.8 F1800
;AFTER_LAYER_CHANGE
;0.2
;_SET_FAN_SPEED_CHANGING_LAYER
SET_VELOCITY_LIMIT ACCEL=500
G1 Z.4 F18000
G1 X72.109 Y72.293
G1 Z.4
G1 Z.2
G1 E.8 F1800
;TYPE:Skirt
;WIDTH:0.56
G1 F6962.177
G1 X73.077 Y71.475 E.0518
G1 X74.049 Y70.935 E.04542
G1 X75.053 Y70.594 E.04331
G1 X76.5 Y70.415 E.05956
G1 X223.9 Y70.432 E6.02063
G1 X224.947 Y70.594 E.04329
G1 X225.951 Y70.935 E.0433
G1 X226.88 Y71.445 E.0433
G1 X227.891 Y72.293 E.05392
G1 X228.555 Y73.12 E.0433
G1 X229.065 Y74.049 E.0433
G1 X229.406 Y75.053 E.04329
G1 X229.585 Y76.5 E.05957
G1 X229.585 Y223.5 E6.0043
G1 X229.406 Y224.947 E.05957
G1 X229.065 Y225.951 E.04329
G1 X228.555 Y226.88 E.04331
G1 X227.891 Y227.707 E.04329
G1 X226.88 Y228.555 E.05392
G1 X225.951 Y229.065 E.04331
G1 X224.947 Y229.406 E.04329
G1 X223.5 Y229.585 E.05957
G1 X76.5 Y229.585 E6.0043
G1 X75.053 Y229.406 E.05957
G1 X74.049 Y229.065 E.04329
G1 X73.12 Y228.555 E.0433
G1 X72.293 Y227.891 E.0433
G1 X71.445 Y226.88 E.05392
G1 X70.935 Y225.951 E.0433
G1 X70.594 Y224.947 E.0433
G1 X70.415 Y223.5 E.05956
G1 X70.415 Y76.5 E6.0043
G1 X70.594 Y75.053 E.05956
G1 X70.935 Y74.049 E.04331
G1 X71.445 Y73.12 E.0433
G1 X72.084 Y72.325 E.04166
G1 X72.474 Y72.659 F18000
G1 F6962.177
G1 X73.374 Y71.898 E.04812
G1 X74.268 Y71.403 E.04174
G1 X75.187 Y71.093 E.03962
G1 X76.5 Y70.932 E.05405
G1 X223.855 Y70.947 E6.01879
G1 X224.813 Y71.093 E.03961
G1 X225.732 Y71.403 E.03962
G1 X226.584 Y71.868 E.03962
G1 X227.526 Y72.659 E.05024
G1 X228.132 Y73.416 E.03962
G1 X228.597 Y74.268 E.03962
G1 X228.907 Y75.186 E.03961
G1 X229.068 Y76.5 E.05406
G1 X229.068 Y223.5 E6.0043
M73 P1 R15
G1 X228.907 Y224.814 E.05406
G1 X228.597 Y225.732 E.03961
G1 X228.132 Y226.584 E.03962
G1 X227.526 Y227.341 E.03961
G1 X226.584 Y228.132 E.05024
G1 X225.732 Y228.597 E.03962
G1 X224.814 Y228.907 E.03961
G1 X223.5 Y229.068 E.05406
G1 X76.5 Y229.068 E6.0043
G1 X75.186 Y228.907 E.05406
G1 X74.268 Y228.597 E.03961
G1 X73.416 Y228.132 E.03962
G1 X72.659 Y227.526 E.03962
G1 X71.868 Y226.584 E.05024
G1 X71.403 Y225.732 E.03962
G1 X71.093 Y224.813 E.03962
G1 X70.932 Y223.5 E.05405
G1 X70.932 Y76.5 E6.0043
G1 X71.093 Y75.187 E.05405
G1 X71.403 Y74.268 E.03962
G1 X71.868 Y73.416 E.03961
G1 X72.449 Y72.69 E.03798
G1 X72.84 Y73.025 F18000
G1 F6962.177
G1 X73.67 Y72.322 E.04444
G1 X74.486 Y71.872 E.03806
G1 X75.321 Y71.593 E.03594
G1 X76.5 Y71.449 E.04853
G1 X223.81 Y71.462 E6.01695
G1 X224.679 Y71.593 E.03593
G1 X225.514 Y71.872 E.03594
G1 X226.287 Y72.292 E.03594
G1 X227.16 Y73.025 E.04656
G1 X227.708 Y73.713 E.03594
G1 X228.128 Y74.486 E.03594
G1 X228.407 Y75.32 E.03593
G1 X228.551 Y76.5 E.04854
G1 X228.551 Y223.5 E6.0043
G1 X228.407 Y224.68 E.04854
G1 X228.128 Y225.514 E.03593
G1 X227.708 Y226.287 E.03594
G1 X227.16 Y226.975 E.03593
G1 X226.287 Y227.708 E.04656
G1 X225.514 Y228.128 E.03594
G1 X224.68 Y228.407 E.03593
G1 X223.5 Y228.551 E.04854
G1 X76.5 Y228.551 E6.0043
G1 X75.32 Y228.407 E.04854
G1 X74.486 Y228.128 E.03593
G1 X73.713 Y227.708 E.03594
G1 X73.025 Y227.16 E.03594
G1 X72.292 Y226.287 E.04656
G1 X71.872 Y225.514 E.03594
G1 X71.593 Y224.679 E.03594
G1 X71.449 Y223.5 E.04853
G1 X71.449 Y76.5 E6.0043
M73 P2 R15
G1 X71.593 Y75.321 E.04853
G1 X71.872 Y74.486 E.03594
G1 X72.292 Y73.713 E.03593
G1 X72.815 Y73.056 E.0343
G1 X73.205 Y73.39 F18000
G1 F6962.177
G1 X73.967 Y72.746 E.04075
G1 X74.705 Y72.341 E.03438
G1 X75.454 Y72.092 E.03226
G1 X76.5 Y71.966 E.04302
G1 X223.764 Y71.977 E6.0151
G1 X224.546 Y72.092 E.03225
G1 X225.295 Y72.341 E.03226
G1 X225.99 Y72.716 E.03226
G1 X226.794 Y73.39 E.04287
G1 X227.284 Y74.01 E.03226
G1 X227.659 Y74.705 E.03226
G1 X227.908 Y75.454 E.03225
G1 X228.034 Y76.5 E.04303
G1 X228.034 Y223.5 E6.0043
G1 X227.908 Y224.546 E.04303
G1 X227.659 Y225.295 E.03225
G1 X227.284 Y225.99 E.03226
G1 X226.795 Y226.61 E.03225
G1 X225.99 Y227.284 E.04288
G1 X225.295 Y227.659 E.03226
G1 X224.546 Y227.908 E.03225
G1 X223.5 Y228.034 E.04303
G1 X76.5 Y228.034 E6.0043
G1 X75.454 Y227.908 E.04303
G1 X74.705 Y227.659 E.03225
G1 X74.01 Y227.284 E.03226
G1 X73.39 Y226.794 E.03226
G1 X72.716 Y225.99 E.04288
G1 X72.341 Y225.295 E.03226
G1 X72.092 Y224.546 E.03226
G1 X71.966 Y223.5 E.04302
G1 X71.966 Y76.5 E6.0043
G1 X72.092 Y75.454 E.04302
G1 X72.341 Y74.705 E.03226
G1 X72.716 Y74.01 E.03225
G1 X73.181 Y73.422 E.03062
G1 X73.571 Y73.756 F18000
G1 F6962.177
G1 X74.263 Y73.169 E.03707
G1 X74.923 Y72.809 E.0307
G1 X75.588 Y72.591 E.02858
G1 X76.5 Y72.483 E.03751
G1 X223.719 Y72.493 E6.01326
G1 X224.664 Y72.659 E.03919
G1 X225.314 Y72.92 E.02858
G1 X225.908 Y73.289 E.02858
M73 P3 R15
G1 X226.429 Y73.756 E.02857
G1 X226.861 Y74.306 E.02858
G1 X227.191 Y74.923 E.02858
G1 X227.409 Y75.588 E.02857
G1 X227.517 Y76.5 E.03751
G1 X227.517 Y223.5 E6.0043
G1 X227.409 Y224.412 E.03751
G1 X227.191 Y225.077 E.02857
G1 X226.861 Y225.694 E.02858
G1 X226.429 Y226.244 E.02857
G1 X225.694 Y226.861 E.0392
G1 X225.077 Y227.191 E.02858
G1 X224.412 Y227.409 E.02857
G1 X223.5 Y227.517 E.03751
G1 X76.5 Y227.517 E6.0043
G1 X75.588 Y227.409 E.03751
G1 X74.923 Y227.191 E.02857
G1 X74.306 Y226.861 E.02858
G1 X73.756 Y226.429 E.02858
G1 X73.139 Y225.694 E.03919
G1 X72.809 Y225.077 E.02858
G1 X72.591 Y224.412 E.02858
G1 X72.483 Y223.5 E.03751
G1 X72.483 Y76.5 E6.0043
G1 X72.591 Y75.588 E.03751
G1 X72.809 Y74.923 E.02858
G1 X73.139 Y74.306 E.02857
G1 X73.546 Y73.787 E.02694
; printing object flat_rectangle.stl id:0 copy 0
G1 E-.56 F1800
;WIPE_START
G1 F6962.177
G1 X74.263 Y73.169 E-.22724
G1 X74.31 Y73.144 E-.01276
;WIPE_END
EXCLUDE_OBJECT_START NAME=flat_rectangle.stl_id_0_copy_0
G1 Z.6 F18000
G1 X77.348 Y77.348 Z.6
G1 Z.2
G1 E.8 F1800
;TYPE:Inner wall
;WIDTH:0.559999
G1 F6962.186
G1 X222.652 Y77.348 E5.93499
G1 X222.652 Y222.652 E5.93499
G1 X77.348 Y222.652 E5.93499
M73 P4 R15
G1 X77.348 Y77.388 E5.93336
G1 X76.831 Y76.831 F18000
G1 F6962.186
G1 X223.169 Y76.831 E5.97723
G1 X223.169 Y223.169 E5.97723
G1 X76.831 Y223.169 E5.97723
G1 X76.831 Y76.871 E5.9756
G1 X76.376 Y76.388 F18000
G1 F6962.186
G1 X76.614 Y76.314 E.01016
G1 X223.357 Y76.314 E5.99381
M73 P4 R14
G1 X223.607 Y76.373 E.01046
G1 X223.686 Y76.565 E.0085
G1 X223.686 Y223.357 E5.9958
M73 P5 R14
G1 X223.627 Y223.607 E.01046
G1 X223.443 Y223.686 E.0082
G1 X76.643 Y223.686 E5.99612
G1 X76.393 Y223.627 E.01046
G1 X76.314 Y223.443 E.0082
G1 X76.314 Y76.643 E5.99612
G1 X76.367 Y76.427 E.00908
G1 X76.116 Y75.93 F18000
G1 F6962.186
G1 X76.151 Y75.9 E.00188
G1 X76.569 Y75.797 E.01758
G1 X223.357 Y75.797 E5.99565
G1 X223.569 Y75.821 E.00869
G1 X223.84 Y75.911 E.01169
G1 X224.021 Y76.063 E.00964
G1 X224.139 Y76.267 E.00966
G1 X224.203 Y76.565 E.01245
G1 X224.203 Y223.357 E5.9958
G1 X224.149 Y223.736 E.01563
G1 X224.029 Y223.944 E.0098
G1 X223.845 Y224.098 E.0098
G1 X223.465 Y224.203 E.01611
G1 X76.643 Y224.203 E5.99704
G1 X76.264 Y224.149 E.01564
G1 X76.056 Y224.029 E.0098
G1 X75.902 Y223.845 E.0098
G1 X75.797 Y223.465 E.01611
G1 X75.797 Y76.643 E5.99705
M73 P6 R14
G1 X75.851 Y76.264 E.01563
G1 X75.973 Y76.053 E.00996
G1 X76.085 Y75.956 E.00606
G1 X75.78 Y75.537 F18000
;TYPE:Outer wall
G1 F6962.186
G1 X76.077 Y75.359 E.01416
G1 X76.524 Y75.28 E.01853
G1 X223.357 Y75.28 E5.9975
G1 X223.916 Y75.358 E.02305
G1 X224.282 Y75.569 E.01724
G1 X224.553 Y75.892 E.01725
G1 X224.701 Y76.3 E.01772
G1 X224.72 Y76.565 E.01088
G1 X224.72 Y223.357 E5.9958
G1 X224.643 Y223.916 E.02303
G1 X224.431 Y224.282 E.01725
G1 X224.108 Y224.553 E.01725
G1 X223.862 Y224.643 E.01069
G1 X223.488 Y224.72 E.01561
G1 X76.643 Y224.72 E5.99797
G1 X76.084 Y224.643 E.02303
G1 X75.718 Y224.431 E.01725
G1 X75.447 Y224.108 E.01725
G1 X75.357 Y223.862 E.01069
G1 X75.28 Y223.488 E.01561
G1 X75.28 Y76.643 E5.99797
G1 X75.357 Y76.084 E.02303
G1 X75.569 Y75.717 E.0173
G1 X75.749 Y75.563 E.00968
G1 E-.56 F1800
;WIPE_START
G1 F6962.186
G1 X76.077 Y75.359 E-.09269
G1 X76.524 Y75.28 E-.10886
G1 X76.684 Y75.28 E-.03845
;WIPE_END
G1 Z.6 F18000
G1 X221.449 Y77.503 Z.6
G1 Z.2
G1 E.8 F1800
;TYPE:Bottom surface
;WIDTH:0.56091
G1 F6949.941
G1 X222.264 Y78.318 E.04713
G1 X222.264 Y79.05 E.02997
G1 X220.95 Y77.736 E.07606
G1 X220.217 Y77.736 E.02997
G1 X222.264 Y79.783 E.11845
G1 X222.264 Y80.516 E.02997
G1 X219.484 Y77.736 E.16084
G1 X218.752 Y77.736 E.02997
G1 X222.264 Y81.248 E.20323
G1 X222.264 Y81.981 E.02997
G1 X218.019 Y77.736 E.24562
G1 X217.287 Y77.736 E.02997
G1 X222.264 Y82.713 E.28801
G1 X222.264 Y83.446 E.02997
G1 X216.554 Y77.736 E.3304
G1 X215.822 Y77.736 E.02997
M73 P7 R14
G1 X222.264 Y84.178 E.37278
G1 X222.264 Y84.911 E.02997
G1 X215.089 Y77.736 E.41517
G1 X214.357 Y77.736 E.02997
G1 X222.264 Y85.643 E.45756
G1 X222.264 Y86.376 E.02997
G1 X213.624 Y77.736 E.49995
G1 X212.891 Y77.736 E.02997
G1 X222.264 Y87.109 E.54234
G1 X222.264 Y87.841 E.02997
G1 X212.159 Y77.736 E.58473
G1 X211.426 Y77.736 E.02997
G1 X222.264 Y88.574 E.62712
G1 X222.264 Y89.306 E.02997
G1 X210.694 Y77.736 E.66951
G1 X209.961 Y77.736 E.02997
G1 X222.264 Y90.039 E.7119
G1 X222.264 Y90.771 E.02997
G1 X209.229 Y77.736 E.75429
G1 X208.496 Y77.736 E.02997
G1 X222.264 Y91.504 E.79668
G1 X222.264 Y92.236 E.02997
G1 X207.764 Y77.736 E.83907
G1 X207.031 Y77.736 E.02997
G1 X222.264 Y92.969 E.88146
G1 X222.264 Y93.701 E.02997
G1 X206.299 Y77.736 E.92385
G1 X205.566 Y77.736 E.02997
G1 X222.264 Y94.434 E.96624
G1 X222.264 Y95.167 E.02997
G1 X204.833 Y77.736 E1.00863
G1 X204.101 Y77.736 E.02997
G1 X222.264 Y95.899 E1.05102
G1 X222.264 Y96.632 E.02997
G1 X203.368 Y77.736 E1.09341
G1 X202.636 Y77.736 E.02997
G1 X222.264 Y97.364 E1.1358
G1 X222.264 Y98.097 E.02997
G1 X201.903 Y77.736 E1.17819
G1 X201.171 Y77.736 E.02997
G1 X222.264 Y98.829 E1.22058
G1 X222.264 Y99.562 E.02997
G1 X200.438 Y77.736 E1.26297
G1 X199.706 Y77.736 E.02997
G1 X222.264 Y100.294 E1.30536
G1 X222.264 Y101.027 E.02997
G1 X198.973 Y77.736 E1.34775
M73 P8 R14
G1 X198.241 Y77.736 E.02997
G1 X222.264 Y101.759 E1.39014
G1 X222.264 Y102.492 E.02997
G1 X197.508 Y77.736 E1.43253
G1 X196.775 Y77.736 E.02997
G1 X222.264 Y103.225 E1.47492
G1 X222.264 Y103.957 E.02997
G1 X196.043 Y77.736 E1.51731
G1 X195.31 Y77.736 E.02997
G1 X222.264 Y104.69 E1.5597
G1 X222.264 Y105.422 E.02997
G1 X194.578 Y77.736 E1.60209
G1 X193.845 Y77.736 E.02997
G1 X222.264 Y106.155 E1.64448
G1 X222.264 Y106.887 E.02997
G1 X193.113 Y77.736 E1.68687
G1 X192.38 Y77.736 E.02997
G1 X222.264 Y107.62 E1.72926
G1 X222.264 Y108.352 E.02997
G1 X191.648 Y77.736 E1.77165
G1 X190.915 Y77.736 E.02997
G1 X222.264 Y109.085 E1.81403
G1 X222.264 Y109.818 E.02997
G1 X190.182 Y77.736 E1.85642
G1 X189.45 Y77.736 E.02997
G1 X222.264 Y110.55 E1.89881
G1 X222.264 Y111.283 E.02997
G1 X188.717 Y77.736 E1.9412
G1 X187.985 Y77.736 E.02997
G1 X222.264 Y112.015 E1.98359
G1 X222.264 Y112.748 E.02997
G1 X187.252 Y77.736 E2.02598
M73 P9 R14
G1 X186.52 Y77.736 E.02997
G1 X222.264 Y113.48 E2.06837
G1 X222.264 Y114.213 E.02997
G1 X185.787 Y77.736 E2.11076
G1 X185.055 Y77.736 E.02997
G1 X222.264 Y114.945 E2.15315
G1 X222.264 Y115.678 E.02997
G1 X184.322 Y77.736 E2.19554
G1 X183.59 Y77.736 E.02997
G1 X222.264 Y116.41 E2.23793
G1 X222.264 Y117.143 E.02997
G1 X182.857 Y77.736 E2.28032
G1 X182.124 Y77.736 E.02997
G1 X222.264 Y117.876 E2.32271
G1 X222.264 Y118.608 E.02997
G1 X181.392 Y77.736 E2.3651
G1 X180.659 Y77.736 E.02997
G1 X222.264 Y119.341 E2.40749
G1 X222.264 Y120.073 E.02997
G1 X179.927 Y77.736 E2.44988
G1 X179.194 Y77.736 E.02997
G1 X222.264 Y120.806 E2.49227
G1 X222.264 Y121.538 E.02997
G1 X178.462 Y77.736 E2.53466
G1 X177.729 Y77.736 E.02997
G1 X222.264 Y122.271 E2.57705
M73 P10 R14
G1 X222.264 Y123.003 E.02997
G1 X176.997 Y77.736 E2.61944
G1 X176.264 Y77.736 E.02997
G1 X222.264 Y123.736 E2.66183
G1 X222.264 Y124.468 E.02997
G1 X175.532 Y77.736 E2.70422
G1 X174.799 Y77.736 E.02997
G1 X222.264 Y125.201 E2.74661
G1 X222.264 Y125.934 E.02997
G1 X174.066 Y77.736 E2.789
G1 X173.334 Y77.736 E.02997
G1 X222.264 Y126.666 E2.83139
G1 X222.264 Y127.399 E.02997
G1 X172.601 Y77.736 E2.87378
G1 X171.869 Y77.736 E.02997
G1 X222.264 Y128.131 E2.91617
G1 X222.264 Y128.864 E.02997
G1 X171.136 Y77.736 E2.95856
G1 X170.404 Y77.736 E.02997
G1 X222.264 Y129.596 E3.00095
G1 X222.264 Y130.329 E.02997
G1 X169.671 Y77.736 E3.04334
G1 X168.939 Y77.736 E.02997
G1 X222.264 Y131.061 E3.08573
M73 P11 R14
G1 X222.264 Y131.794 E.02997
G1 X168.206 Y77.736 E3.12812
G1 X167.473 Y77.736 E.02997
G1 X222.264 Y132.527 E3.17051
M73 P11 R13
G1 X222.264 Y133.259 E.02997
G1 X166.741 Y77.736 E3.21289
G1 X166.008 Y77.736 E.02997
G1 X222.264 Y133.992 E3.25528
G1 X222.264 Y134.724 E.02997
G1 X165.276 Y77.736 E3.29767
G1 X164.543 Y77.736 E.02997
G1 X222.264 Y135.457 E3.34006
G1 X222.264 Y136.189 E.02997
G1 X163.811 Y77.736 E3.38245
G1 X163.078 Y77.736 E.02997
G1 X222.264 Y136.922 E3.42484
G1 X222.264 Y137.654 E.02997
G1 X162.346 Y77.736 E3.46723
G1 X161.613 Y77.736 E.02997
G1 X222.264 Y138.387 E3.50962
M73 P12 R13
G1 X222.264 Y139.119 E.02997
G1 X160.881 Y77.736 E3.55201
G1 X160.148 Y77.736 E.02997
G1 X222.264 Y139.852 E3.5944
G1 X222.264 Y140.585 E.02997
G1 X159.415 Y77.736 E3.63679
G1 X158.683 Y77.736 E.02997
G1 X222.264 Y141.317 E3.67918
G1 X222.264 Y142.05 E.02997
G1 X157.95 Y77.736 E3.72157
G1 X157.218 Y77.736 E.02997
G1 X222.264 Y142.782 E3.76396
G1 X222.264 Y143.515 E.02997
G1 X156.485 Y77.736 E3.80635
G1 X155.753 Y77.736 E.02997
G1 X222.264 Y144.247 E3.84874
G1 X222.264 Y144.98 E.02997
G1 X155.02 Y77.736 E3.89113
M73 P13 R13
G1 X154.288 Y77.736 E.02997
G1 X222.264 Y145.712 E3.93352
G1 X222.264 Y146.445 E.02997
G1 X153.555 Y77.736 E3.97591
G1 X152.823 Y77.736 E.02997
G1 X222.264 Y147.177 E4.0183
G1 X222.264 Y147.91 E.02997
G1 X152.09 Y77.736 E4.06069
G1 X151.357 Y77.736 E.02997
G1 X222.264 Y148.643 E4.10308
G1 X222.264 Y149.375 E.02997
G1 X150.625 Y77.736 E4.14547
G1 X149.892 Y77.736 E.02997
G1 X222.264 Y150.108 E4.18786
G1 X222.264 Y150.84 E.02997
G1 X149.16 Y77.736 E4.23025
G1 X148.427 Y77.736 E.02997
G1 X222.264 Y151.573 E4.27264
M73 P14 R13
G1 X222.264 Y152.305 E.02997
G1 X147.695 Y77.736 E4.31503
G1 X146.962 Y77.736 E.02997
G1 X222.264 Y153.038 E4.35742
G1 X222.264 Y153.77 E.02997
G1 X146.23 Y77.736 E4.39981
G1 X145.497 Y77.736 E.02997
G1 X222.264 Y154.503 E4.4422
G1 X222.264 Y155.236 E.02997
G1 X144.764 Y77.736 E4.48459
G1 X144.032 Y77.736 E.02997
G1 X222.264 Y155.968 E4.52698
G1 X222.264 Y156.701 E.02997
G1 X143.299 Y77.736 E4.56937
G1 X142.567 Y77.736 E.02997
G1 X222.264 Y157.433 E4.61176
M73 P15 R13
G1 X222.264 Y158.166 E.02997
G1 X141.834 Y77.736 E4.65414
G1 X141.102 Y77.736 E.02997
G1 X222.264 Y158.898 E4.69653
G1 X222.264 Y159.631 E.02997
G1 X140.369 Y77.736 E4.73892
G1 X139.637 Y77.736 E.02997
G1 X222.264 Y160.363 E4.78131
