; HEADER_BLOCK_START
; generated by OrcaSlicer 1.7.0 on 2024-02-07 at 22:46:33
; total layer number: 7
; HEADER_BLOCK_END

; THUMBNAIL_BLOCK_START
; THUMBNAIL_BLOCK_END

; external perimeters extrusion width = 0.40mm
; perimeters extrusion width = 0.40mm
; infill extrusion width = 0.45mm
; solid infill extrusion width = 0.48mm
; top infill extrusion width = 0.48mm
; first layer extrusion width = 0.56mm

; external perimeters extrusion width = 0.40mm
; perimeters extrusion width = 0.40mm
; infill extrusion width = 0.45mm
; solid infill extrusion width = 0.48mm
; top infill extrusion width = 0.48mm
; first layer extrusion width = 0.56mm

; external perimeters extrusion width = 0.40mm
; perimeters extrusion width = 0.40mm
; infill extrusion width = 0.45mm
; solid infill extrusion width = 0.48mm
; top infill extrusion width = 0.48mm
; first layer extrusion width = 0.56mm

; external perimeters extrusion width = 0.40mm
; perimeters extrusion width = 0.40mm
; infill extrusion width = 0.45mm
; solid infill extrusion width = 0.48mm
; top infill extrusion width = 0.48mm
; first layer extrusion width = 0.56mm

; external perimeters extrusion width = 0.40mm
; perimeters extrusion width = 0.40mm
; infill extrusion width = 0.45mm
; solid infill extrusion width = 0.48mm
; top infill extrusion width = 0.48mm
; first layer extrusion width = 0.56mm

; external perimeters extrusion width = 0.40mm
; perimeters extrusion width = 0.40mm
; infill extrusion width = 0.45mm
; solid infill extrusion width = 0.48mm
; top infill extrusion width = 0.48mm
; first layer extrusion width = 0.56mm

; external perimeters extrusion width = 0.40mm
; perimeters extrusion width = 0.40mm
; infill extrusion width = 0.45mm
; solid infill extrusion width = 0.48mm
; top infill extrusion width = 0.48mm
; first layer extrusion width = 0.56mm

; external perimeters extrusion width = 0.40mm
; perimeters extrusion width = 0.40mm
; infill extrusion width = 0.45mm
; solid infill extrusion width = 0.48mm
; top infill extrusion width = 0.48mm
; first layer extrusion width = 0.56mm

; external perimeters extrusion width = 0.40mm
; perimeters extrusion width = 0.40mm
; infill extrusion width = 0.45mm
; solid infill extrusion width = 0.48mm
; top infill extrusion width = 0.48mm
; first layer extrusion width = 0.56mm

; EXECUTABLE_BLOCK_START
EXCLUDE_OBJECT_DEFINE NAME=flowrate_0_id_0_copy_0 CENTER=150,150 POLYGON=[[130,135],[170,135],[170,155],[160,165],[140,165],[130,155],[130,135]]
EXCLUDE_OBJECT_DEFINE NAME=flowrate_10_id_1_copy_0 CENTER=192,182 POLYGON=[[172,167],[212,167],[212,187],[202,197],[182,197],[172,187],[172,167]]
EXCLUDE_OBJECT_DEFINE NAME=flowrate_15_id_2_copy_0 CENTER=150,182 POLYGON=[[130,167],[170,167],[170,187],[160,197],[140,197],[130,187],[130,167]]
EXCLUDE_OBJECT_DEFINE NAME=flowrate_20_id_3_copy_0 CENTER=108,182 POLYGON=[[88,167],[128,167],[128,187],[118,197],[98,197],[88,187],[88,167]]
EXCLUDE_OBJECT_DEFINE NAME=flowrate_5_id_4_copy_0 CENTER=108,150 POLYGON=[[88,135],[128,135],[128,155],[118,165],[98,165],[88,155],[88,135]]
EXCLUDE_OBJECT_DEFINE NAME=flowrate_m10_id_5_copy_0 CENTER=192,118 POLYGON=[[172,103],[212,103],[212,123],[202,133],[182,133],[172,123],[172,103]]
EXCLUDE_OBJECT_DEFINE NAME=flowrate_m15_id_6_copy_0 CENTER=150,118 POLYGON=[[130,103],[170,103],[170,123],[160,133],[140,133],[130,123],[130,103]]
EXCLUDE_OBJECT_DEFINE NAME=flowrate_m20_id_7_copy_0 CENTER=108,118 POLYGON=[[88,103],[128,103],[128,123],[118,133],[98,133],[88,123],[88,103]]
EXCLUDE_OBJECT_DEFINE NAME=flowrate_m5_id_8_copy_0 CENTER=192,150 POLYGON=[[172,135],[212,135],[212,155],[202,165],[182,165],[172,155],[172,135]]
M73 P0 R26
;TYPE:Custom
M104 S0 ; Stops SuperSlicer from sending temp waits separately
M140 S0
print_start EXTRUDER=260 BED=110 CHAMBER=40 
G90
G21
M83 ; use relative distances for extrusion
; Filament gcode
SET_PRESSURE_ADVANCE ADVANCE=0.045; Override pressure advance value
M106 S0
;LAYER_CHANGE
;Z:0.2
;HEIGHT:0.2
;BEFORE_LAYER_CHANGE
;0.2
G92 E0

G1 E-.8 F1800
;AFTER_LAYER_CHANGE
;0.2
;_SET_FAN_SPEED_CHANGING_LAYER
SET_VELOCITY_LIMIT ACCEL=500
G1 Z.4 F18000
G1 X82.988 Y98.781
G1 Z.4
G1 Z.2
G1 E.8 F1800
;TYPE:Skirt
;WIDTH:0.56
G1 F4800
G1 X84.738 Y97.318 E.09345
G1 X88 Y96.449 E.13831
G1 X212 Y96.449 E5.08085
G1 X214.246 Y96.846 E.09345
G1 X216.219 Y97.988 E.09345
G1 X217.682 Y99.738 E.09345
G1 X218.551 Y103 E.13831
G1 X218.551 Y187 E3.44186
G1 X218.154 Y189.246 E.09345
G1 X216.632 Y191.632 E.11598
G1 X206.632 Y201.632 E.57947
G1 X204.764 Y202.94 E.09345
G1 X202 Y203.551 E.11598
G1 X98 Y203.551 E4.26135
G1 X95.754 Y203.154 E.09345
G1 X93.368 Y201.632 E.11598
G1 X83.368 Y191.632 E.57947
G1 X82.06 Y189.764 E.09345
G1 X81.449 Y187 E.11598
G1 X81.449 Y103 E3.44186
M73 P0 R25
G1 X81.846 Y100.754 E.09345
G1 X82.968 Y98.815 E.09181
G1 X83.429 Y99.096 F18000
G1 F4800
G1 X83.5 Y98.979 E.00559
G1 X85.23 Y97.639 E.08965
G1 X88 Y96.966 E.11681
G1 X212 Y96.966 E5.08085
G1 X214.152 Y97.363 E.08965
G1 X216.021 Y98.5 E.08965
G1 X217.361 Y100.23 E.08965
G1 X218.034 Y103 E.11681
G1 X218.034 Y187 E3.44186
G1 X217.637 Y189.152 E.08965
G1 X216.267 Y191.267 E.10327
G1 X206.267 Y201.267 E.57947
G1 X204.465 Y202.508 E.08965
G1 X202 Y203.034 E.10327
G1 X98 Y203.034 E4.26135
G1 X95.848 Y202.637 E.08965
G1 X93.733 Y201.267 E.10327
G1 X83.733 Y191.267 E.57947
G1 X82.492 Y189.465 E.08965
G1 X81.966 Y187 E.10327
G1 X81.966 Y103 E3.44186
G1 X82.363 Y100.848 E.08965
G1 X83.409 Y99.13 E.08242
G1 X83.861 Y99.422 F18000
G1 F4800
G1 X84.011 Y99.188 E.01137
G1 X85.717 Y97.978 E.08569
G1 X88 Y97.483 E.09573
G1 X212 Y97.483 E5.08085
M73 P1 R25
G1 X214.053 Y97.879 E.08569
G1 X215.812 Y99.011 E.08569
G1 X217.022 Y100.717 E.08569
G1 X217.517 Y103 E.09573
G1 X217.517 Y187 E3.44186
G1 X217.121 Y189.053 E.08569
G1 X215.901 Y190.901 E.09071
G1 X205.901 Y200.901 E.57947
G1 X204.169 Y202.073 E.08569
G1 X202 Y202.517 E.09071
G1 X98 Y202.517 E4.26135
G1 X95.947 Y202.121 E.08569
G1 X94.099 Y200.901 E.09071
G1 X84.099 Y190.901 E.57947
G1 X82.927 Y189.169 E.08569
G1 X82.483 Y187 E.09071
G1 X82.483 Y103 E3.44186
G1 X82.879 Y100.947 E.08569
G1 X83.84 Y99.455 E.07268
; printing object flowrate_m20 id:7 copy 0
G1 E-.56 F1800
;WIPE_START
G1 F4800
G1 X84.011 Y99.188 E-.0762
G1 X84.568 Y98.793 E-.1638
;WIPE_END
EXCLUDE_OBJECT_START NAME=flowrate_m20_id_7_copy_0
G1 Z.6 F18000
G1 X98.279 Y122.956 Z.6
G1 Z.2
G1 E.8 F1800
;TYPE:Outer wall
;WIDTH:0.559999
G1 F4800
G1 X98.191 Y122.784 E.00633
G1 X98.021 Y122.72 E.00595
G1 X88.28 Y122.72 E.31932
G1 X88.28 Y103.28 E.63724
G1 X127.72 Y103.28 E1.29283
G1 X127.72 Y113 E.31862
G1 X127.72 Y122.72 E.31862
G1 X118 Y122.72 E.31862
G1 X117.936 Y122.724 E.00211
G1 X117.783 Y122.81 E.00576
G1 X117.72 Y122.979 E.0059
G1 X117.72 Y132.72 E.31932
G1 X98.28 Y132.72 E.63724
G1 X98.28 Y123 E.31862
G1 X98.28 Y122.996 E.00013
G1 E-.8 F1800
G1 Z.6 F18000
G1 X127.565 Y104.492 Z.6
G1 Z.2
G1 E.8 F1800
;TYPE:Bottom surface
;WIDTH:0.56531
G1 F6300
G1 X126.741 Y103.668 E.03858
G1 X126.002 Y103.668 E.02447
G1 X127.332 Y104.998 E.06228
G1 X127.332 Y105.736 E.02447
G1 X125.264 Y103.668 E.09688
G1 X124.525 Y103.668 E.02447
G1 X127.332 Y106.475 E.13148
G1 X127.332 Y107.214 E.02447
G1 X123.786 Y103.668 E.16608
G1 X123.047 Y103.668 E.02447
G1 X127.332 Y107.953 E.20068
G1 X127.332 Y108.692 E.02447
G1 X122.308 Y103.668 E.23528
G1 X121.57 Y103.668 E.02447
G1 X127.332 Y109.43 E.26988
G1 X127.332 Y110.169 E.02447
G1 X120.831 Y103.668 E.30448
G1 X120.092 Y103.668 E.02447
G1 X127.332 Y110.908 E.33908
G1 X127.332 Y111.647 E.02447
G1 X119.353 Y103.668 E.37368
G1 X118.615 Y103.668 E.02447
G1 X127.332 Y112.385 E.40828
G1 X127.332 Y113.124 E.02447
G1 X117.876 Y103.668 E.44288
G1 X117.137 Y103.668 E.02447
G1 X127.332 Y113.863 E.47748
G1 X127.332 Y114.602 E.02447
G1 X116.398 Y103.668 E.51207
G1 X115.659 Y103.668 E.02447
G1 X127.332 Y115.341 E.54667
G1 X127.332 Y116.079 E.02447
G1 X114.921 Y103.668 E.58127
G1 X114.182 Y103.668 E.02447
G1 X127.332 Y116.818 E.61587
G1 X127.332 Y117.557 E.02447
G1 X113.443 Y103.668 E.65047
G1 X112.704 Y103.668 E.02447
G1 X127.332 Y118.296 E.68507
G1 X127.332 Y119.034 E.02447
G1 X111.966 Y103.668 E.71967
G1 X111.227 Y103.668 E.02447
G1 X127.332 Y119.773 E.75427
G1 X127.332 Y120.512 E.02447
G1 X110.488 Y103.668 E.78887
M73 P2 R25
G1 X109.749 Y103.668 E.02447
G1 X127.332 Y121.251 E.82347
G1 X127.332 Y121.989 E.02447
G1 X109.011 Y103.668 E.85807
G1 X108.272 Y103.668 E.02447
G1 X126.936 Y122.332 E.87412
G1 X126.197 Y122.332 E.02447
G1 X107.533 Y103.668 E.87412
G1 X106.794 Y103.668 E.02447
G1 X125.459 Y122.332 E.87412
G1 X124.72 Y122.332 E.02447
G1 X106.055 Y103.668 E.87412
G1 X105.317 Y103.668 E.02447
G1 X123.981 Y122.332 E.87412
G1 X123.242 Y122.332 E.02447
G1 X104.578 Y103.668 E.87412
G1 X103.839 Y103.668 E.02447
G1 X122.504 Y122.332 E.87412
G1 X121.765 Y122.332 E.02447
G1 X103.1 Y103.668 E.87412
G1 X102.362 Y103.668 E.02447
G1 X121.026 Y122.332 E.87412
G1 X120.287 Y122.332 E.02447
G1 X101.623 Y103.668 E.87412
G1 X100.884 Y103.668 E.02447
G1 X119.548 Y122.332 E.87412
G1 X118.81 Y122.332 E.02447
G1 X100.145 Y103.668 E.87412
G1 X99.407 Y103.668 E.02447
G1 X118.071 Y122.332 E.87412
G1 X117.965 Y122.332 E.0035
G1 X117.72 Y122.383 E.00828
G1 X117.52 Y122.52 E.00803
G1 X98.668 Y103.668 E.88293
G1 X97.929 Y103.668 E.02447
G1 X117.332 Y123.071 E.90872
G1 X117.332 Y123.81 E.02447
G1 X97.19 Y103.668 E.94332
G1 X96.451 Y103.668 E.02447
G1 X117.332 Y124.549 E.97792
G1 X117.332 Y125.287 E.02447
G1 X95.713 Y103.668 E1.01252
G1 X94.974 Y103.668 E.02447
G1 X117.332 Y126.026 E1.04712
G1 X117.332 Y126.765 E.02447
G1 X94.235 Y103.668 E1.08172
G1 X93.496 Y103.668 E.02447
G1 X117.332 Y127.504 E1.11632
G1 X117.332 Y128.242 E.02447
G1 X92.758 Y103.668 E1.15092
G1 X92.019 Y103.668 E.02447
G1 X117.332 Y128.981 E1.18551
G1 X117.332 Y129.72 E.02447
G1 X91.28 Y103.668 E1.22011
G1 X90.541 Y103.668 E.02447
G1 X117.332 Y130.459 E1.25471
G1 X117.332 Y131.197 E.02447
G1 X89.803 Y103.668 E1.28931
G1 X89.064 Y103.668 E.02447
G1 X117.332 Y131.936 E1.32391
G1 X117.332 Y132.332 E.01311
G1 X116.989 Y132.332 E.01135
G1 X88.668 Y104.011 E1.3264
G1 X88.668 Y104.749 E.02447
G1 X116.251 Y132.332 E1.2918
M73 P3 R25
G1 X115.512 Y132.332 E.02447
G1 X88.668 Y105.488 E1.2572
G1 X88.668 Y106.227 E.02447
G1 X114.773 Y132.332 E1.2226
G1 X114.034 Y132.332 E.02447
G1 X88.668 Y106.966 E1.188
G1 X88.668 Y107.704 E.02447
G1 X113.296 Y132.332 E1.1534
G1 X112.557 Y132.332 E.02447
G1 X88.668 Y108.443 E1.1188
G1 X88.668 Y109.182 E.02447
G1 X111.818 Y132.332 E1.0842
G1 X111.079 Y132.332 E.02447
G1 X88.668 Y109.921 E1.0496
G1 X88.668 Y110.66 E.02447
G1 X110.34 Y132.332 E1.01501
G1 X109.602 Y132.332 E.02447
G1 X88.668 Y111.398 E.98041
G1 X88.668 Y112.137 E.02447
G1 X108.863 Y132.332 E.94581
G1 X108.124 Y132.332 E.02447
G1 X88.668 Y112.876 E.91121
G1 X88.668 Y113.615 E.02447
G1 X97.385 Y122.332 E.40827
G1 X96.647 Y122.332 E.02447
G1 X88.668 Y114.353 E.37367
G1 X88.668 Y115.092 E.02447
G1 X95.908 Y122.332 E.33907
G1 X95.169 Y122.332 E.02447
G1 X88.668 Y115.831 E.30448
G1 X88.668 Y116.57 E.02447
G1 X94.43 Y122.332 E.26988
G1 X93.691 Y122.332 E.02447
G1 X88.668 Y117.309 E.23528
G1 X88.668 Y118.047 E.02447
G1 X92.953 Y122.332 E.20068
G1 X92.214 Y122.332 E.02447
G1 X88.668 Y118.786 E.16608
G1 X88.668 Y119.525 E.02447
G1 X91.475 Y122.332 E.13148
G1 X90.736 Y122.332 E.02447
G1 X88.668 Y120.264 E.09688
G1 X88.668 Y121.002 E.02447
G1 X89.998 Y122.332 E.06228
G1 X89.259 Y122.332 E.02447
G1 X88.435 Y121.508 E.03858
G1 E-.56 F1800
;WIPE_START
G1 F6300
G1 X89.142 Y122.216 E-.24
;WIPE_END
G1 Z.6 F18000
G1 X98.776 Y122.224 Z.6
G1 X98.776 Y123.382
G1 X98.435 Y123.382
G1 Z.2
G1 E.8 F1800
G1 F6300
G1 X107.385 Y132.332 E.41917
G1 X106.647 Y132.332 E.02447
G1 X98.668 Y124.353 E.37367
G1 X98.668 Y125.092 E.02447
G1 X105.908 Y132.332 E.33907
G1 X105.169 Y132.332 E.02447
G1 X98.668 Y125.831 E.30448
G1 X98.668 Y126.57 E.02447
G1 X104.43 Y132.332 E.26988
G1 X103.691 Y132.332 E.02447
G1 X98.668 Y127.309 E.23528
G1 X98.668 Y128.047 E.02447
G1 X102.953 Y132.332 E.20068
G1 X102.214 Y132.332 E.02447
G1 X98.668 Y128.786 E.16608
G1 X98.668 Y129.525 E.02447
G1 X101.475 Y132.332 E.13148
G1 X100.736 Y132.332 E.02447
G1 X98.668 Y130.264 E.09688
G1 X98.668 Y131.002 E.02447
G1 X99.998 Y132.332 E.06228
G1 X99.259 Y132.332 E.02447
G1 X98.435 Y131.508 E.03858
; stop printing object flowrate_m20 id:7 copy 0
; printing object flowrate_5 id:4 copy 0
G1 E-.56 F1800
;WIPE_START
G1 F6300
G1 X99.142 Y132.216 E-.24
;WIPE_END
EXCLUDE_OBJECT_END NAME=flowrate_m20_id_7_copy_0
EXCLUDE_OBJECT_START NAME=flowrate_5_id_4_copy_0
G1 Z.6 F18000
G1 X98.279 Y154.956 Z.6
G1 Z.2
G1 E.8 F1800
;TYPE:Outer wall
;WIDTH:0.559999
G1 F4800
G1 X98.191 Y154.784 E.00831
G1 X98.021 Y154.72 E.00781
G1 X88.28 Y154.72 E.41911
G1 X88.28 Y135.28 E.83637
G1 X127.72 Y135.28 E1.69684
G1 X127.72 Y145 E.41819
G1 X127.72 Y154.72 E.41819
G1 X118 Y154.72 E.41819
G1 X117.936 Y154.724 E.00277
G1 X117.783 Y154.81 E.00756
G1 X117.72 Y154.979 E.00775
G1 X117.72 Y164.72 E.41911
G1 X98.28 Y164.72 E.83637
G1 X98.28 Y155 E.41819
G1 X98.28 Y154.996 E.00017
G1 E-.8 F1800
G1 Z.6 F18000
G1 X127.565 Y136.492 Z.6
G1 Z.2
M73 P4 R25
G1 E.8 F1800
;TYPE:Bottom surface
;WIDTH:0.56531
G1 F6300
G1 X126.741 Y135.668 E.05064
G1 X126.002 Y135.668 E.03211
G1 X127.332 Y136.998 E.08175
G1 X127.332 Y137.736 E.03211
G1 X125.264 Y135.668 E.12716
G1 X124.525 Y135.668 E.03211
G1 X127.332 Y138.475 E.17257
G1 X127.332 Y139.214 E.03211
G1 X123.786 Y135.668 E.21798
G1 X123.047 Y135.668 E.03211
G1 X127.332 Y139.953 E.26339
G1 X127.332 Y140.692 E.03211
G1 X122.308 Y135.668 E.30881
G1 X121.57 Y135.668 E.03211
G1 X127.332 Y141.43 E.35422
G1 X127.332 Y142.169 E.03211
G1 X120.831 Y135.668 E.39963
G1 X120.092 Y135.668 E.03211
G1 X127.332 Y142.908 E.44504
G1 X127.332 Y143.647 E.03211
G1 X119.353 Y135.668 E.49045
G1 X118.615 Y135.668 E.03211
G1 X127.332 Y144.385 E.53586
G1 X127.332 Y145.124 E.03211
G1 X117.876 Y135.668 E.58128
G1 X117.137 Y135.668 E.03211
G1 X127.332 Y145.863 E.62669
G1 X127.332 Y146.602 E.03211
G1 X116.398 Y135.668 E.6721
G1 X115.659 Y135.668 E.03211
G1 X127.332 Y147.341 E.71751
G1 X127.332 Y148.079 E.03211
G1 X114.921 Y135.668 E.76292
M73 P4 R24
G1 X114.182 Y135.668 E.03211
G1 X127.332 Y148.818 E.80833
G1 X127.332 Y149.557 E.03211
G1 X113.443 Y135.668 E.85374
G1 X112.704 Y135.668 E.03211
G1 X127.332 Y150.296 E.89916
G1 X127.332 Y151.034 E.03211
G1 X111.966 Y135.668 E.94457
G1 X111.227 Y135.668 E.03211
G1 X127.332 Y151.773 E.98998
G1 X127.332 Y152.512 E.03211
G1 X110.488 Y135.668 E1.03539
G1 X109.749 Y135.668 E.03211
G1 X127.332 Y153.251 E1.0808
G1 X127.332 Y153.989 E.03211
G1 X109.011 Y135.668 E1.12621
G1 X108.272 Y135.668 E.03211
G1 X126.936 Y154.332 E1.14728
G1 X126.197 Y154.332 E.03211
G1 X107.533 Y135.668 E1.14728
G1 X106.794 Y135.668 E.03211
G1 X125.459 Y154.332 E1.14728
G1 X124.72 Y154.332 E.03211
G1 X106.055 Y135.668 E1.14728
G1 X105.317 Y135.668 E.03211
G1 X123.981 Y154.332 E1.14728
G1 X123.242 Y154.332 E.03211
G1 X104.578 Y135.668 E1.14728
G1 X103.839 Y135.668 E.03211
G1 X122.504 Y154.332 E1.14728
G1 X121.765 Y154.332 E.03211
G1 X103.1 Y135.668 E1.14728
G1 X102.362 Y135.668 E.03211
G1 X121.026 Y154.332 E1.14728
G1 X120.287 Y154.332 E.03211
G1 X101.623 Y135.668 E1.14728
G1 X100.884 Y135.668 E.03211
G1 X119.548 Y154.332 E1.14728
G1 X118.81 Y154.332 E.03211
G1 X100.145 Y135.668 E1.14728
G1 X99.407 Y135.668 E.03211
G1 X118.071 Y154.332 E1.14728
G1 X117.965 Y154.332 E.00459
G1 X117.72 Y154.383 E.01087
G1 X117.52 Y154.52 E.01054
G1 X98.668 Y135.668 E1.15884
G1 X97.929 Y135.668 E.03211
G1 X117.332 Y155.071 E1.1927
G1 X117.332 Y155.81 E.03211
G1 X97.19 Y135.668 E1.23811
G1 X96.451 Y135.668 E.03211
G1 X117.332 Y156.549 E1.28352
M73 P5 R24
G1 X117.332 Y157.287 E.03211
G1 X95.713 Y135.668 E1.32893
G1 X94.974 Y135.668 E.03211
G1 X117.332 Y158.026 E1.37434
G1 X117.332 Y158.765 E.03211
G1 X94.235 Y135.668 E1.41975
G1 X93.496 Y135.668 E.03211
G1 X117.332 Y159.504 E1.46517
G1 X117.332 Y160.242 E.03211
G1 X92.758 Y135.668 E1.51058
G1 X92.019 Y135.668 E.03211
G1 X117.332 Y160.981 E1.55599
G1 X117.332 Y161.72 E.03211
G1 X91.28 Y135.668 E1.6014
