; HEADER_BLOCK_START
; generated by OrcaSlicer 1.7.0 on 2024-02-08 at 00:06:38
; total layer number: 7
; HEADER_BLOCK_END

; THUMBNAIL_BLOCK_START
; THUMBNAIL_BLOCK_END

; external perimeters extrusion width = 0.40mm
; perimeters extrusion width = 0.40mm
; infill extrusion width = 0.45mm
; solid infill extrusion width = 0.48mm
; top infill extrusion width = 0.48mm
; first layer extrusion width = 0.56mm

; external perimeters extrusion width = 0.40mm
; perimeters extrusion width = 0.40mm
; infill extrusion width = 0.45mm
; solid infill extrusion width = 0.48mm
; top infill extrusion width = 0.48mm
; first layer extrusion width = 0.56mm

; external perimeters extrusion width = 0.40mm
; perimeters extrusion width = 0.40mm
; infill extrusion width = 0.45mm
; solid infill extrusion width = 0.48mm
; top infill extrusion width = 0.48mm
; first layer extrusion width = 0.56mm

; external perimeters extrusion width = 0.40mm
; perimeters extrusion width = 0.40mm
; infill extrusion width = 0.45mm
; solid infill extrusion width = 0.48mm
; top infill extrusion width = 0.48mm
; first layer extrusion width = 0.56mm

; external perimeters extrusion width = 0.40mm
; perimeters extrusion width = 0.40mm
; infill extrusion width = 0.45mm
; solid infill extrusion width = 0.48mm
; top infill extrusion width = 0.48mm
; first layer extrusion width = 0.56mm

; external perimeters extrusion width = 0.40mm
; perimeters extrusion width = 0.40mm
; infill extrusion width = 0.45mm
; solid infill extrusion width = 0.48mm
; top infill extrusion width = 0.48mm
; first layer extrusion width = 0.56mm

; external perimeters extrusion width = 0.40mm
; perimeters extrusion width = 0.40mm
; infill extrusion width = 0.45mm
; solid infill extrusion width = 0.48mm
; top infill extrusion width = 0.48mm
; first layer extrusion width = 0.56mm

; external perimeters extrusion width = 0.40mm
; perimeters extrusion width = 0.40mm
; infill extrusion width = 0.45mm
; solid infill extrusion width = 0.48mm
; top infill extrusion width = 0.48mm
; first layer extrusion width = 0.56mm

; external perimeters extrusion width = 0.40mm
; perimeters extrusion width = 0.40mm
; infill extrusion width = 0.45mm
; solid infill extrusion width = 0.48mm
; top infill extrusion width = 0.48mm
; first layer extrusion width = 0.56mm

; external perimeters extrusion width = 0.40mm
; perimeters extrusion width = 0.40mm
; infill extrusion width = 0.45mm
; solid infill extrusion width = 0.48mm
; top infill extrusion width = 0.48mm
; first layer extrusion width = 0.56mm

; EXECUTABLE_BLOCK_START
EXCLUDE_OBJECT_DEFINE NAME=flowrate_0_id_0_copy_0 CENTER=150,198 POLYGON=[[130,183],[170,183],[170,203],[160,213],[140,213],[130,203],[130,183]]
EXCLUDE_OBJECT_DEFINE NAME=flowrate_m1_id_1_copy_0 CENTER=108,166 POLYGON=[[88,151],[128,151],[128,171],[118,181],[98,181],[88,171],[88,151]]
EXCLUDE_OBJECT_DEFINE NAME=flowrate_m2_id_2_copy_0 CENTER=150,166 POLYGON=[[130,151],[170,151],[170,171],[160,181],[140,181],[130,171],[130,151]]
EXCLUDE_OBJECT_DEFINE NAME=flowrate_m3_id_3_copy_0 CENTER=192,166 POLYGON=[[172,151],[212,151],[212,171],[202,181],[182,181],[172,171],[172,151]]
EXCLUDE_OBJECT_DEFINE NAME=flowrate_m4_id_4_copy_0 CENTER=108,134 POLYGON=[[88,119],[128,119],[128,139],[118,149],[98,149],[88,139],[88,119]]
EXCLUDE_OBJECT_DEFINE NAME=flowrate_m5_id_5_copy_0 CENTER=150,134 POLYGON=[[130,119],[170,119],[170,139],[160,149],[140,149],[130,139],[130,119]]
EXCLUDE_OBJECT_DEFINE NAME=flowrate_m6_id_6_copy_0 CENTER=192,134 POLYGON=[[172,119],[212,119],[212,139],[202,149],[182,149],[172,139],[172,119]]
EXCLUDE_OBJECT_DEFINE NAME=flowrate_m7_id_7_copy_0 CENTER=192,102 POLYGON=[[172,87],[212,87],[212,107],[202,117],[182,117],[172,107],[172,87]]
EXCLUDE_OBJECT_DEFINE NAME=flowrate_m8_id_8_copy_0 CENTER=150,102 POLYGON=[[130,87],[170,87],[170,107],[160,117],[140,117],[130,107],[130,87]]
EXCLUDE_OBJECT_DEFINE NAME=flowrate_m9_id_9_copy_0 CENTER=108,102 POLYGON=[[88,87],[128,87],[128,107],[118,117],[98,117],[88,107],[88,87]]
M73 P0 R27
;TYPE:Custom
M104 S0 ; Stops SuperSlicer from sending temp waits separately
M140 S0
print_start EXTRUDER=260 BED=105 CHAMBER=0 
G90
G21
M83 ; use relative distances for extrusion
; Filament gcode
SET_PRESSURE_ADVANCE ADVANCE=0.045; Override pressure advance value
M106 S0
;LAYER_CHANGE
;Z:0.2
;HEIGHT:0.2
;BEFORE_LAYER_CHANGE
;0.2
G92 E0

G1 E-.8 F1800
;AFTER_LAYER_CHANGE
;0.2
;_SET_FAN_SPEED_CHANGING_LAYER
SET_VELOCITY_LIMIT ACCEL=500
G1 Z.4 F18000
G1 X84.929 Y83.595
G1 Z.4
G1 Z.2
G1 E.8 F1800
;TYPE:Skirt
;WIDTH:0.56
G1 F6962.177
G1 X86.577 Y82.641 E.07805
G1 X88 Y82.415 E.05902
G1 X212 Y82.415 E5.08085
G1 X213.863 Y82.81 E.07805
G1 X215.405 Y83.929 E.07805
G1 X216.359 Y85.577 E.07805
G1 X216.585 Y87 E.05902
G1 X216.585 Y171 E3.44186
G1 X216.19 Y172.863 E.07805
G1 X215.242 Y174.242 E.06856
G1 X204.779 Y184.647 E.60463
G1 X162.779 Y216.647 E2.16352
G1 X161.057 Y217.462 E.07805
G1 X160 Y217.585 E.04361
G1 X140 Y217.585 E.81949
G1 X138.137 Y217.19 E.07805
G1 X137.221 Y216.647 E.04361
G1 X95.221 Y184.647 E2.16352
G1 X84.758 Y174.242 E.60463
G1 X83.72 Y172.645 E.07805
G1 X83.415 Y171 E.06856
G1 X83.415 Y87 E3.44186
G1 X83.81 Y85.137 E.07805
G1 X84.905 Y83.627 E.07641
G1 X85.337 Y83.967 F18000
G1 F6962.177
G1 X85.435 Y83.842 E.00651
G1 X87.042 Y83.046 E.07347
G1 X88 Y82.932 E.03954
G1 X212 Y82.932 E5.08085
G1 X213.749 Y83.327 E.07347
G1 X215.158 Y84.435 E.07347
G1 X215.954 Y86.042 E.07347
G1 X216.068 Y87 E.03954
G1 X216.068 Y171 E3.44186
G1 X215.673 Y172.749 E.07347
G1 X214.877 Y173.877 E.05658
G1 X204.466 Y184.236 E.60179
G1 X162.466 Y216.236 E2.16352
M73 P0 R26
G1 X160 Y217.068 E.10663
G1 X140 Y217.068 E.81949
G1 X137.534 Y216.236 E.10663
G1 X95.534 Y184.236 E2.16352
G1 X85.123 Y173.877 E.60179
G1 X84.166 Y172.361 E.07347
G1 X83.932 Y171 E.05658
G1 X83.932 Y87 E3.44186
G1 X84.327 Y85.251 E.07347
G1 X85.312 Y83.998 E.06531
G1 X85.725 Y84.355 F18000
G1 F6962.177
G1 X85.939 Y84.108 E.01339
G1 X88 Y83.449 E.08868
G1 X212 Y83.449 E5.08085
G1 X213.626 Y83.843 E.06858
G1 X214.892 Y84.939 E.06858
G1 X215.551 Y87 E.08868
G1 X215.551 Y171 E3.44186
G1 X215.157 Y172.626 E.06858
G1 X214.511 Y173.511 E.04488
G1 X204.152 Y183.825 E.59896
G1 X162.152 Y215.825 E2.16352
G1 X160 Y216.551 E.09307
G1 X140 Y216.551 E.81949
G1 X137.848 Y215.825 E.09307
G1 X95.848 Y183.825 E2.16352
G1 X85.489 Y173.511 E.59896
M73 P1 R26
G1 X84.618 Y172.082 E.06858
G1 X84.449 Y171 E.04488
G1 X84.449 Y87 E3.44186
G1 X84.843 Y85.374 E.06858
G1 X85.698 Y84.386 E.05354
G1 X86.084 Y84.762 F18000
G1 F6962.177
G1 X86.437 Y84.399 E.02073
G1 X88 Y83.966 E.06644
G1 X212 Y83.966 E5.08085
G1 X213.494 Y84.359 E.06331
G1 X214.601 Y85.437 E.06331
G1 X215.034 Y87 E.06644
G1 X215.034 Y171 E3.44186
G1 X214.641 Y172.494 E.06331
G1 X214.145 Y173.145 E.03353
G1 X203.839 Y183.413 E.59612
G1 X161.839 Y215.413 E2.16352
G1 X160 Y216.034 E.07952
G1 X140 Y216.034 E.81949
G1 X138.161 Y215.413 E.07952
G1 X96.161 Y183.413 E2.16352
G1 X85.855 Y173.145 E.59612
G1 X85.076 Y171.811 E.06331
G1 X84.966 Y171 E.03353
G1 X84.966 Y87 E3.44186
G1 X85.359 Y85.506 E.06331
G1 X86.056 Y84.79 E.04094
G1 X86.404 Y85.185 F18000
G1 F6962.177
G1 X86.929 Y84.722 E.02867
G1 X88 Y84.483 E.04496
G1 X212 Y84.483 E5.08085
G1 X213.349 Y84.875 E.05756
G1 X214.278 Y85.929 E.05756
G1 X214.517 Y87 E.04496
G1 X214.517 Y171 E3.44186
G1 X213.78 Y172.78 E.07894
G1 X203.525 Y183.002 E.59328
G1 X161.525 Y215.002 E2.16352
G1 X160 Y215.517 E.06597
G1 X140 Y215.517 E.81949
G1 X138.475 Y215.002 E.06597
G1 X96.475 Y183.002 E2.16352
G1 X86.22 Y172.78 E.59328
G1 X85.483 Y171 E.07894
G1 X85.483 Y87 E3.44186
G1 X85.875 Y85.651 E.05756
G1 X86.374 Y85.211 E.02726
; printing object flowrate_m3 id:3 copy 0
G1 E-.56 F1800
;WIPE_START
G1 F6962.177
G1 X86.929 Y84.722 E-.17752
G1 X87.183 Y84.665 E-.06248
;WIPE_END
EXCLUDE_OBJECT_START NAME=flowrate_m3_id_3_copy_0
G1 Z.6 F18000
G1 X182.279 Y170.956 Z.6
G1 Z.2
G1 E.8 F1800
;TYPE:Outer wall
;WIDTH:0.559999
G1 F7177.511
G1 X182.191 Y170.784 E.00768
G1 X182.021 Y170.72 E.00722
G1 X172.28 Y170.72 E.38718
G1 X172.28 Y151.28 E.77265
G1 X211.72 Y151.28 E1.56755
G1 X211.72 Y161 E.38632
G1 X211.72 Y170.72 E.38632
G1 X202 Y170.72 E.38632
G1 X201.936 Y170.724 E.00256
G1 X201.783 Y170.81 E.00698
G1 X201.72 Y170.979 E.00716
G1 X201.72 Y180.72 E.38718
G1 X182.28 Y180.72 E.77265
G1 X182.28 Y171 E.38632
G1 X182.28 Y170.996 E.00016
G1 E-.8 F1800
G1 Z.6 F18000
G1 X211.565 Y152.492 Z.6
M73 P2 R26
G1 Z.2
G1 E.8 F1800
;TYPE:Bottom surface
;WIDTH:0.56531
G1 F7104.539
G1 X210.741 Y151.668 E.04678
G1 X210.002 Y151.668 E.02966
G1 X211.332 Y152.998 E.07552
G1 X211.332 Y153.736 E.02966
G1 X209.264 Y151.668 E.11747
G1 X208.525 Y151.668 E.02966
G1 X211.332 Y154.475 E.15942
G1 X211.332 Y155.214 E.02966
G1 X207.786 Y151.668 E.20138
G1 X207.047 Y151.668 E.02966
G1 X211.332 Y155.953 E.24333
G1 X211.332 Y156.692 E.02966
G1 X206.308 Y151.668 E.28528
G1 X205.57 Y151.668 E.02966
G1 X211.332 Y157.43 E.32723
G1 X211.332 Y158.169 E.02966
G1 X204.831 Y151.668 E.36918
G1 X204.092 Y151.668 E.02966
G1 X211.332 Y158.908 E.41113
G1 X211.332 Y159.647 E.02966
G1 X203.353 Y151.668 E.45308
G1 X202.615 Y151.668 E.02966
G1 X211.332 Y160.385 E.49504
G1 X211.332 Y161.124 E.02966
G1 X201.876 Y151.668 E.53699
G1 X201.137 Y151.668 E.02966
G1 X211.332 Y161.863 E.57894
G1 X211.332 Y162.602 E.02966
G1 X200.398 Y151.668 E.62089
G1 X199.659 Y151.668 E.02966
G1 X211.332 Y163.341 E.66284
G1 X211.332 Y164.079 E.02966
G1 X198.921 Y151.668 E.70479
G1 X198.182 Y151.668 E.02966
G1 X211.332 Y164.818 E.74675
G1 X211.332 Y165.557 E.02966
G1 X197.443 Y151.668 E.7887
G1 X196.704 Y151.668 E.02966
G1 X211.332 Y166.296 E.83065
G1 X211.332 Y167.034 E.02966
G1 X195.966 Y151.668 E.8726
G1 X195.227 Y151.668 E.02966
G1 X211.332 Y167.773 E.91455
G1 X211.332 Y168.512 E.02966
G1 X194.488 Y151.668 E.9565
G1 X193.749 Y151.668 E.02966
G1 X211.332 Y169.251 E.99846
G1 X211.332 Y169.989 E.02966
G1 X193.011 Y151.668 E1.04041
G1 X192.272 Y151.668 E.02966
G1 X210.936 Y170.332 E1.05987
G1 X210.197 Y170.332 E.02966
G1 X191.533 Y151.668 E1.05987
G1 X190.794 Y151.668 E.02966
G1 X209.459 Y170.332 E1.05987
G1 X208.72 Y170.332 E.02966
G1 X190.055 Y151.668 E1.05987
G1 X189.317 Y151.668 E.02966
G1 X207.981 Y170.332 E1.05987
G1 X207.242 Y170.332 E.02966
G1 X188.578 Y151.668 E1.05987
G1 X187.839 Y151.668 E.02966
G1 X206.504 Y170.332 E1.05987
G1 X205.765 Y170.332 E.02966
G1 X187.1 Y151.668 E1.05987
G1 X186.362 Y151.668 E.02966
G1 X205.026 Y170.332 E1.05987
G1 X204.287 Y170.332 E.02966
G1 X185.623 Y151.668 E1.05987
G1 X184.884 Y151.668 E.02966
G1 X203.548 Y170.332 E1.05987
G1 X202.81 Y170.332 E.02966
G1 X184.145 Y151.668 E1.05987
G1 X183.407 Y151.668 E.02966
G1 X202.071 Y170.332 E1.05987
G1 X201.965 Y170.332 E.00424
G1 X201.72 Y170.383 E.01004
G1 X201.52 Y170.52 E.00974
G1 X182.668 Y151.668 E1.07055
G1 X181.929 Y151.668 E.02966
G1 X201.332 Y171.071 E1.10182
G1 X201.332 Y171.81 E.02966
G1 X181.19 Y151.668 E1.14378
G1 X180.451 Y151.668 E.02966
G1 X201.332 Y172.549 E1.18573
G1 X201.332 Y173.287 E.02966
G1 X179.713 Y151.668 E1.22768
G1 X178.974 Y151.668 E.02966
M73 P3 R26
G1 X201.332 Y174.026 E1.26963
G1 X201.332 Y174.765 E.02966
G1 X178.235 Y151.668 E1.31158
G1 X177.496 Y151.668 E.02966
G1 X201.332 Y175.504 E1.35353
G1 X201.332 Y176.242 E.02966
G1 X176.758 Y151.668 E1.39549
G1 X176.019 Y151.668 E.02966
G1 X201.332 Y176.981 E1.43744
G1 X201.332 Y177.72 E.02966
G1 X175.28 Y151.668 E1.47939
G1 X174.541 Y151.668 E.02966
G1 X201.332 Y178.459 E1.52134
G1 X201.332 Y179.197 E.02966
G1 X173.803 Y151.668 E1.56329
G1 X173.064 Y151.668 E.02966
G1 X201.332 Y179.936 E1.60524
G1 X201.332 Y180.332 E.0159
G1 X200.989 Y180.332 E.01377
G1 X172.668 Y152.011 E1.60826
G1 X172.668 Y152.749 E.02966
G1 X200.251 Y180.332 E1.56631
G1 X199.512 Y180.332 E.02966
G1 X172.668 Y153.488 E1.52436
G1 X172.668 Y154.227 E.02966
G1 X198.773 Y180.332 E1.4824
G1 X198.034 Y180.332 E.02966
G1 X172.668 Y154.966 E1.44045
G1 X172.668 Y155.704 E.02966
G1 X197.296 Y180.332 E1.3985
G1 X196.557 Y180.332 E.02966
G1 X172.668 Y156.443 E1.35655
G1 X172.668 Y157.182 E.02966
G1 X195.818 Y180.332 E1.3146
G1 X195.079 Y180.332 E.02966
G1 X172.668 Y157.921 E1.27265
G1 X172.668 Y158.66 E.02966
G1 X194.34 Y180.332 E1.23069
G1 X193.602 Y180.332 E.02966
G1 X172.668 Y159.398 E1.18874
G1 X172.668 Y160.137 E.02966
G1 X192.863 Y180.332 E1.14679
G1 X192.124 Y180.332 E.02966
G1 X172.668 Y160.876 E1.10484
G1 X172.668 Y161.615 E.02966
G1 X181.385 Y170.332 E.49503
G1 X180.647 Y170.332 E.02966
G1 X172.668 Y162.353 E.45308
G1 X172.668 Y163.092 E.02966
G1 X179.908 Y170.332 E.41113
G1 X179.169 Y170.332 E.02966
G1 X172.668 Y163.831 E.36918
G1 X172.668 Y164.57 E.02966
G1 X178.43 Y170.332 E.32723
G1 X177.691 Y170.332 E.02966
G1 X172.668 Y165.309 E.28527
G1 X172.668 Y166.047 E.02966
G1 X176.953 Y170.332 E.24332
G1 X176.214 Y170.332 E.02966
G1 X172.668 Y166.786 E.20137
G1 X172.668 Y167.525 E.02966
G1 X175.475 Y170.332 E.15942
G1 X174.736 Y170.332 E.02966
G1 X172.668 Y168.264 E.11747
G1 X172.668 Y169.002 E.02966
G1 X173.998 Y170.332 E.07552
G1 X173.259 Y170.332 E.02966
G1 X172.435 Y169.508 E.04678
G1 E-.56 F1800
;WIPE_START
G1 F7104.539
G1 X173.142 Y170.216 E-.24
;WIPE_END
G1 Z.6 F18000
G1 X182.776 Y170.224 Z.6
G1 X182.776 Y171.382
G1 X182.435 Y171.382
G1 Z.2
G1 E.8 F1800
G1 F7104.539
G1 X191.385 Y180.332 E.50824
G1 X190.647 Y180.332 E.02966
G1 X182.668 Y172.353 E.45308
G1 X182.668 Y173.092 E.02966
G1 X189.908 Y180.332 E.41113
G1 X189.169 Y180.332 E.02966
G1 X182.668 Y173.831 E.36918
G1 X182.668 Y174.57 E.02966
G1 X188.43 Y180.332 E.32722
G1 X187.691 Y180.332 E.02966
M73 P4 R26
G1 X182.668 Y175.309 E.28527
G1 X182.668 Y176.047 E.02966
G1 X186.953 Y180.332 E.24332
G1 X186.214 Y180.332 E.02966
G1 X182.668 Y176.786 E.20137
G1 X182.668 Y177.525 E.02966
G1 X185.475 Y180.332 E.15942
G1 X184.736 Y180.332 E.02966
G1 X182.668 Y178.264 E.11747
G1 X182.668 Y179.002 E.02966
G1 X183.998 Y180.332 E.07552
G1 X183.259 Y180.332 E.02966
G1 X182.435 Y179.508 E.04678
; stop printing object flowrate_m3 id:3 copy 0
; printing object flowrate_m6 id:6 copy 0
G1 E-.56 F1800
;WIPE_START
G1 F7104.539
G1 X183.142 Y180.216 E-.24
;WIPE_END
EXCLUDE_OBJECT_END NAME=flowrate_m3_id_3_copy_0
EXCLUDE_OBJECT_START NAME=flowrate_m6_id_6_copy_0
G1 Z.6 F18000
G1 X182.279 Y138.956 Z.6
G1 Z.2
G1 E.8 F1800
;TYPE:Outer wall
;WIDTH:0.559999
G1 F7200
G1 X182.191 Y138.784 E.00744
G1 X182.021 Y138.72 E.00699
G1 X172.28 Y138.72 E.3752
G1 X172.28 Y119.28 E.74875
G1 X211.72 Y119.28 E1.51907
G1 X211.72 Y129 E.37438
G1 X211.72 Y138.72 E.37438
G1 X202 Y138.72 E.37438
G1 X201.936 Y138.724 E.00248
G1 X201.783 Y138.81 E.00677
G1 X201.72 Y138.979 E.00693
G1 X201.72 Y148.72 E.3752
G1 X182.28 Y148.72 E.74875
G1 X182.28 Y139 E.37438
M73 P4 R25
G1 X182.28 Y138.996 E.00015
G1 E-.8 F1800
G1 Z.6 F18000
G1 X211.565 Y120.492 Z.6
G1 Z.2
G1 E.8 F1800
;TYPE:Bottom surface
;WIDTH:0.56531
G1 F7200
G1 X210.741 Y119.668 E.04534
G1 X210.002 Y119.668 E.02875
G1 X211.332 Y120.998 E.07318
G1 X211.332 Y121.736 E.02875
G1 X209.264 Y119.668 E.11384
G1 X208.525 Y119.668 E.02875
G1 X211.332 Y122.475 E.15449
G1 X211.332 Y123.214 E.02875
G1 X207.786 Y119.668 E.19515
G1 X207.047 Y119.668 E.02875
G1 X211.332 Y123.953 E.2358
G1 X211.332 Y124.692 E.02875
G1 X206.308 Y119.668 E.27646
G1 X205.57 Y119.668 E.02875
G1 X211.332 Y125.43 E.31711
G1 X211.332 Y126.169 E.02875
G1 X204.831 Y119.668 E.35776
G1 X204.092 Y119.668 E.02875
G1 X211.332 Y126.908 E.39842
G1 X211.332 Y127.647 E.02875
G1 X203.353 Y119.668 E.43907
G1 X202.615 Y119.668 E.02875
G1 X211.332 Y128.385 E.47973
G1 X211.332 Y129.124 E.02875
G1 X201.876 Y119.668 E.52038
G1 X201.137 Y119.668 E.02875
G1 X211.332 Y129.863 E.56103
G1 X211.332 Y130.602 E.02875
G1 X200.398 Y119.668 E.60169
G1 X199.659 Y119.668 E.02875
G1 X211.332 Y131.341 E.64234
G1 X211.332 Y132.079 E.02875
G1 X198.921 Y119.668 E.683
G1 X198.182 Y119.668 E.02875
G1 X211.332 Y132.818 E.72365
G1 X211.332 Y133.557 E.02875
G1 X197.443 Y119.668 E.7643
G1 X196.704 Y119.668 E.02875
G1 X211.332 Y134.296 E.80496
G1 X211.332 Y135.034 E.02875
G1 X195.966 Y119.668 E.84561
G1 X195.227 Y119.668 E.02875
