; HEADER_BLOCK_START
; generated by OrcaSlicer 1.7.0 on 2024-02-08 at 20:21:16
; total layer number: 43
; HEADER_BLOCK_END

; THUMBNAIL_BLOCK_START
; THUMBNAIL_BLOCK_END

; external perimeters extrusion width = 0.40mm
; perimeters extrusion width = 0.40mm
; infill extrusion width = 0.45mm
; solid infill extrusion width = 0.40mm
; top infill extrusion width = 0.40mm
; first layer extrusion width = 0.56mm

; EXECUTABLE_BLOCK_START
EXCLUDE_OBJECT_DEFINE NAME=spacer_annex.step_id_0_copy_0 CENTER=150,150 POLYGON=[[108.254,142.575],[108.259,142.47],[108.275,142.367],[108.302,142.266],[108.34,142.168],[108.387,142.075],[108.444,141.987],[108.51,141.906],[108.584,141.832],[108.666,141.766],[108.754,141.709],[108.847,141.661],[108.944,141.624],[109.046,141.597],[109.149,141.58],[109.254,141.575],[190.746,141.575],[190.851,141.58],[190.954,141.597],[191.056,141.624],[191.153,141.661],[191.246,141.709],[191.334,141.766],[191.416,141.832],[191.49,141.906],[191.556,141.987],[191.613,142.075],[191.66,142.168],[191.698,142.266],[191.725,142.367],[191.741,142.47],[191.746,142.575],[191.746,157.425],[191.741,157.53],[191.725,157.633],[191.698,157.734],[191.66,157.832],[191.613,157.925],[191.556,158.013],[191.49,158.094],[191.416,158.168],[191.334,158.234],[191.246,158.291],[191.153,158.339],[191.056,158.376],[190.954,158.403],[190.851,158.42],[190.746,158.425],[109.254,158.425],[109.149,158.42],[109.046,158.403],[108.944,158.376],[108.847,158.339],[108.754,158.291],[108.666,158.234],[108.584,158.168],[108.51,158.094],[108.444,158.013],[108.387,157.925],[108.34,157.832],[108.302,157.734],[108.275,157.633],[108.259,157.53],[108.254,157.425],[108.254,142.575]]
M73 P0 R16
;TYPE:Custom
M104 S0 ; Stops SuperSlicer from sending temp waits separately
M140 S0
print_start EXTRUDER=260 BED=105 CHAMBER=0 
G90
G21
M83 ; use relative distances for extrusion
; Filament gcode
SET_PRESSURE_ADVANCE ADVANCE=0.025; Override pressure advance value
M106 S0
;LAYER_CHANGE
;Z:0.2
;HEIGHT:0.2
;BEFORE_LAYER_CHANGE
;0.2
G92 E0

G1 E-.8 F1800
;AFTER_LAYER_CHANGE
;0.2
;_SET_FAN_SPEED_CHANGING_LAYER
SET_VELOCITY_LIMIT ACCEL=500
G1 Z.4 F18000
G1 X107.229 Y139.204
G1 Z.4
G1 Z.2
G1 E.8 F1800
;TYPE:Skirt
;WIDTH:0.56
G1 F6962.177
G1 X108.313 Y138.757 E.04788
G1 X109.254 Y138.641 E.03871
G1 X190.973 Y138.649 E3.33789
G1 X191.556 Y138.727 E.02401
G1 X192.245 Y138.94 E.02948
G1 X192.771 Y139.204 E.02401
G1 X193.583 Y139.851 E.04244
G1 X193.957 Y140.305 E.02401
G1 X194.318 Y140.93 E.02948
G1 X194.523 Y141.48 E.02401
G1 X194.678 Y142.508 E.04244
G1 X194.678 Y157.492 E.61205
G1 X194.624 Y158.077 E.02401
G1 X194.26 Y159.191 E.04788
G1 X193.674 Y160.05 E.04244
G1 X192.771 Y160.796 E.04787
G1 X191.687 Y161.243 E.04788
G1 X190.746 Y161.359 E.03871
G1 X109.254 Y161.359 E3.32863
G1 X108.444 Y161.273 E.03324
G1 X107.88 Y161.109 E.024
G1 X106.855 Y160.541 E.04787
G1 X106.043 Y159.695 E.04788
G1 X105.682 Y159.07 E.02948
G1 X105.477 Y158.519 E.02402
G1 X105.322 Y157.492 E.04243
G1 X105.356 Y142.055 E.63053
G1 X105.682 Y140.93 E.04788
G1 X106.326 Y139.95 E.04787
G1 X107.199 Y139.229 E.04624
G1 X107.52 Y139.649 F18000
G1 F6962.177
G1 X107.604 Y139.584 E.00434
G1 X108.559 Y139.231 E.04158
G1 X109.254 Y139.158 E.02852
G1 X190.935 Y139.165 E3.33631
G1 X192.057 Y139.421 E.04701
G1 X192.512 Y139.652 E.02085
G1 X193.204 Y140.203 E.03614
G1 X193.852 Y141.154 E.04701
G1 X194.029 Y141.633 E.02085
G1 X194.161 Y142.508 E.03614
G1 X194.133 Y157.867 E.62738
G1 X193.852 Y158.846 E.04158
G1 X193.295 Y159.698 E.04158
G1 X192.396 Y160.416 E.047
G1 X191.441 Y160.769 E.04158
G1 X190.746 Y160.842 E.02852
G1 X109.254 Y160.842 E3.32863
G1 X108.559 Y160.769 E.02852
G1 X108.069 Y160.628 E.02085
G1 X107.072 Y160.053 E.047
G1 X106.394 Y159.293 E.04159
G1 X106.148 Y158.846 E.02084
G1 X105.887 Y158.001 E.03614
G1 X105.867 Y142.133 E.64814
G1 X106.148 Y141.154 E.04158
G1 X106.796 Y140.203 E.047
G1 X107.488 Y139.673 E.0356
; printing object spacer_annex.step id:0 copy 0
G1 E-.56 F1800
;WIPE_START
G1 F6962.177
G1 X107.604 Y139.584 E-.03513
G1 X108.405 Y139.288 E-.20487
;WIPE_END
EXCLUDE_OBJECT_START NAME=spacer_annex.step_id_0_copy_0
G1 Z.6 F18000
G1 X137.78 Y148.168 Z.6
G1 Z.2
G1 E.8 F1800
;TYPE:Inner wall
;WIDTH:0.559999
G1 F6962.186
G1 X138.279 Y148.169 E.02037
G1 X138.775 Y148.214 E.02034
G1 X138.771 Y149.218 E.04102
G1 X138.437 Y149.28 E.01384
G1 X137.78 Y149.281 E.02685
G1 X137.78 Y148.208 E.04386
G1 X137.263 Y147.649 F18000
;TYPE:Outer wall
G1 F6962.186
G1 X138.562 Y147.653 E.05304
G1 X139.147 Y147.753 E.02424
G1 X139.259 Y147.858 E.00626
G1 X139.292 Y148.066 E.00861
G1 X139.292 Y149.083 E.04153
G1 X139.226 Y149.542 E.01895
G1 X139.115 Y149.654 E.00645
G1 X138.907 Y149.717 E.00887
G1 X138.463 Y149.797 E.01843
G1 X137.263 Y149.8 E.04901
G1 X137.263 Y147.689 E.0862
G1 E-.56 F1800
;WIPE_START
G1 F6962.186
G1 X138.263 Y147.661 E-.24
;WIPE_END
G1 Z.6 F18000
G1 X145.373 Y150.33 Z.6
G1 Z.2
G1 E.8 F1800
G1 F6962.186
G1 X146.018 Y148.408 E.08282
G1 X146.664 Y150.33 E.08282
G1 X145.413 Y150.33 E.05113
G1 X146.044 Y149.821 F18000
;TYPE:Inner wall
;WIDTH:0.454584
G1 F7200
G1 X145.993 Y149.821 E.00167
G1 X145.967 Y149.866 E.00167
G1 X145.993 Y149.91 E.00167
G1 X146.044 Y149.91 E.00167
G1 X146.07 Y149.866 E.00167
G1 E-.56 F1800
;WIPE_START
G1 F7200
G1 X146.044 Y149.91 E-.048
G1 X145.993 Y149.91 E-.048
G1 X145.967 Y149.866 E-.048
G1 X145.993 Y149.821 E-.048
G1 X146.044 Y149.821 E-.048
;WIPE_END
G1 E0 F1800
G1 Z.6 F18000
G1 X168.646 Y148.191 Z.6
M73 P1 R16
G1 Z.2
G1 E.8 F1800
;WIDTH:0.609775
G1 F6350.83
G1 X169.825 Y148.218 E.05281
;WIDTH:0.60757
G1 F6375.631
G1 X169.82 Y148.73 E.02283
G1 X169.542 Y148.755 E.01244
;WIDTH:0.609775
G1 F6350.83
G1 X168.646 Y148.76 E.04012
G1 X168.646 Y148.231 E.02368
G1 X168.104 Y147.648 F18000
;TYPE:Outer wall
;WIDTH:0.559999
G1 F6962.186
G1 X168.93 Y147.649 E.03374
G1 X169.908 Y147.683 E.03997
G1 X170.213 Y147.771 E.01294
G1 X170.333 Y147.925 E.00797
G1 X170.367 Y148.202 E.01141
G1 X170.342 Y148.959 E.03094
G1 X170.226 Y149.17 E.00983
G1 X169.828 Y149.294 E.01703
G1 X168.104 Y149.305 E.07038
G1 X168.104 Y147.688 E.06604
G1 E-.56 F1800
;WIPE_START
G1 F6962.186
G1 X168.93 Y147.649 E-.19846
G1 X169.103 Y147.655 E-.04154
;WIPE_END
G1 Z.6 F18000
G1 X138.814 Y153.213 Z.6
G1 Z.2
G1 E.8 F1800
;TYPE:Inner wall
G1 F6962.186
G1 X138.814 Y154.021 E.03303
G1 X138.754 Y154.484 E.01905
G1 X138.604 Y154.867 E.01681
G1 X138.256 Y155.328 E.0236
G1 X137.703 Y155.691 E.02701
G1 X137.316 Y155.798 E.0164
;WIDTH:0.546848
G1 F7143.878
G1 X137.005 Y155.817 E.01243
;WIDTH:0.531487
G1 F7200
G1 X135.039 Y155.817 E.07587
;WIDTH:0.563865
G1 F6910.518
G1 X134.723 Y155.777 E.01309
;WIDTH:0.596243
G1 F6506.146
G1 X134.407 Y155.737 E.0139
;WIDTH:0.644793
G1 F5981.336
G1 X134.261 Y155.681 E.00746
;WIDTH:0.693342
G1 F5534.872
G1 X134.115 Y155.625 E.00806
;WIDTH:0.741891
G1 F5150.43
G1 X133.968 Y155.569 E.00866
;WIDTH:0.79044
G1 F4815.925
G1 X133.822 Y155.513 E.00926
G1 X133.652 Y155.355 E.01369
G1 X133.327 Y155.476 E.02045
;WIDTH:0.743453
G1 F5138.945
G1 X133.003 Y155.597 E.01917
;WIDTH:0.696466
G1 F5508.411
G1 X132.693 Y155.661 E.01631
;WIDTH:0.649596
G1 F5933.978
G1 X132.384 Y155.725 E.01514
;WIDTH:0.602726
G1 F6430.807
G1 X132.074 Y155.789 E.01397
;WIDTH:0.555855
G1 F7018.434
G1 X131.627 Y155.835 E.01823
;WIDTH:0.523254
G1 F7200
G1 X131.179 Y155.88 E.01707
;WIDTH:0.490652
G1 X130.239 Y155.909 E.03327
;WIDTH:0.470925
G1 X130.106 Y155.908 E.0045
;WIDTH:0.495563
G1 X128.915 Y155.872 E.04262
;WIDTH:0.500207
G1 X128.802 Y155.866 E.00407
;WIDTH:0.544089
G1 F7183.206
G1 X127.967 Y155.8 E.03316
;WIDTH:0.587971
G1 F6604.887
G1 X127.132 Y155.735 E.03607
G1 X126.495 Y155.53 E.02879
;WIDTH:0.559999
G1 F6962.186
G1 X126.006 Y155.163 E.02501
G1 X125.7 Y154.723 E.02186
G1 X125.552 Y154.296 E.01849
G1 X125.512 Y153.921 E.01539
G1 X125.512 Y152.41 E.06172
G1 X125.588 Y151.893 E.02131
G1 X125.796 Y151.437 E.0205
G1 X126.054 Y151.119 E.01673
G1 X126.216 Y150.98 E.0087
G1 X125.951 Y150.555 E.02045
G1 X125.618 Y149.735 E.03614
G1 X125.408 Y148.952 E.0331
G1 X125.352 Y148.505 E.01842
G1 X125.352 Y147.909 E.02434
G1 X125.515 Y146.857 E.0435
G1 X125.595 Y146.564 E.01237
G1 X125.977 Y145.862 E.03265
G1 X126.358 Y145.411 E.02414
G1 X126.877 Y144.971 E.02778
G1 X127.487 Y144.63 E.02853
G1 X128.629 Y144.259 E.04907
;WIDTH:0.55591
G1 F7017.681
G1 X129.139 Y144.191 E.02083
;WIDTH:0.523047
G1 F7200
G1 X129.648 Y144.123 E.01949
;WIDTH:0.490184
G1 X130.473 Y144.095 E.02917
;WIDTH:0.469592
G1 X130.586 Y144.094 E.00378
;WIDTH:0.48823
G1 X132.005 Y144.122 E.04995
;WIDTH:0.491639
G1 X132.112 Y144.127 E.00378
;WIDTH:0.522107
G1 X132.812 Y144.172 E.02656
;WIDTH:0.552574
G1 F7063.616
G1 X133.512 Y144.218 E.02825
;WIDTH:0.589163
G1 F6590.473
G1 X133.778 Y144.263 E.01162
;WIDTH:0.625752
G1 F6176.737
G1 X134.043 Y144.308 E.0124
G1 X134.16 Y144.376 E.00623
G1 X134.273 Y144.302 E.00623
G1 X134.5 Y144.253 E.0107
;WIDTH:0.585257
G1 F6637.939
G1 X134.727 Y144.203 E.00996
;WIDTH:0.544762
G1 F7173.572
G1 X135.042 Y144.184 E.01252
;WIDTH:0.533332
G1 F7200
G1 X138.792 Y144.19 E.14527
;WIDTH:0.551697
G1 F7075.791
G1 X139.432 Y144.217 E.02574
;WIDTH:0.586596
G1 F6621.597
G1 X139.914 Y144.268 E.02083
;WIDTH:0.621494
G1 F6222.195
G1 X140.397 Y144.319 E.02216
G1 X140.809 Y144.46 E.0199
;WIDTH:0.590747
G1 F6571.424
G1 X141.221 Y144.601 E.01884
;WIDTH:0.559999
G1 F6962.186
G1 X141.753 Y144.891 E.02473
G1 X142.254 Y145.285 E.02606
G1 X142.475 Y145.491 E.01235
G1 X142.776 Y145.942 E.02215
G1 X142.889 Y146.184 E.01089
G1 X143.197 Y145.351 E.03629
G1 X143.372 Y145 E.01602
G1 X143.731 Y144.592 E.02219
G1 X144.257 Y144.285 E.02487
;WIDTH:0.559638
G1 F6967.05
G1 X144.583 Y144.203 E.01372
;WIDTH:0.544989
G1 F7170.329
G1 X144.894 Y144.184 E.01238
;WIDTH:0.529595
G1 F7200
G1 X147.266 Y144.184 E.09119
;WIDTH:0.559999
G1 F6962.186
G1 X147.954 Y144.305 E.02854
G1 X148.503 Y144.658 E.02665
G1 X148.854 Y145.11 E.02337
G1 X149.469 Y146.752 E.07164
G1 X149.851 Y145.994 E.03466
G1 X150.143 Y145.574 E.0209
G1 X150.387 Y145.284 E.01548
G1 X151.005 Y144.783 E.03249
G1 X151.593 Y144.472 E.02718
G1 X151.935 Y144.352 E.01482
G1 X152.706 Y144.182 E.03223
;WIDTH:0.532552
G1 F7200
G1 X153.506 Y144.115 E.03105
;WIDTH:0.4842
G1 X154.514 Y144.092 E.03515
;WIDTH:0.469779
G1 X154.664 Y144.094 E.00505
;WIDTH:0.499293
G1 X155.678 Y144.138 E.03659
;WIDTH:0.546975
G1 F7142.077
G1 X156.505 Y144.208 E.03303
;WIDTH:0.582662
G1 F6669.859
G1 X156.957 Y144.261 E.0194
;WIDTH:0.618348
G1 F6256.213
G1 X157.409 Y144.313 E.02068
;WIDTH:0.62179
G1 F6219.013
G1 X157.533 Y144.344 E.00585
G1 X157.791 Y144.274 E.01224
;WIDTH:0.583529
G1 F6659.163
G1 X158.049 Y144.203 E.01143
;WIDTH:0.545267
G1 F7166.361
G1 X158.361 Y144.184 E.01238
;WIDTH:0.529949
G1 F7200
G1 X164.505 Y144.184 E.23639
;WIDTH:0.558927
G1 F6976.65
G1 X164.804 Y144.22 E.01227
;WIDTH:0.587905
G1 F6605.687
G1 X165.103 Y144.256 E.01296
G1 X165.193 Y144.301 E.00432
G1 X165.568 Y144.203 E.01672
;WIDTH:0.545421
G1 F7164.165
G1 X165.88 Y144.184 E.01239
;WIDTH:0.530052
G1 F7200
G1 X169.501 Y144.184 E.13934
;WIDTH:0.546935
G1 F7142.644
G1 X170.51 Y144.209 E.04018
;WIDTH:0.581048
G1 F6689.865
G1 X170.943 Y144.258 E.01853
;WIDTH:0.61516
G1 F6291.067
G1 X171.376 Y144.307 E.0197
G1 X171.885 Y144.478 E.02426
;WIDTH:0.58758
G1 F6609.634
G1 X172.394 Y144.65 E.02309
;WIDTH:0.559999
G1 F6962.186
G1 X172.993 Y144.983 E.02801
G1 X173.39 Y145.317 E.02119
G1 X173.768 Y145.756 E.02367
G1 X174.153 Y146.454 E.03254
G1 X174.339 Y147.387 E.03885
G1 X174.364 Y147.688 E.01233
G1 X174.364 Y149.095 E.0575
G1 X174.309 Y149.67 E.02359
G1 X174.195 Y150.123 E.01905
G1 X174.035 Y150.529 E.01783
G1 X173.718 Y151.051 E.02494
G1 X173.426 Y151.387 E.01819
G1 X174.547 Y152.98 E.07956
G1 X174.783 Y153.446 E.02136
G1 X174.877 Y154.035 E.02433
G1 X174.83 Y154.431 E.01631
G1 X174.659 Y154.883 E.01975
G1 X174.309 Y155.338 E.02344
G1 X173.759 Y155.694 E.02676
G1 X173.379 Y155.797 E.01607
;WIDTH:0.545108
G1 F7168.63
G1 X173.068 Y155.816 E.01238
;WIDTH:0.529774
G1 F7200
G1 X170.796 Y155.816 E.08736
;WIDTH:0.563152
G1 F6919.989
G1 X170.476 Y155.775 E.01327
;WIDTH:0.59653
G1 F6502.772
G1 X170.155 Y155.734 E.01412
;WIDTH:0.636569
G1 F6064.192
G1 X170.037 Y155.688 E.00597
;WIDTH:0.676608
G1 F5681.033
G1 X169.918 Y155.641 E.00637
;WIDTH:0.716647
G1 F5343.416
G1 X169.799 Y155.595 E.00678
;WIDTH:0.756686
G1 F5043.676
G1 X169.681 Y155.549 E.00718
;WIDTH:0.796724
G1 F4775.777
G1 X169.562 Y155.503 E.00758
G1 X169.321 Y155.254 E.02063
G1 X169.08 Y155.503 E.02063
G1 X168.961 Y155.549 E.00758
;WIDTH:0.7567
G1 F5043.577
G1 X168.842 Y155.595 E.00718
;WIDTH:0.716675
G1 F5343.194
G1 X168.724 Y155.641 E.00678
;WIDTH:0.67665
G1 F5680.656
G1 X168.605 Y155.688 E.00637
;WIDTH:0.636625
G1 F6063.619
G1 X168.486 Y155.734 E.00597
;WIDTH:0.5966
G1 F6501.951
G1 X168.166 Y155.775 E.01412
;WIDTH:0.563258
G1 F6918.58
G1 X167.846 Y155.816 E.01327
;WIDTH:0.53001
G1 F7200
G1 X165.88 Y155.816 E.07565
;WIDTH:0.578054
G1 F6727.287
G1 X165.334 Y155.757 E.02319
G1 X165.254 Y155.719 E.00374
G1 X164.94 Y155.797 E.01367
;WIDTH:0.545516
G1 F7162.81
G1 X164.629 Y155.816 E.0124
;WIDTH:0.53037
G1 F7200
G1 X158.361 Y155.816 E.24135
;WIDTH:0.574911
G1 F6767.032
G1 X157.992 Y155.762 E.01565
;WIDTH:0.619452
G1 F6244.233
G1 X157.624 Y155.707 E.01696
G1 X157.547 Y155.664 E.004
G1 X157.191 Y155.717 E.01642
;WIDTH:0.592007
G1 F6556.344
G1 X156.834 Y155.769 E.01563
;WIDTH:0.564561
G1 F6901.298
G1 X156.472 Y155.807 E.01499
;WIDTH:0.538968
G1 F7200
G1 X156.11 Y155.844 E.01425
;WIDTH:0.513375
G1 X155.962 Y155.854 E.00552
;WIDTH:0.505374
G1 X154.655 Y155.907 E.04777
;WIDTH:0.495
G1 X153.5 Y155.87 E.04128
;WIDTH:0.522884
G1 X153.137 Y155.83 E.01385
;WIDTH:0.550768
G1 F7088.735
G1 X152.774 Y155.79 E.01466
;WIDTH:0.60039
G1 F6457.751
G1 X152.415 Y155.718 E.01612
;WIDTH:0.650012
G1 F5929.915
G1 X152.056 Y155.647 E.01756
;WIDTH:0.699633
G1 F5481.847
G1 X151.697 Y155.575 E.01899
;WIDTH:0.72734
G1 F5259.928
G1 X151.383 Y155.471 E.01785
G1 X151.239 Y155.582 E.00985
G1 X151.065 Y155.64 E.00989
;WIDTH:0.678191
G1 F5666.876
G1 X150.892 Y155.698 E.00918
;WIDTH:0.629042
G1 F6142.073
G1 X150.718 Y155.756 E.00847
;WIDTH:0.579892
G1 F6704.26
G1 X150.166 Y155.817 E.02354
;WIDTH:0.530763
G1 F7200
G1 X148.173 Y155.817 E.07683
;WIDTH:0.559999
G1 F6962.186
G1 X147.555 Y155.722 E.02554
G1 X147.039 Y155.432 E.02418
G1 X146.678 Y155.042 E.02171
G1 X146.455 Y154.591 E.02053
G1 X146.16 Y153.723 E.03744
G1 X145.871 Y153.723 E.0118
G1 X145.578 Y154.603 E.03786
G1 X145.359 Y155.042 E.02004
G1 X144.998 Y155.432 E.02171
G1 X144.482 Y155.722 E.02417
;WIDTH:0.55885
G1 F6977.691
G1 X144.176 Y155.797 E.01285
;WIDTH:0.546516
G1 F7148.587
G1 X143.864 Y155.817 E.01242
;WIDTH:0.531158
G1 F7200
G1 X141.92 Y155.817 E.075
;WIDTH:0.559999
G1 F6962.186
G1 X141.221 Y155.691 E.029
G1 X140.668 Y155.328 E.02701
G1 X140.32 Y154.867 E.0236
G1 X140.17 Y154.484 E.01681
G1 X140.11 Y154.021 E.01905
G1 X140.137 Y153.712 E.01271
G1 X140.365 Y153.01 E.03014
G1 X139.575 Y153.146 E.03274
G1 X138.854 Y153.209 E.02954
G1 E-.56 F1800
;WIPE_START
G1 F6962.186
G1 X138.814 Y154.021 E-.19515
G1 X138.79 Y154.207 E-.04485
;WIPE_END
G1 E0 F1800
G1 Z.6 F18000
G1 X133.833 Y154.44 Z.6
G1 Z.2
G1 E.8 F1800
G1 F6962.186
G1 X133.356 Y154.797 E.02433
G1 X132.769 Y155.06 E.02626
G1 X131.945 Y155.291 E.03499
G1 X131.122 Y155.401 E.03391
G1 X130.223 Y155.437 E.03675
G1 X128.935 Y155.387 E.05266
G1 X127.187 Y155.206 E.07176
G1 X126.731 Y155.071 E.01943
G1 X126.382 Y154.808 E.01786
G1 X126.163 Y154.494 E.01561
G1 X126.057 Y154.188 E.01321
G1 X126.029 Y153.921 E.01099
G1 X126.029 Y152.41 E.06172
G1 X126.108 Y151.965 E.01845
G1 X126.306 Y151.61 E.01659
G1 X126.638 Y151.313 E.01819
G1 X127.072 Y151.143 E.01905
G1 X126.711 Y150.77 E.02122
G1 X126.398 Y150.295 E.02325
G1 X126.103 Y149.555 E.03252
G1 X125.909 Y148.825 E.03087
G1 X125.869 Y148.505 E.01316
G1 X125.869 Y147.909 E.02434
G1 X126.024 Y146.95 E.03968
G1 X126.186 Y146.52 E.01876
G1 X126.42 Y146.128 E.01868
G1 X126.693 Y145.805 E.01724
G1 X127.212 Y145.365 E.02778
G1 X127.647 Y145.122 E.02038
G1 X128.789 Y144.749 E.04907
G1 X129.714 Y144.601 E.03824
G1 X130.573 Y144.566 E.03513
