; HEADER_BLOCK_START
; generated by OrcaSlicer 1.7.0 on 2024-02-08 at 18:24:45
; total layer number: 200
; HEADER_BLOCK_END

; THUMBNAIL_BLOCK_START
; THUMBNAIL_BLOCK_END

; external perimeters extrusion width = 0.42mm
; perimeters extrusion width = 0.45mm
; infill extrusion width = 0.50mm
; solid infill extrusion width = 0.40mm
; top infill extrusion width = 0.42mm
; first layer extrusion width = 0.50mm

; EXECUTABLE_BLOCK_START
EXCLUDE_OBJECT_DEFINE NAME=spool_holder.step_id_0_copy_0 CENTER=150,150 POLYGON=[[133.562,130.4],[133.564,130.363],[133.569,130.326],[133.588,130.26],[133.618,130.197],[133.658,130.141],[133.707,130.092],[133.764,130.053],[133.827,130.024],[133.894,130.006],[133.963,130],[166.037,130],[166.1,130.005],[166.161,130.02],[166.219,130.044],[166.273,130.076],[166.32,130.117],[166.361,130.165],[166.394,130.218],[166.418,130.276],[166.433,130.337],[166.438,130.4],[166.438,169.6],[166.433,169.663],[166.418,169.724],[166.394,169.782],[166.361,169.835],[166.32,169.883],[166.273,169.924],[166.219,169.956],[166.161,169.98],[166.1,169.995],[166.037,170],[133.963,170],[133.926,169.998],[133.889,169.993],[133.822,169.975],[133.76,169.945],[133.703,169.905],[133.655,169.855],[133.615,169.799],[133.586,169.736],[133.568,169.669],[133.562,169.6],[133.562,130.4]]
M73 P0 R44
;TYPE:Custom
M104 S0 ; Stops SuperSlicer from sending temp waits separately
M140 S0
print_start EXTRUDER=260 BED=105 CHAMBER=0 
G90
G21
M83 ; use relative distances for extrusion
; Filament gcode
SET_PRESSURE_ADVANCE ADVANCE=0.025; Override pressure advance value
M106 S0
;LAYER_CHANGE
;Z:0.2
;HEIGHT:0.2
;BEFORE_LAYER_CHANGE
;0.2
G92 E0

G1 E-.8 F1800
;AFTER_LAYER_CHANGE
;0.2
;_SET_FAN_SPEED_CHANGING_LAYER
SET_VELOCITY_LIMIT ACCEL=500
G1 Z.4 F18000
G1 X129.692 Y126.122
G1 Z.4
G1 Z.2
G1 E.8 F1800
;TYPE:Skirt
;WIDTH:0.5
G1 F7200
G1 X130.23 Y125.584 E.02747
G1 X130.872 Y125.091 E.02922
G1 X131.531 Y124.711 E.02747
G1 X132.278 Y124.401 E.02922
G1 X133.013 Y124.205 E.02747
G1 X133.815 Y124.099 E.02922
G1 X166.419 Y123.911 E1.17718
G1 X167.221 Y124.017 E.02922
G1 X167.956 Y124.214 E.02747
G1 X168.703 Y124.523 E.02922
G1 X169.362 Y124.904 E.02747
G1 X170.004 Y125.396 E.02922
G1 X170.542 Y125.934 E.02747
G1 X171.034 Y126.576 E.02922
G1 X171.415 Y127.235 E.02747
G1 X171.724 Y127.983 E.02922
G1 X171.921 Y128.717 E.02747
G1 X172.027 Y129.52 E.02922
G1 X172.451 Y169.871 E1.45701
G1 X172.32 Y171.083 E.044
G1 X172.123 Y171.817 E.02747
G1 X171.814 Y172.565 E.02922
G1 X171.433 Y173.224 E.02747
G1 X170.941 Y173.866 E.02922
G1 X170.403 Y174.404 E.02747
G1 X169.761 Y174.896 E.02922
G1 X169.102 Y175.277 E.02747
G1 X168.355 Y175.586 E.02922
G1 X167.62 Y175.783 E.02747
G1 X166.445 Y175.914 E.04267
G1 X134.282 Y176.004 E1.1613
G1 X133.091 Y175.873 E.04325
G1 X132.356 Y175.676 E.02747
G1 X131.609 Y175.367 E.02922
G1 X130.95 Y174.986 E.02747
G1 X130.308 Y174.494 E.02922
G1 X129.77 Y173.956 E.02747
G1 X129.277 Y173.314 E.02922
G1 X128.897 Y172.655 E.02747
G1 X128.587 Y171.907 E.02922
G1 X128.39 Y171.173 E.02747
G1 X128.26 Y170.033 E.04141
G1 X128.119 Y160.456 E.34583
G1 X128.088 Y139.521 E.75588
G1 X128.182 Y130.058 E.34167
G1 X128.313 Y128.905 E.04191
G1 X128.51 Y128.17 E.02747
G1 X128.819 Y127.423 E.02922
G1 X129.2 Y126.764 E.02747
G1 X129.668 Y126.154 E.02777
G1 X130.047 Y126.481 F18000
G1 F7200
G1 X130.508 Y125.947 E.02549
G1 X131.706 Y125.133 E.05226
G1 X132.453 Y124.824 E.02922
G1 X133.875 Y124.552 E.05226
G1 X166.359 Y124.364 E1.17288
G1 X167.781 Y124.636 E.05226
G1 X168.528 Y124.946 E.02922
G1 X169.726 Y125.759 E.05226
G1 X170.672 Y126.854 E.05226
G1 X170.992 Y127.41 E.02316
G1 X171.302 Y128.158 E.02922
G1 X171.574 Y129.579 E.05226
G1 X171.994 Y169.876 E1.45501
G1 X171.867 Y171.023 E.04168
G1 X171.701 Y171.643 E.02316
G1 X171.071 Y172.946 E.05226
G1 X170.125 Y174.041 E.05226
G1 X168.927 Y174.854 E.05226
G1 X167.56 Y175.33 E.05226
G1 X166.444 Y175.457 E.04056
G1 X134.281 Y175.547 E1.1613
G1 X133.151 Y175.42 E.04105
G1 X132.531 Y175.254 E.02316
G1 X131.228 Y174.624 E.05226
G1 X130.133 Y173.678 E.05226
G1 X129.319 Y172.48 E.05226
G1 X128.844 Y171.113 E.05226
G1 X128.717 Y170.026 E.0395
G1 X128.576 Y160.455 E.34561
G1 X128.545 Y139.52 E.75588
G1 X128.639 Y130.063 E.34148
G1 X128.766 Y128.965 E.03992
G1 X128.932 Y128.345 E.02316
G1 X129.562 Y127.042 E.05226
G1 X130.021 Y126.511 E.02533
; printing object spool_holder.step id:0 copy 0
G1 E-.56 F1800
;WIPE_START
G1 F7200
G1 X130.508 Y125.947 E-.17906
G1 X130.718 Y125.804 E-.06094
;WIPE_END
EXCLUDE_OBJECT_START NAME=spool_holder.step_id_0_copy_0
G1 Z.6 F18000
G1 X166.766 Y167.074 Z.6
G1 Z.2
G1 E.8 F1800
;TYPE:Brim
G1 F7200
G1 X167.18 Y167.129 E.01507
G1 X167.872 Y167.415 E.02704
G1 X168.466 Y167.871 E.02704
G1 X168.922 Y168.466 E.02704
G1 X169.208 Y169.157 E.02704
G1 X169.306 Y169.9 E.02704
G1 X169.208 Y170.643 E.02704
G1 X168.922 Y171.335 E.02704
G1 X168.466 Y171.929 E.02704
G1 X167.872 Y172.385 E.02704
G1 X167.18 Y172.671 E.02704
G1 X166.437 Y172.769 E.02704
G1 X165.695 Y172.671 E.02704
G1 X165.003 Y172.385 E.02704
G1 X164.408 Y171.929 E.02704
G1 X163.952 Y171.335 E.02704
G1 X163.666 Y170.643 E.02704
G1 X163.625 Y170.329 E.01144
G1 X166.038 Y170.329 E.08712
G1 X166.306 Y170.275 E.0099
G1 X166.499 Y170.161 E.00808
G1 X166.599 Y170.062 E.00509
G1 X166.681 Y169.939 E.00533
G1 X166.766 Y169.608 E.01235
G1 X166.766 Y167.114 E.09003
G1 X167.271 Y167.743 F18000
G1 F7200
G1 X167.413 Y167.72 E.00519
G1 X167.624 Y167.808 E.00828
G1 X168.151 Y168.212 E.02396
G1 X168.529 Y168.713 E.02268
G1 X168.756 Y169.26 E.02139
G1 X168.843 Y169.918 E.02396
G1 X168.765 Y170.505 E.02139
G1 X168.529 Y171.087 E.02268
G1 X168.126 Y171.614 E.02396
G1 X167.624 Y171.992 E.02268
G1 X167.077 Y172.219 E.02139
G1 X166.419 Y172.306 E.02396
G1 X165.832 Y172.228 E.02139
G1 X165.25 Y171.992 E.02268
G1 X164.723 Y171.588 E.02396
G1 X164.363 Y171.118 E.02139
G1 X164.298 Y170.975 E.00567
G1 X164.303 Y170.861 E.00413
G1 X164.424 Y170.786 E.00516
G1 X166.14 Y170.774 E.06195
G1 X166.385 Y170.725 E.00901
G1 X166.545 Y170.664 E.00619
G1 X166.83 Y170.476 E.01232
G1 X167.054 Y170.204 E.01272
G1 X167.127 Y170.041 E.00647
G1 X167.206 Y169.729 E.01161
G1 X167.223 Y169.599 E.00473
G1 X167.223 Y167.847 E.06328
G1 X167.254 Y167.779 E.00269
G1 X167.728 Y168.652 F18000
G1 F7200
G1 X167.838 Y168.62 E.00413
G1 X167.927 Y168.673 E.00373
G1 X168.136 Y168.958 E.01277
G1 X168.304 Y169.363 E.01583
G1 X168.379 Y169.936 E.02087
G1 X168.313 Y170.404 E.01707
G1 X168.136 Y170.841 E.01703
G1 X167.812 Y171.272 E.01946
G1 X167.379 Y171.599 E.01959
G1 X166.94 Y171.776 E.01711
G1 X166.437 Y171.842 E.01831
G1 X165.933 Y171.776 E.01835
G1 X165.496 Y171.599 E.01703
G1 X165.336 Y171.482 E.00718
G1 X165.282 Y171.381 E.00413
G1 X165.324 Y171.274 E.00413
G1 X165.418 Y171.236 E.00367
G1 X166.132 Y171.231 E.02578
G1 X166.464 Y171.175 E.01216
G1 X166.808 Y171.038 E.01338
G1 X167.073 Y170.863 E.01144
G1 X167.189 Y170.759 E.00565
G1 X167.401 Y170.502 E.01202
G1 X167.473 Y170.385 E.00499
G1 X167.572 Y170.145 E.00937
G1 X167.647 Y169.851 E.01096
G1 X167.68 Y169.591 E.00945
G1 X167.68 Y168.756 E.03016
G1 X167.711 Y168.688 E.00269
G1 E-.56 F1800
;WIPE_START
G1 F7200
G1 X167.838 Y168.62 E-.03449
G1 X167.927 Y168.673 E-.02482
G1 X168.136 Y168.958 E-.08491
G1 X168.289 Y169.327 E-.09578
;WIPE_END
G1 Z.6 F18000
G1 X137.098 Y170.328 Z.6
G1 Z.2
G1 E.8 F1800
G1 F7200
G1 X137.045 Y170.733 E.01474
G1 X136.758 Y171.425 E.02704
G1 X136.302 Y172.019 E.02704
G1 X135.708 Y172.475 E.02704
G1 X135.016 Y172.761 E.02704
G1 X134.274 Y172.859 E.02704
G1 X133.531 Y172.761 E.02704
G1 X132.839 Y172.475 E.02704
G1 X132.245 Y172.019 E.02704
G1 X131.789 Y171.425 E.02704
G1 X131.502 Y170.733 E.02704
G1 X131.405 Y169.99 E.02704
G1 X131.502 Y169.248 E.02704
G1 X131.789 Y168.556 E.02704
G1 X132.245 Y167.961 E.02704
G1 X132.839 Y167.505 E.02704
G1 X133.531 Y167.219 E.02704
G1 X133.857 Y167.176 E.01188
G1 X133.857 Y169.6 E.08753
G1 X133.897 Y169.827 E.00831
G1 X134.016 Y170.05 E.00914
G1 X134.203 Y170.216 E.00903
G1 X134.435 Y170.31 E.00903
G1 X137.058 Y170.328 E.09473
G1 X136.43 Y170.828 F18000
G1 F7200
G1 X136.452 Y170.969 E.00516
G1 X136.366 Y171.177 E.00813
G1 X135.987 Y171.678 E.02268
G1 X135.461 Y172.082 E.02396
G1 X134.879 Y172.318 E.02268
G1 X134.292 Y172.396 E.02139
G1 X133.634 Y172.309 E.02396
G1 X133.086 Y172.082 E.02139
G1 X132.585 Y171.704 E.02268
G1 X132.181 Y171.177 E.02396
G1 X131.945 Y170.595 E.02268
G1 X131.868 Y170.008 E.02139
G1 X131.955 Y169.35 E.02396
G1 X132.199 Y168.772 E.02268
G1 X132.56 Y168.302 E.02139
G1 X133.055 Y167.916 E.02268
G1 X133.211 Y167.846 E.00615
G1 X133.325 Y167.851 E.00413
G1 X133.4 Y167.973 E.00519
G1 X133.4 Y169.59 E.05839
G1 X133.445 Y169.896 E.01116
G1 X133.499 Y170.052 E.00597
G1 X133.608 Y170.255 E.00831
G1 X133.721 Y170.399 E.0066
G1 X133.889 Y170.549 E.00817
G1 X134.043 Y170.645 E.00653
G1 X134.252 Y170.729 E.00813
G1 X134.445 Y170.767 E.00709
G1 X136.326 Y170.78 E.06795
G1 X136.394 Y170.811 E.00269
G1 X135.521 Y171.28 F18000
G1 F7200
G1 X135.551 Y171.391 E.00413
G1 X135.5 Y171.477 E.00362
G1 X135.215 Y171.689 E.01283
G1 X134.778 Y171.866 E.01703
G1 X134.274 Y171.932 E.01835
G1 X133.771 Y171.866 E.01831
G1 X133.331 Y171.689 E.01711
G1 X132.899 Y171.362 E.01959
G1 X132.575 Y170.931 E.01946
G1 X132.389 Y170.46 E.01827
G1 X132.331 Y169.99 E.01711
G1 X132.397 Y169.49 E.01823
G1 X132.591 Y169.02 E.01834
G1 X132.697 Y168.873 E.00654
G1 X132.798 Y168.82 E.00413
G1 X132.905 Y168.862 E.00413
G1 X132.943 Y168.957 E.0037
G1 X132.943 Y169.581 E.02254
G1 X132.991 Y169.951 E.01346
G1 X133.101 Y170.278 E.01246
G1 X133.2 Y170.462 E.00754
G1 X133.356 Y170.673 E.00947
G1 X133.656 Y170.942 E.01458
G1 X133.881 Y171.072 E.00937
G1 X134.071 Y171.149 E.0074
G1 X134.346 Y171.213 E.0102
G1 X135.418 Y171.231 E.03871
G1 X135.485 Y171.263 E.00269
G1 E-.56 F1800
;WIPE_START
G1 F7200
G1 X135.551 Y171.391 E-.03449
G1 X135.5 Y171.477 E-.02409
G1 X135.215 Y171.689 E-.08528
G1 X134.843 Y171.84 E-.09613
;WIPE_END
G1 Z.6 F18000
G1 X133.857 Y163.284 Z.6
G1 Z.2
G1 E.8 F1800
G1 F7200
G1 X133.39 Y163.223 E.01701
G1 X132.698 Y162.936 E.02704
G1 X132.104 Y162.48 E.02704
G1 X131.648 Y161.886 E.02704
G1 X131.362 Y161.194 E.02704
G1 X131.264 Y160.451 E.02704
G1 X131.362 Y159.709 E.02704
G1 X131.648 Y159.017 E.02704
G1 X132.104 Y158.423 E.02704
G1 X132.698 Y157.967 E.02704
G1 X133.39 Y157.68 E.02704
G1 X134.133 Y157.582 E.02704
G1 X134.875 Y157.68 E.02704
G1 X135.567 Y157.967 E.02704
G1 X136.162 Y158.423 E.02704
G1 X136.617 Y159.017 E.02704
G1 X136.904 Y159.709 E.02704
G1 X137.002 Y160.451 E.02704
G1 X136.995 Y160.505 E.00195
G1 X136.921 Y160.372 E.00551
G1 X136.829 Y160.281 E.00465
G1 X136.746 Y160.236 E.00342
G1 X136.638 Y160.209 E.00403
G1 X134.186 Y160.208 E.08852
G1 X134.07 Y160.232 E.00429
G1 X133.933 Y160.341 E.00632
G1 X133.886 Y160.426 E.0035
G1 X133.857 Y160.536 E.00413
G1 X133.857 Y163.244 E.09778
G1 X133.353 Y162.631 F18000
G1 F7200
G1 X133.211 Y162.654 E.00519
G1 X132.914 Y162.526 E.01165
G1 X132.444 Y162.165 E.02139
G1 X132.04 Y161.639 E.02396
G1 X131.804 Y161.057 E.02268
G1 X131.727 Y160.469 E.02139
G1 X131.814 Y159.812 E.02396
G1 X132.058 Y159.233 E.02268
G1 X132.419 Y158.763 E.02139
G1 X132.945 Y158.359 E.02396
G1 X133.527 Y158.123 E.02268
G1 X134.115 Y158.046 E.02139
G1 X134.738 Y158.123 E.02268
G1 X135.32 Y158.359 E.02268
G1 X135.821 Y158.738 E.02268
G1 X136.225 Y159.264 E.02396
G1 X136.348 Y159.562 E.01163
G1 X136.344 Y159.676 E.00413
G1 X136.222 Y159.751 E.00519
G1 X134.197 Y159.751 E.07311
G1 X133.989 Y159.783 E.00758
G1 X133.772 Y159.884 E.00865
G1 X133.659 Y159.975 E.00525
G1 X133.49 Y160.197 E.01005
G1 X133.443 Y160.315 E.0046
G1 X133.4 Y160.549 E.00857
G1 X133.4 Y162.527 E.07143
G1 X133.369 Y162.595 E.00269
G1 X132.896 Y161.764 F18000
G1 F7200
G1 X132.786 Y161.796 E.00413
G1 X132.697 Y161.744 E.0037
G1 X132.452 Y161.424 E.01454
G1 X132.248 Y160.922 E.01959
G1 X132.191 Y160.451 E.01711
G1 X132.256 Y159.951 E.01823
G1 X132.45 Y159.481 E.01834
G1 X132.759 Y159.078 E.01835
G1 X133.192 Y158.753 E.01954
G1 X133.629 Y158.575 E.01703
G1 X134.099 Y158.509 E.01715
G1 X134.604 Y158.567 E.01835
G1 X135.076 Y158.753 E.01831
G1 X135.473 Y159.047 E.01784
G1 X135.527 Y159.148 E.00413
G1 X135.486 Y159.255 E.00413
G1 X135.39 Y159.294 E.00374
G1 X134.206 Y159.294 E.04276
G1 X133.928 Y159.33 E.01012
G1 X133.786 Y159.373 E.00535
G1 X133.589 Y159.465 E.00786
G1 X133.382 Y159.612 E.00914
G1 X133.13 Y159.915 E.01425
G1 X133.064 Y160.033 E.00489
G1 X132.992 Y160.241 E.00794
G1 X132.943 Y160.559 E.01162
G1 X132.943 Y161.661 E.03977
G1 X132.912 Y161.728 E.00269
G1 E-.56 F1800
;WIPE_START
G1 F7200
G1 X132.786 Y161.796 E-.03449
G1 X132.697 Y161.744 E-.02459
G1 X132.452 Y161.424 E-.09667
G1 X132.32 Y161.099 E-.08424
;WIPE_END
G1 Z.6 F18000
G1 X134.101 Y142.386 Z.6
G1 Z.2
G1 E.8 F1800
G1 F7200
G1 X133.359 Y142.288 E.02704
G1 X132.667 Y142.001 E.02704
G1 X132.073 Y141.545 E.02704
G1 X131.617 Y140.951 E.02704
G1 X131.33 Y140.259 E.02704
G1 X131.232 Y139.517 E.02704
G1 X131.33 Y138.774 E.02704
G1 X131.617 Y138.082 E.02704
G1 X132.073 Y137.488 E.02704
G1 X132.667 Y137.032 E.02704
G1 X133.359 Y136.745 E.02704
G1 X133.857 Y136.68 E.01816
G1 X133.857 Y139.463 E.10051
G1 X133.882 Y139.58 E.00429
G1 X133.991 Y139.716 E.00632
G1 X134.075 Y139.763 E.0035
G1 X134.186 Y139.792 E.00413
G1 X136.638 Y139.791 E.08852
G1 X136.746 Y139.764 E.00403
G1 X136.829 Y139.719 E.00342
G1 X136.92 Y139.631 E.00456
G1 X136.966 Y139.549 E.00338
G1 X136.873 Y140.259 E.02585
G1 X136.586 Y140.951 E.02704
G1 X136.13 Y141.545 E.02704
G1 X135.536 Y142.001 E.02704
G1 X134.844 Y142.288 E.02704
G1 X134.141 Y142.38 E.0256
G1 X134.083 Y141.922 F18000
G1 F7200
G1 X133.496 Y141.845 E.02139
G1 X132.914 Y141.609 E.02268
G1 X132.388 Y141.205 E.02396
G1 X132.009 Y140.704 E.02268
G1 X131.782 Y140.156 E.02139
G1 X131.696 Y139.499 E.02396
G1 X131.773 Y138.911 E.02139
G1 X132.009 Y138.329 E.02268
G1 X132.413 Y137.803 E.02396
G1 X132.914 Y137.424 E.02268
G1 X133.211 Y137.301 E.0116
G1 X133.325 Y137.306 E.00413
G1 X133.4 Y137.428 E.00519
G1 X133.4 Y139.453 E.07311
G1 X133.432 Y139.66 E.00758
G1 X133.534 Y139.877 E.00865
G1 X133.625 Y139.991 E.00525
G1 X133.777 Y140.12 E.0072
G1 X133.968 Y140.207 E.00759
G1 X134.199 Y140.249 E.00845
G1 X136.177 Y140.248 E.07143
G1 X136.281 Y140.296 E.00413
G1 X136.304 Y140.438 E.00519
G1 X136.194 Y140.704 E.01039
G1 X135.79 Y141.23 E.02396
G1 X135.289 Y141.609 E.02268
G1 X134.741 Y141.836 E.02139
G1 X134.123 Y141.917 E.02251
G1 X134.065 Y141.459 F18000
G1 F7200
G1 X133.597 Y141.393 E.01707
G1 X133.16 Y141.215 E.01703
G1 X132.704 Y140.865 E.02078
G1 X132.419 Y140.489 E.01703
G1 X132.234 Y140.054 E.01707
G1 X132.159 Y139.481 E.02087
G1 X132.225 Y139.013 E.01707
G1 X132.402 Y138.576 E.01703
G1 X132.697 Y138.183 E.01773
G1 X132.798 Y138.129 E.00413
G1 X132.905 Y138.171 E.00413
G1 X132.943 Y138.266 E.0037
G1 X132.943 Y139.444 E.04252
G1 X132.98 Y139.722 E.01012
G1 X133.023 Y139.863 E.00534
G1 X133.117 Y140.064 E.00801
G1 X133.18 Y140.166 E.00432
G1 X133.335 Y140.344 E.00851
G1 X133.598 Y140.539 E.01183
G1 X133.9 Y140.659 E.01172
G1 X134.105 Y140.696 E.00753
G1 X135.318 Y140.706 E.0438
G1 X135.421 Y140.754 E.00413
G1 X135.452 Y140.864 E.00413
G1 X135.399 Y140.952 E.0037
G1 X135.043 Y141.216 E.01598
G1 X134.639 Y141.383 E.01583
G1 X134.105 Y141.454 E.01943
G1 E-.56 F1800
;WIPE_START
G1 F7200
G1 X133.597 Y141.393 E-.12275
G1 X133.16 Y141.215 E-.11318
G1 X133.147 Y141.205 E-.00407
;WIPE_END
G1 Z.6 F18000
G1 X133.857 Y132.912 Z.6
G1 Z.2
G1 E.8 F1800
G1 F7200
G1 X133.453 Y132.859 E.01472
G1 X132.761 Y132.572 E.02704
G1 X132.167 Y132.116 E.02704
G1 X131.711 Y131.522 E.02704
G1 X131.425 Y130.83 E.02704
G1 X131.327 Y130.088 E.02704
G1 X131.425 Y129.345 E.02704
G1 X131.711 Y128.653 E.02704
G1 X132.167 Y128.059 E.02704
G1 X132.761 Y127.603 E.02704
G1 X133.453 Y127.316 E.02704
G1 X134.196 Y127.219 E.02704
G1 X134.938 Y127.316 E.02704
G1 X135.63 Y127.603 E.02704
G1 X136.225 Y128.059 E.02704
G1 X136.681 Y128.653 E.02704
G1 X136.967 Y129.345 E.02704
G1 X137.01 Y129.671 E.01188
G1 X134.586 Y129.671 E.08753
G1 X134.306 Y129.73 E.01032
