; HEADER_BLOCK_START
; generated by OrcaSlicer 1.7.0 on 2024-02-08 at 15:43:37
; total layer number: 86
; HEADER_BLOCK_END

; THUMBNAIL_BLOCK_START
; THUMBNAIL_BLOCK_END

; external perimeters extrusion width = 0.40mm
; perimeters extrusion width = 0.40mm
; infill extrusion width = 0.45mm
; solid infill extrusion width = 0.40mm
; top infill extrusion width = 0.40mm
; first layer extrusion width = 0.56mm

; external perimeters extrusion width = 0.40mm
; perimeters extrusion width = 0.40mm
; infill extrusion width = 0.45mm
; solid infill extrusion width = 0.40mm
; top infill extrusion width = 0.40mm
; first layer extrusion width = 0.56mm

; EXECUTABLE_BLOCK_START
EXCLUDE_OBJECT_DEFINE NAME=Spool_holder_regular_spool.stl_id_0_copy_0 CENTER=150,171.05 POLYGON=[[95.5,160.355],[95.5152,160.176],[95.5603,160.008],[95.634,159.85],[95.734,159.707],[95.8572,159.584],[96,159.484],[96.158,159.41],[96.3264,159.365],[115.5,156.35],[203.5,156.35],[203.674,156.37],[203.842,156.415],[204,156.489],[204.143,156.589],[204.266,156.712],[204.366,156.855],[204.44,157.013],[204.485,157.181],[204.5,157.355],[204.5,184.745],[204.485,184.919],[204.44,185.087],[204.366,185.245],[204.266,185.388],[204.143,185.511],[204,185.611],[203.842,185.685],[203.674,185.73],[203.5,185.75],[115.5,185.75],[96.1903,167.892],[95.9885,167.691],[95.8175,167.462],[95.6807,167.212],[95.581,166.944],[95.5204,166.666],[95.5,166.381],[95.5,160.355]]
EXCLUDE_OBJECT_DEFINE NAME=Adjustable_spool_holder_Base.stl_id_1_copy_0 CENTER=147.112,134.3 POLYGON=[[136.112,114.65],[136.512,114.25],[139.162,114.25],[142.562,114.25],[157.112,114.25],[157.243,114.259],[157.371,114.284],[157.495,114.326],[157.612,114.384],[157.721,114.457],[157.819,114.543],[157.905,114.641],[157.978,114.75],[158.036,114.867],[158.078,114.991],[158.104,115.119],[158.112,115.251],[158.112,152.35],[158.106,152.51],[158.102,152.546],[158.086,152.67],[158.074,152.74],[158.054,152.828],[158.052,152.836],[158.026,152.93],[158.009,152.982],[157.995,153.023],[157.96,153.115],[157.953,153.132],[157.92,153.205],[157.884,153.278],[157.876,153.292],[157.828,153.378],[157.803,153.417],[157.775,153.461],[157.719,153.541],[157.712,153.55],[157.658,153.618],[157.594,153.693],[157.592,153.695],[157.526,153.764],[157.458,153.829],[157.455,153.832],[157.381,153.896],[157.312,153.95],[157.303,153.956],[157.223,154.013],[157.18,154.041],[157.14,154.065],[157.055,154.113],[157.04,154.121],[156.967,154.158],[156.895,154.19],[156.877,154.197],[156.786,154.233],[156.745,154.247],[156.693,154.264],[156.598,154.29],[156.59,154.292],[156.502,154.311],[156.432,154.324],[156.406,154.328],[156.308,154.34],[156.273,154.343],[156.21,154.347],[156.112,154.35],[150.612,154.35],[138.474,148.6],[138.074,148.2],[136.112,134.2],[136.112,114.65]]
M73 P0 R61
;TYPE:Custom
M104 S0 ; Stops SuperSlicer from sending temp waits separately
M140 S0
print_start EXTRUDER=260 BED=105 CHAMBER=0 
G90
G21
M83 ; use relative distances for extrusion
; Filament gcode
SET_PRESSURE_ADVANCE ADVANCE=0.025; Override pressure advance value
M106 S0
;LAYER_CHANGE
;Z:0.2
;HEIGHT:0.2
;BEFORE_LAYER_CHANGE
;0.2
G92 E0

G1 E-.8 F1800
;AFTER_LAYER_CHANGE
;0.2
;_SET_FAN_SPEED_CHANGING_LAYER
SET_VELOCITY_LIMIT ACCEL=500
G1 Z.4 F18000
G1 X128.356 Y117.914
M73 P0 R60
G1 Z.4
G1 Z.2
G1 E.8 F1800
;TYPE:Skirt
;WIDTH:0.56
G1 F6962.177
G1 X132.808 Y113.068 E.26878
G1 X134.424 Y111.896 E.08156
G1 X136.512 Y111.443 E.08727
G1 X146.812 Y111.443 E.42071
G1 X157.726 Y111.476 E.4458
G1 X158.917 Y111.731 E.04973
G1 X159.879 Y112.145 E.04277
G1 X160.39 Y112.456 E.02443
G1 X207.432 Y153.722 E2.556
G1 X208.19 Y154.538 E.04546
G1 X208.585 Y155.119 E.02871
G1 X209.06 Y156.114 E.04504
G1 X209.294 Y156.92 E.03426
G1 X209.418 Y157.802 E.03639
G1 X209.433 Y183.96 E1.06842
G1 X209.294 Y185.18 E.05015
G1 X208.878 Y186.419 E.05337
G1 X208.289 Y187.427 E.04771
G1 X207.342 Y188.456 E.05712
G1 X206.354 Y189.142 E.04914
G1 X205.695 Y189.455 E.02978
G1 X204.524 Y189.789 E.04975
G1 X203.5 Y189.88 E.04198
G1 X115.6 Y189.88 E3.59033
G1 X113.643 Y189.484 E.08156
G1 X112.274 Y188.624 E.06604
G1 X92.908 Y171.576 E1.05383
G1 X92.013 Y170.615 E.05365
G1 X91.388 Y169.648 E.04702
G1 X90.978 Y168.725 E.04128
G1 X90.706 Y167.751 E.04129
G1 X90.566 Y166.381 E.05625
G1 X90.567 Y161.265 E.20897
G1 X90.661 Y160.279 E.04046
G1 X91.087 Y158.881 E.05968
G1 X91.685 Y157.832 E.04932
G1 X128.329 Y117.944 E2.2124
G1 X128.709 Y118.293 F18000
G1 F6962.177
G1 X133.188 Y113.419 E.2704
G1 X134.731 Y112.326 E.07722
G1 X136.512 Y111.96 E.07428
G1 X146.812 Y111.96 E.42071
G1 X157.668 Y111.99 E.44342
G1 X158.759 Y112.224 E.04558
G1 X160.102 Y112.886 E.06112
G1 X207.091 Y154.111 E2.55326
G1 X207.777 Y154.849 E.04119
G1 X208.143 Y155.388 E.02657
G1 X208.605 Y156.377 E.04462
G1 X208.79 Y157.035 E.02791
G1 X208.917 Y158.207 E.04814
G1 X208.916 Y183.955 E1.0517
G1 X208.79 Y185.064 E.04559
G1 X208.412 Y186.196 E.04873
G1 X207.866 Y187.129 E.04416
G1 X207.002 Y188.066 E.05206
G1 X206.106 Y188.688 E.04454
G1 X205.499 Y188.976 E.02747
G1 X204.438 Y189.279 E.04505
G1 X203.5 Y189.363 E.03847
G1 X115.6 Y189.363 E3.59033
G1 X113.751 Y188.967 E.07722
G1 X112.615 Y188.236 E.05519
G1 X93.25 Y171.188 E1.05383
G1 X92.427 Y170.305 E.0493
G1 X91.839 Y169.395 E.04424
G1 X91.461 Y168.54 E.0382
G1 X91.211 Y167.639 E.03821
G1 X91.083 Y166.381 E.05164
G1 X91.102 Y160.896 E.22403
G1 X91.379 Y159.553 E.05603
G1 X91.775 Y158.656 E.04005
G1 X92.11 Y158.127 E.02557
G1 X128.682 Y118.323 E2.20789
; printing object Spool holder regular spool.stl id:0 copy 0
G1 E-.56 F1800
;WIPE_START
G1 F6962.177
G1 X129.359 Y117.586 E-.24
;WIPE_END
EXCLUDE_OBJECT_START NAME=Spool_holder_regular_spool.stl_id_0_copy_0
G1 Z.6 F18000
G1 X115.821 Y177.13 Z.6
G1 Z.2
G1 E.8 F1800
;TYPE:Outer wall
;WIDTH:0.559999
G1 F6962.186
G1 X116.01 Y177.049 E.00839
G1 X116.08 Y176.872 E.00778
G1 X116.078 Y170.346 E.26655
G1 X115.977 Y169.668 E.028
G1 X115.736 Y169.099 E.02523
G1 X115.279 Y168.515 E.03028
G1 X114.877 Y168.207 E.0207
G1 X114.475 Y167.994 E.01858
G1 X113.882 Y167.832 E.02509
G1 X113.501 Y167.801 E.01564
G1 X97.64 Y167.801 E.64783
G1 X97.074 Y167.732 E.02331
G1 X96.689 Y167.542 E.01751
G1 X96.339 Y167.191 E.02025
G1 X96.149 Y166.807 E.0175
G1 X96.08 Y166.36 E.01847
G1 X96.086 Y161.404 E.20245
G1 X96.153 Y161.15 E.01072
G1 X96.35 Y160.964 E.01108
G1 X96.529 Y160.925 E.0075
G1 X98.459 Y160.926 E.07884
G1 X98.698 Y160.992 E.01012
G1 X98.834 Y161.154 E.00865
G1 X98.916 Y161.368 E.00936
G1 X98.92 Y163.703 E.09537
G1 X98.994 Y163.883 E.00796
G1 X99.179 Y163.961 E.00819
G1 X113.501 Y163.961 E.585
G1 X114.213 Y163.858 E.02941
G1 X114.841 Y163.582 E.02803
G1 X115.371 Y163.153 E.02783
G1 X115.736 Y162.663 E.02495
G1 X116.005 Y161.959 E.03078
G1 X116.08 Y161.382 E.02378
G1 X116.08 Y157.796 E.14646
G1 X121.392 Y157.798 E.21699
G1 X121.733 Y157.884 E.01433
G1 X121.854 Y158.02 E.00744
G1 X121.92 Y158.301 E.01179
G1 X121.921 Y159.333 E.04218
G1 X121.983 Y159.881 E.02251
G1 X122.144 Y160.386 E.02166
G1 X122.392 Y160.837 E.02102
G1 X122.744 Y161.254 E.02226
G1 X123.342 Y161.689 E.03024
G1 X123.929 Y161.905 E.02555
G1 X124.5 Y161.977 E.02347
G1 X195.78 Y161.958 E2.91148
G1 X196.488 Y161.771 E.02993
G1 X196.937 Y161.518 E.02105
G1 X197.488 Y161 E.03087
G1 X197.876 Y160.337 E.03141
G1 X198.029 Y159.821 E.02196
G1 X198.079 Y159.333 E.02004
G1 X198.08 Y158.284 E.04285
G1 X198.16 Y158.018 E.01135
G1 X198.328 Y157.844 E.00989
G1 X198.531 Y157.796 E.00852
G1 X203.427 Y157.799 E.19998
G1 X203.732 Y157.882 E.01291
G1 X203.854 Y158.016 E.00737
G1 X203.92 Y158.334 E.01329
G1 X203.92 Y183.74 E1.03771
G1 X203.878 Y184.024 E.01174
G1 X203.754 Y184.203 E.00887
G1 X203.531 Y184.3 E.00995
G1 X198.605 Y184.304 E.20121
G1 X198.303 Y184.241 E.01259
G1 X198.149 Y184.064 E.0096
G1 X198.08 Y183.817 E.01049
G1 X198.06 Y182.483 E.0545
G1 X197.947 Y181.958 E.02193
G1 X197.738 Y181.477 E.02141
G1 X197.321 Y180.909 E.0288
G1 X196.928 Y180.573 E.0211
G1 X196.487 Y180.328 E.02061
G1 X195.715 Y180.134 E.03251
G1 X125.369 Y180.123 E2.87335
G1 X124.406 Y180.133 E.03932
G1 X123.822 Y180.225 E.02415
G1 X123.275 Y180.447 E.02412
G1 X122.79 Y180.8 E.02447
G1 X122.374 Y181.289 E.02624
G1 X122.137 Y181.727 E.02036
G1 X121.98 Y182.232 E.0216
G1 X121.921 Y182.767 E.02196
G1 X121.92 Y183.733 E.03946
G1 X121.85 Y184.08 E.01448
G1 X121.725 Y184.224 E.00781
G1 X121.485 Y184.304 E.01031
G1 X116.08 Y184.304 E.22077
G1 X116.08 Y180.382 E.16021
G1 X116.01 Y180.205 E.00778
G1 X115.821 Y180.123 E.00839
G1 X113.612 Y180.123 E.09023
G1 X113.366 Y180.076 E.01024
G1 X113.206 Y179.975 E.00773
G1 X113.081 Y179.633 E.01489
G1 X113.09 Y177.604 E.08285
G1 X113.14 Y177.342 E.0109
G1 X113.295 Y177.196 E.00873
G1 X113.524 Y177.13 E.00974
G1 X115.781 Y177.13 E.09219
G1 E-.56 F1800
;WIPE_START
G1 F6962.186
G1 X116.01 Y177.049 E-.05821
G1 X116.08 Y176.872 E-.04569
G1 X116.08 Y176.305 E-.1361
;WIPE_END
G1 Z.6 F18000
G1 X195.391 Y177.01 Z.6
G1 Z.2
G1 E.8 F1800
G1 F6962.186
G1 X195.338 Y177.029 E.00226
G1 X194.501 Y177.13 E.03447
G1 X180.499 Y177.13 E.57189
G1 X179.719 Y177.042 E.03209
G1 X178.949 Y176.775 E.0333
G1 X178.259 Y176.339 E.03329
G1 X177.687 Y175.759 E.03329
G1 X177.3 Y175.152 E.02943
G1 X177.021 Y174.389 E.03317
G1 X176.92 Y173.551 E.03448
G1 X176.92 Y168.549 E.2043
G1 X177.008 Y167.768 E.03209
G1 X177.276 Y166.998 E.03329
G1 X177.711 Y166.309 E.0333
G1 X178.216 Y165.795 E.02946
G1 X178.635 Y165.497 E.02099
G1 X179.273 Y165.188 E.02897
G1 X179.77 Y165.049 E.02105
G1 X180.499 Y164.97 E.02998
G1 X194.501 Y164.97 E.57189
G1 X195.281 Y165.058 E.03209
G1 X196.051 Y165.325 E.0333
G1 X196.666 Y165.702 E.02946
G1 X197.252 Y166.263 E.03312
G1 X197.724 Y166.998 E.03569
G1 X197.979 Y167.711 E.03091
G1 X198.08 Y168.549 E.03448
G1 X198.08 Y173.551 E.2043
G1 X197.992 Y174.331 E.03209
G1 X197.724 Y175.101 E.0333
G1 X197.347 Y175.716 E.02946
G1 X196.786 Y176.302 E.03312
G1 X196.051 Y176.774 E.03569
G1 X195.428 Y176.997 E.02702
G1 E-.56 F1800
;WIPE_START
G1 F6962.186
G1 X195.338 Y177.029 E-.02287
G1 X194.501 Y177.13 E-.20255
G1 X194.44 Y177.13 E-.01458
;WIPE_END
G1 Z.6 F18000
G1 X170.002 Y177.006 Z.6
G1 Z.2
G1 E.8 F1800
G1 F6962.186
G1 X169.938 Y177.029 E.00276
G1 X169.101 Y177.13 E.03447
G1 X155.099 Y177.13 E.57189
G1 X154.319 Y177.042 E.03209
G1 X153.496 Y176.748 E.03569
G1 X152.859 Y176.339 E.0309
G1 X152.287 Y175.759 E.03329
G1 X151.983 Y175.284 E.02305
G1 X151.876 Y175.101 E.00865
G1 X151.621 Y174.389 E.03091
G1 X151.52 Y173.551 E.03448
G1 X151.52 Y168.549 E.2043
G1 X151.608 Y167.768 E.03209
G1 X151.876 Y166.998 E.03329
G1 X152.105 Y166.592 E.01909
G1 X152.584 Y166.006 E.03089
G1 X153.226 Y165.503 E.03328
G1 X153.873 Y165.188 E.02944
G1 X154.37 Y165.049 E.02105
G1 X155.099 Y164.97 E.02998
G1 X169.101 Y164.97 E.57189
G1 X169.881 Y165.058 E.03209
G1 X170.651 Y165.325 E.0333
G1 X171.266 Y165.702 E.02946
G1 X171.852 Y166.263 E.03312
G1 X172.324 Y166.999 E.0357
G1 X172.579 Y167.711 E.03089
G1 X172.68 Y168.549 E.03448
G1 X172.68 Y173.551 E.2043
G1 X172.592 Y174.331 E.03209
G1 X172.324 Y175.101 E.0333
G1 X171.947 Y175.716 E.02946
G1 X171.386 Y176.302 E.03312
G1 X170.704 Y176.748 E.0333
G1 X170.039 Y176.992 E.02892
G1 E-.56 F1800
;WIPE_START
G1 F6962.186
G1 X169.938 Y177.029 E-.02579
G1 X169.101 Y177.13 E-.20255
G1 X169.052 Y177.13 E-.01166
;WIPE_END
G1 Z.6 F18000
G1 X145.187 Y176.694 Z.6
G1 Z.2
G1 E.8 F1800
G1 F6962.186
G1 X145.104 Y176.748 E.00404
G1 X144.339 Y177.029 E.0333
G1 X143.501 Y177.13 E.03448
G1 X127.499 Y177.13 E.65358
G1 X126.719 Y177.042 E.03209
G1 X125.949 Y176.774 E.0333
G1 X125.311 Y176.372 E.03081
G1 X124.772 Y175.86 E.03035
G1 X124.303 Y175.156 E.03458
G1 X124.021 Y174.389 E.03336
G1 X123.92 Y173.551 E.03448
G1 X123.92 Y168.549 E.2043
G1 X123.992 Y167.907 E.02638
G1 X124.085 Y167.533 E.01576
G1 X124.276 Y166.998 E.02317
G1 X124.505 Y166.592 E.01909
G1 X124.984 Y166.006 E.03089
G1 X125.672 Y165.475 E.0355
G1 X126.273 Y165.188 E.02722
G1 X126.77 Y165.049 E.02105
G1 X127.499 Y164.97 E.02998
G1 X143.501 Y164.97 E.65358
G1 X144.281 Y165.058 E.03209
G1 X145.051 Y165.325 E.0333
G1 X145.741 Y165.76 E.03329
G1 X146.254 Y166.266 E.02945
G1 X146.724 Y166.999 E.03555
G1 X146.979 Y167.711 E.03089
G1 X147.08 Y168.549 E.03448
G1 X147.08 Y173.551 E.2043
G1 X146.992 Y174.331 E.03209
G1 X146.724 Y175.101 E.0333
G1 X146.289 Y175.791 E.0333
G1 X145.784 Y176.305 E.02945
G1 X145.22 Y176.673 E.02747
G1 E-.56 F1800
;WIPE_START
G1 F6962.186
G1 X145.104 Y176.748 E-.03332
G1 X144.339 Y177.029 E-.19567
G1 X144.293 Y177.034 E-.01101
;WIPE_END
G1 Z.6 F18000
G1 X202.574 Y157.954 Z.6
G1 Z.2
G1 E.8 F1800
;TYPE:Bottom surface
;WIDTH:0.56052
G1 F6955.178
G1 X203.532 Y158.912 E.05541
G1 X203.532 Y159.644 E.02993
G1 X202.074 Y158.186 E.0843
G1 X201.342 Y158.186 E.02995
G1 X203.532 Y160.376 E.12666
G1 X203.532 Y161.108 E.02993
G1 X200.609 Y158.185 E.16901
G1 X199.877 Y158.184 E.02995
G1 X203.532 Y161.84 E.21137
G1 X203.532 Y162.572 E.02993
G1 X199.144 Y158.184 E.25373
G1 X198.603 Y158.184 E.02213
G1 X198.501 Y158.203 E.00425
G1 X198.477 Y158.249 E.00212
G1 X203.532 Y163.304 E.29229
G1 X203.532 Y164.036 E.02993
G1 X198.467 Y158.971 E.29285
G1 X198.467 Y159.34 E.01509
G1 X198.431 Y159.667 E.01344
G1 X203.532 Y164.768 E.29494
G1 X203.532 Y165.5 E.02993
G1 X198.301 Y160.269 E.30249
G1 X198.187 Y160.589 E.01389
G1 X198.075 Y160.775 E.00888
G1 X203.532 Y166.232 E.31553
G1 X203.532 Y166.964 E.02993
G1 X197.798 Y161.23 E.33158
G1 X197.709 Y161.338 E.00575
G1 X197.429 Y161.593 E.01546
G1 X203.532 Y167.696 E.35288
G1 X203.532 Y168.428 E.02993
G1 X197.024 Y161.92 E.37633
G1 X196.593 Y162.15 E.01996
G1 X196.536 Y162.164 E.00241
G1 X203.532 Y169.16 E.40453
G1 X203.532 Y169.892 E.02993
G1 X195.949 Y162.309 E.43846
G1 X195.777 Y162.352 E.00725
G1 X195.26 Y162.352 E.02114
G1 X203.532 Y170.624 E.47831
G1 X203.532 Y171.356 E.02993
G1 X194.528 Y162.352 E.52063
G1 X193.796 Y162.352 E.02992
G1 X203.532 Y172.088 E.56295
G1 X203.532 Y172.82 E.02993
G1 X198.355 Y167.643 E.29935
G1 X198.464 Y168.484 E.03469
G1 X203.532 Y173.552 E.29303
G1 X203.532 Y174.284 E.02993
G1 X198.464 Y169.216 E.29303
G1 X198.464 Y169.948 E.02993
G1 X203.532 Y175.016 E.29303
G1 X203.532 Y175.748 E.02993
G1 X198.464 Y170.68 E.29303
G1 X198.464 Y171.412 E.02993
G1 X203.532 Y176.48 E.29303
G1 X203.532 Y177.212 E.02993
G1 X198.464 Y172.144 E.29303
G1 X198.464 Y172.876 E.02993
G1 X203.532 Y177.944 E.29303
G1 X203.532 Y178.676 E.02993
G1 X198.464 Y173.608 E.29303
G1 X198.381 Y174.257 E.02674
G1 X203.532 Y179.408 E.29785
G1 X203.532 Y180.14 E.02993
G1 X198.23 Y174.838 E.30658
G1 X198.085 Y175.244 E.01762
G1 X198.017 Y175.357 E.0054
G1 X203.532 Y180.872 E.3189
G1 X203.532 Y181.604 E.02993
G1 X197.741 Y175.813 E.33483
G1 X197.67 Y175.932 E.00568
G1 X197.405 Y176.209 E.01565
G1 X203.532 Y182.336 E.35428
G1 X203.532 Y183.068 E.02993
G1 X197.047 Y176.583 E.37497
G1 X197.006 Y176.627 E.00245
G1 X196.611 Y176.879 E.01916
G1 X203.525 Y183.793 E.39979
G1 X203.511 Y183.873 E.0033
G1 X203.473 Y183.913 E.00226
G1 X202.913 Y183.913 E.02289
G1 X196.149 Y177.149 E.39113
G1 X195.61 Y177.342 E.02341
G1 X202.182 Y183.914 E.38001
G1 X201.45 Y183.914 E.02991
G1 X194.997 Y177.461 E.37315
G1 X194.508 Y177.518 E.02012
G1 X194.322 Y177.518 E.00761
G1 X200.719 Y183.915 E.36987
G1 X199.987 Y183.915 E.02991
G1 X198.429 Y182.357 E.09009
G1 X198.455 Y183.115 E.031
G1 X199.256 Y183.916 E.0463
G1 X198.587 Y183.916 E.02736
G1 X198.501 Y183.893 E.00361
G1 X198.232 Y183.624 E.01559
G1 E-.56 F1800
;WIPE_START
G1 F6955.178
G1 X198.501 Y183.893 E-.09149
G1 X198.587 Y183.916 E-.0212
G1 X199.117 Y183.916 E-.1273
;WIPE_END
G1 E0 F1800
G1 Z.6 F18000
G1 X196.154 Y180.082 Z.6
G1 Z.2
G1 E.8 F1800
G1 F6955.178
G1 X193.59 Y177.518 E.14823
G1 X192.858 Y177.518 E.02993
G1 X195.088 Y179.748 E.12893
G1 X194.356 Y179.748 E.02993
G1 X192.126 Y177.518 E.12892
G1 X191.394 Y177.518 E.02993
G1 X193.624 Y179.747 E.12892
G1 X192.891 Y179.747 E.02993
G1 X190.662 Y177.518 E.12891
G1 X189.93 Y177.518 E.02993
G1 X192.159 Y179.747 E.1289
G1 X191.427 Y179.747 E.02993
G1 X189.198 Y177.518 E.12889
G1 X188.466 Y177.518 E.02993
G1 X190.695 Y179.747 E.12889
G1 X189.963 Y179.747 E.02993
