; HEADER_BLOCK_START
; generated by OrcaSlicer 1.7.0 on 2024-02-08 at 21:19:22
; total layer number: 255
; HEADER_BLOCK_END

; THUMBNAIL_BLOCK_START
; THUMBNAIL_BLOCK_END

; external perimeters extrusion width = 0.40mm
; perimeters extrusion width = 0.40mm
; infill extrusion width = 0.45mm
; solid infill extrusion width = 0.40mm
; top infill extrusion width = 0.40mm
; first layer extrusion width = 0.56mm

; EXECUTABLE_BLOCK_START
EXCLUDE_OBJECT_DEFINE NAME=tower_with_seam.stl_id_0_copy_0 CENTER=150,150 POLYGON=[[110.019,184.965],[110.031,149.416],[110.381,148.063],[111.091,146.859],[146.806,111.129],[147.98,110.402],[149.309,110.024],[150.691,110.024],[152.02,110.402],[153.194,111.129],[188.909,146.859],[189.619,148.063],[189.969,149.416],[189.981,184.965],[189.672,186.308],[189.008,187.515],[188.04,188.496],[186.841,189.175],[185.503,189.501],[150,189.976],[114.497,189.501],[113.159,189.175],[111.96,188.496],[110.992,187.515],[110.328,186.308],[110.019,184.965]]
M73 P0 R28
;TYPE:Custom
M104 S0 ; Stops SuperSlicer from sending temp waits separately
M140 S0
print_start EXTRUDER=260 BED=105 CHAMBER=0 
G90
G21
M83 ; use relative distances for extrusion
; Filament gcode
SET_PRESSURE_ADVANCE ADVANCE=0.025; Override pressure advance value
M106 S0
;LAYER_CHANGE
;Z:0.2
;HEIGHT:0.2
;BEFORE_LAYER_CHANGE
;0.2
G92 E0

G1 E-.8 F1800
;AFTER_LAYER_CHANGE
;0.2
;_SET_FAN_SPEED_CHANGING_LAYER
SET_PRESSURE_ADVANCE ADVANCE=0; Override pressure advance value
SET_VELOCITY_LIMIT ACCEL=500
G1 Z.4 F18000
G1 X126.851 Y126.8
M73 P0 R27
G1 Z.4
G1 Z.2
G1 E.8 F1800
;TYPE:Skirt
;WIDTH:0.56
G1 F6962.177
G1 X144.66 Y108.984 E1.02892
G1 X145.208 Y108.55 E.02859
G1 X146.383 Y107.822 E.05643
G1 X147.15 Y107.484 E.03424
G1 X148.479 Y107.106 E.05643
G1 X149.309 Y106.99 E.03424
G1 X150.691 Y106.99 E.05643
G1 X151.521 Y107.106 E.03424
G1 X152.85 Y107.484 E.05643
G1 X153.617 Y107.822 E.03424
G1 X154.792 Y108.55 E.05643
G1 X155.34 Y108.984 E.02859
G1 X191.055 Y144.714 E2.06346
G1 X191.523 Y145.317 E.03118
G1 X192.233 Y146.521 E.0571
G1 X192.557 Y147.305 E.03465
G1 X192.907 Y148.658 E.0571
G1 X193.003 Y149.415 E.03116
G1 X193.015 Y184.964 E1.452
G1 X192.938 Y185.645 E.028
G1 X192.629 Y186.988 E.05628
G1 X192.331 Y187.769 E.03415
G1 X191.667 Y188.976 E.05628
G1 X191.167 Y189.647 E.03415
G1 X190.199 Y190.627 E.05628
G1 X189.536 Y191.136 E.03415
G1 X188.337 Y191.815 E.05628
G1 X187.56 Y192.123 E.03415
G1 X186.221 Y192.449 E.05628
G1 X185.543 Y192.535 E.02789
G1 X149.959 Y193.01 E1.45358
G1 X114.457 Y192.535 E1.45026
G1 X113.779 Y192.449 E.02789
G1 X112.44 Y192.123 E.05628
G1 X111.663 Y191.815 E.03415
G1 X110.464 Y191.136 E.05628
G1 X109.801 Y190.627 E.03415
G1 X108.833 Y189.647 E.05628
G1 X108.333 Y188.976 E.03415
G1 X107.669 Y187.769 E.05628
G1 X107.371 Y186.988 E.03415
G1 X107.062 Y185.645 E.05628
G1 X106.985 Y184.964 E.028
G1 X106.997 Y149.415 E1.452
G1 X107.093 Y148.658 E.03116
G1 X107.443 Y147.305 E.0571
G1 X107.767 Y146.521 E.03465
G1 X108.477 Y145.317 E.0571
G1 X108.945 Y144.714 E.03118
G1 X126.823 Y126.829 E1.03291
G1 X127.188 Y127.194 F18000
G1 F6962.177
G1 X145.026 Y109.35 E1.03056
G1 X146.655 Y108.262 E.08004
G1 X147.292 Y107.981 E.02841
G1 X148.62 Y107.603 E.05643
G1 X149.309 Y107.507 E.02841
G1 X150.691 Y107.507 E.05643
G1 X151.38 Y107.603 E.02841
G1 X152.708 Y107.981 E.05643
G1 X153.345 Y108.262 E.02841
G1 X154.974 Y109.35 E.08004
G1 X190.689 Y145.079 E2.06346
G1 X191.077 Y145.58 E.02587
G1 X191.787 Y146.784 E.0571
G1 X192.057 Y147.434 E.02874
G1 X192.406 Y148.787 E.0571
G1 X192.486 Y149.415 E.02585
G1 X192.498 Y184.964 E1.452
G1 X192.125 Y186.872 E.0794
G1 X191.878 Y187.52 E.02833
G1 X191.214 Y188.727 E.05628
G1 X190.799 Y189.283 E.02833
G1 X189.832 Y190.264 E.05628
G1 X189.281 Y190.686 E.02833
G1 X188.082 Y191.365 E.05628
G1 X187.437 Y191.62 E.02833
G1 X185.536 Y192.018 E.07931
G1 X149.966 Y192.493 E1.45301
G1 X114.464 Y192.018 E1.45026
G1 X112.563 Y191.62 E.07931
G1 X111.918 Y191.365 E.02833
G1 X110.719 Y190.686 E.05628
G1 X110.168 Y190.264 E.02833
G1 X109.201 Y189.283 E.05628
G1 X108.786 Y188.727 E.02833
G1 X108.122 Y187.52 E.05628
G1 X107.875 Y186.872 E.02833
G1 X107.502 Y184.964 E.0794
G1 X107.514 Y149.415 E1.452
G1 X107.594 Y148.787 E.02585
G1 X107.943 Y147.434 E.0571
G1 X108.213 Y146.784 E.02874
G1 X108.923 Y145.58 E.0571
G1 X109.311 Y145.079 E.02587
G1 X127.16 Y127.222 E1.03127
; printing object tower_with_seam.stl id:0 copy 0
G1 E-.56 F1800
;WIPE_START
G1 F6962.177
G1 X127.867 Y126.515 E-.24
;WIPE_END
EXCLUDE_OBJECT_START NAME=tower_with_seam.stl_id_0_copy_0
G1 Z.6 F18000
G1 X182.777 Y152.212 Z.6
G1 Z.2
G1 E.8 F1800
;TYPE:Inner wall
;WIDTH:0.559999
G1 F6962.186
G1 X182.271 Y151.555 E.03387
G1 X181.954 Y150.789 E.03387
G1 X181.847 Y149.966 E.03387
G1 X181.959 Y149.145 E.03387
G1 X182.436 Y147.994 E.05086
G1 X183.476 Y147.219 E.05301
G1 X184.299 Y146.904 E.03598
G1 X185.177 Y146.83 E.03598
G1 X186.041 Y147.002 E.03598
G1 X186.823 Y147.407 E.03598
G1 X187.463 Y148.012 E.03598
G1 X187.911 Y148.77 E.03598
G1 X188.131 Y149.623 E.03598
G1 X188.118 Y150.064 E.01799
G1 X188.106 Y150.504 E.01799
G1 X187.839 Y151.343 E.03598
G1 X187.349 Y152.075 E.03598
G1 X186.676 Y152.644 E.03598
G1 X185.872 Y153.003 E.03598
G1 X184.588 Y153.19 E.05301
G1 X183.437 Y152.714 E.05086
G1 X182.809 Y152.236 E.03224
G1 X182.41 Y152.582 F18000
G1 F6962.186
G1 X181.82 Y151.816 E.03948
G1 X181.45 Y150.923 E.03948
G1 X181.326 Y149.965 E.03948
G1 X181.456 Y149.007 E.03948
G1 X181.904 Y147.942 E.04719
G1 X181.987 Y147.657 E.01214
G1 X182.24 Y147.502 E.0121
G1 X183.223 Y146.761 E.05028
G1 X184.183 Y146.395 E.04194
G1 X185.206 Y146.309 E.04194
G1 X186.213 Y146.509 E.04194
G1 X187.125 Y146.981 E.04194
G1 X187.872 Y147.686 E.04194
G1 X188.393 Y148.571 E.04194
G1 X188.65 Y149.565 E.04194
G1 X188.635 Y150.078 E.02097
G1 X188.621 Y150.591 E.02097
G1 X188.309 Y151.57 E.04194
G1 X187.739 Y152.423 E.04194
G1 X186.954 Y153.086 E.04194
G1 X186.017 Y153.505 E.04194
G1 X184.523 Y153.748 E.06182
G1 X184.249 Y153.603 E.01265
G1 X183.179 Y153.167 E.04719
G1 X182.442 Y152.606 E.03784
G1 X182.042 Y152.952 F18000
G1 F6962.186
G1 X181.368 Y152.078 E.04508
G1 X180.946 Y151.058 E.04508
G1 X180.804 Y149.963 E.04508
G1 X180.953 Y148.87 E.04508
G1 X181.452 Y147.676 E.05283
G1 X181.482 Y147.343 E.01367
G1 X181.427 Y147.217 E.00563
G1 X181.564 Y147.238 E.00563
G1 X181.782 Y147.175 E.00929
G1 X181.929 Y147.089 E.00696
G1 X182.971 Y146.304 E.05326
G1 X184.067 Y145.886 E.0479
G1 X185.235 Y145.788 E.04791
G1 X186.386 Y146.016 E.0479
G1 X187.428 Y146.555 E.04791
G1 X188.28 Y147.36 E.04791
G1 X188.876 Y148.371 E.04791
G1 X189.169 Y149.506 E.04791
G1 X189.152 Y150.093 E.02395
G1 X189.136 Y150.679 E.02395
G1 X188.78 Y151.796 E.04791
G1 X188.128 Y152.771 E.04791
G1 X187.232 Y153.528 E.04791
G1 X186.161 Y154.007 E.04791
G1 X184.81 Y154.2 E.05578
G1 X184.506 Y154.342 E.01367
G1 X184.423 Y154.467 E.00614
G1 X184.374 Y154.325 E.00614
G1 X184.21 Y154.168 E.00929
G1 X184.054 Y154.082 E.00729
G1 X182.92 Y153.62 E.04999
G1 X182.074 Y152.976 E.04345
G1 E-.56 F1800
;WIPE_START
G1 F6962.186
G1 X181.456 Y152.19 E-.24
;WIPE_END
G1 Z.6 F18000
G1 X182.134 Y185.764 Z.6
G1 Z.2
G1 E.8 F1800
G1 F6962.186
G1 X181.98 Y185.425 E.01521
G1 X181.783 Y184.156 E.05247
G1 X182.25 Y182.986 E.05143
G1 X182.757 Y182.312 E.03447
G1 X183.425 Y181.796 E.03447
G1 X184.588 Y181.314 E.05143
G1 X185.86 Y181.495 E.05247
G1 X186.655 Y181.844 E.03547
G1 X187.324 Y182.398 E.03547
G1 X187.817 Y183.113 E.03547
G1 X188.095 Y183.935 E.03547
G1 X188.139 Y184.803 E.03547
G1 X187.944 Y185.649 E.03547
G1 X187.526 Y186.41 E.03547
G1 X186.916 Y187.028 E.03547
G1 X186.161 Y187.456 E.03547
G1 X185.317 Y187.661 E.03547
G1 X184.449 Y187.629 E.03547
G1 X183.623 Y187.36 E.03547
G1 X182.902 Y186.877 E.03547
G1 X182.34 Y186.215 E.03547
G1 X182.151 Y185.8 E.01862
G1 X181.551 Y185.731 F18000
G1 F6962.186
G1 X181.479 Y185.574 E.00706
G1 X181.299 Y184.388 E.04901
G1 X181.218 Y184.09 E.01261
G1 X181.36 Y183.832 E.01204
G1 X181.794 Y182.731 E.04833
G1 X182.386 Y181.945 E.04018
G1 X183.164 Y181.344 E.04018
G1 X184.252 Y180.898 E.04802
G1 X184.506 Y180.759 E.01184
G1 X184.8 Y180.825 E.01233
G1 X186.003 Y180.992 E.04957
G1 X186.929 Y181.4 E.04134
G1 X187.709 Y182.045 E.04134
G1 X188.283 Y182.879 E.04134
G1 X188.608 Y183.837 E.04134
G1 X188.659 Y184.848 E.04134
G1 X188.432 Y185.835 E.04134
G1 X187.945 Y186.722 E.04134
G1 X187.233 Y187.442 E.04134
G1 X186.353 Y187.941 E.04134
G1 X185.369 Y188.181 E.04134
G1 X184.358 Y188.143 E.04134
G1 X183.395 Y187.83 E.04134
G1 X182.554 Y187.267 E.04134
G1 X181.899 Y186.495 E.04134
G1 X181.568 Y185.768 E.03265
G1 X180.979 Y185.723 F18000
G1 F6962.186
G1 X180.774 Y184.392 E.05501
G1 X180.63 Y184.091 E.01364
G1 X180.514 Y184.008 E.00579
G1 X180.646 Y183.955 E.00579
G1 X180.8 Y183.788 E.00928
G1 X180.88 Y183.639 E.00692
G1 X181.339 Y182.476 E.05106
G1 X182.014 Y181.578 E.04588
G1 X182.903 Y180.892 E.04588
G1 X184.115 Y180.392 E.05355
G1 X184.373 Y180.179 E.01364
G1 X184.425 Y180.048 E.00579
G1 X184.509 Y180.162 E.00579
G1 X184.707 Y180.271 E.00928
G1 X184.872 Y180.313 E.00692
G1 X186.145 Y180.49 E.05251
G1 X187.203 Y180.956 E.04722
G1 X188.094 Y181.693 E.04722
G1 X188.75 Y182.645 E.04722
G1 X189.121 Y183.74 E.04722
G1 X189.179 Y184.894 E.04722
G1 X188.92 Y186.021 E.04722
G1 X188.363 Y187.034 E.04722
G1 X187.551 Y187.857 E.04722
G1 X186.545 Y188.426 E.04722
G1 X185.422 Y188.7 E.04722
G1 X184.267 Y188.657 E.04722
G1 X183.167 Y188.3 E.04722
G1 X182.207 Y187.656 E.04722
G1 X181.458 Y186.775 E.04722
G1 X180.996 Y185.759 E.04559
G1 E-.56 F1800
;WIPE_START
G1 F6962.186
G1 X180.836 Y184.772 E-.24
;WIPE_END
G1 Z.6 F18000
G1 X153.155 Y184.905 Z.6
G1 Z.2
G1 E.8 F1800
G1 F6962.186
G1 X153.054 Y185.759 E.03515
G1 X152.744 Y186.529 E.03389
G1 X152.244 Y187.191 E.03389
G1 X151.588 Y187.7 E.03389
M73 P1 R27
G1 X150.823 Y188.02 E.03389
G1 X150 Y188.129 E.03389
G1 X149.177 Y188.02 E.03389
G1 X148.412 Y187.7 E.03389
G1 X147.756 Y187.191 E.03389
G1 X147.256 Y186.529 E.03389
G1 X146.946 Y185.759 E.03389
G1 X146.79 Y184.522 E.05092
G1 X147.277 Y183.387 E.05046
G1 X147.778 Y182.739 E.03347
G1 X148.43 Y182.242 E.03347
G1 X149.187 Y181.929 E.03347
G1 X150 Y181.823 E.03347
G1 X150.813 Y181.929 E.03347
G1 X151.57 Y182.242 E.03347
G1 X152.222 Y182.739 E.03347
G1 X152.723 Y183.387 E.03347
G1 X153.202 Y184.509 E.04984
G1 X153.16 Y184.865 E.01463
G1 X153.729 Y184.56 F18000
G1 F6962.186
G1 X153.697 Y184.737 E.00733
G1 X153.559 Y185.889 E.04739
G1 X153.198 Y186.786 E.0395
G1 X152.615 Y187.557 E.0395
G1 X151.851 Y188.15 E.0395
G1 X150.959 Y188.523 E.0395
G1 X150 Y188.65 E.0395
G1 X149.041 Y188.523 E.0395
G1 X148.149 Y188.15 E.0395
G1 X147.385 Y187.557 E.0395
G1 X146.802 Y186.786 E.0395
G1 X146.441 Y185.889 E.0395
G1 X146.304 Y184.745 E.04705
G1 X146.228 Y184.443 E.01275
G1 X146.382 Y184.181 E.01241
G1 X146.826 Y183.124 E.04682
G1 X147.411 Y182.369 E.03901
G1 X148.17 Y181.789 E.03901
G1 X149.053 Y181.426 E.03901
G1 X150 Y181.301 E.03901
G1 X150.947 Y181.426 E.03901
G1 X151.83 Y181.789 E.03901
G1 X152.589 Y182.369 E.03901
G1 X153.174 Y183.124 E.03901
G1 X153.753 Y184.423 E.05811
G1 X153.736 Y184.521 E.00405
G1 X154.474 Y184.343 F18000
G1 F6962.186
G1 X154.352 Y184.436 E.00625
G1 X154.248 Y184.636 E.00923
G1 X154.21 Y184.798 E.00681
G1 X154.064 Y186.019 E.05019
G1 X153.652 Y187.043 E.0451
G1 X152.986 Y187.924 E.0451
G1 X152.114 Y188.601 E.0451
G1 X151.095 Y189.027 E.0451
G1 X150 Y189.172 E.0451
G1 X148.905 Y189.027 E.0451
G1 X147.886 Y188.601 E.0451
G1 X147.014 Y187.924 E.0451
G1 X146.348 Y187.043 E.0451
G1 X145.936 Y186.019 E.0451
G1 X145.78 Y184.739 E.05264
G1 X145.648 Y184.436 E.01353
G1 X145.526 Y184.343 E.00625
G1 X145.669 Y184.288 E.00625
G1 X145.825 Y184.124 E.00923
G1 X145.906 Y183.979 E.00681
G1 X146.376 Y182.861 E.04951
G1 X147.043 Y181.999 E.04455
G1 X147.91 Y181.337 E.04455
G1 X148.919 Y180.922 E.04455
G1 X150 Y180.78 E.04454
G1 X151.081 Y180.922 E.04455
G1 X152.09 Y181.337 E.04454
G1 X152.957 Y181.999 E.04455
G1 X153.624 Y182.861 E.04455
G1 X154.119 Y184.033 E.05196
G1 X154.331 Y184.288 E.01353
G1 X154.437 Y184.328 E.00462
G1 E-.56 F1800
;WIPE_START
G1 F6962.186
G1 X154.352 Y184.436 E-.03275
G1 X154.248 Y184.636 E-.05424
G1 X154.21 Y184.798 E-.03999
G1 X154.154 Y185.266 E-.11301
;WIPE_END
G1 Z.6 F18000
G1 X117.66 Y186.215 Z.6
G1 Z.2
G1 E.8 F1800
G1 F6962.186
G1 X117.098 Y186.877 E.03547
G1 X116.377 Y187.36 E.03547
G1 X115.551 Y187.629 E.03547
G1 X114.683 Y187.661 E.03547
G1 X113.839 Y187.456 E.03547
G1 X113.084 Y187.028 E.03547
G1 X112.474 Y186.41 E.03547
G1 X112.056 Y185.649 E.03547
G1 X111.861 Y184.803 E.03547
G1 X111.905 Y183.935 E.03547
G1 X112.183 Y183.113 E.03547
G1 X112.676 Y182.398 E.03547
G1 X113.345 Y181.844 E.03547
G1 X114.14 Y181.495 E.03547
G1 X115.412 Y181.314 E.05247
G1 X116.575 Y181.796 E.05143
G1 X117.243 Y182.312 E.03447
G1 X117.75 Y182.986 E.03447
G1 X118.217 Y184.156 E.05143
G1 X118.02 Y185.425 E.05247
G1 X117.677 Y186.179 E.03383
G1 X118.101 Y186.495 F18000
G1 F6962.186
G1 X117.446 Y187.267 E.04134
G1 X116.605 Y187.83 E.04134
G1 X115.642 Y188.143 E.04134
G1 X114.631 Y188.181 E.04134
G1 X113.647 Y187.941 E.04134
G1 X112.767 Y187.442 E.04134
G1 X112.055 Y186.722 E.04134
G1 X111.568 Y185.835 E.04134
G1 X111.341 Y184.848 E.04134
G1 X111.392 Y183.837 E.04134
G1 X111.717 Y182.879 E.04134
G1 X112.291 Y182.045 E.04134
G1 X113.071 Y181.4 E.04134
G1 X113.997 Y180.992 E.04134
G1 X115.186 Y180.827 E.049
G1 X115.485 Y180.75 E.01261
G1 X115.741 Y180.895 E.01204
G1 X116.836 Y181.344 E.04833
G1 X117.614 Y181.945 E.04018
G1 X118.206 Y182.731 E.04018
G1 X118.637 Y183.824 E.04802
G1 X118.774 Y184.081 E.01184
G1 X118.703 Y184.374 E.01233
G1 X118.521 Y185.574 E.04957
G1 X118.117 Y186.459 E.03971
G1 X118.542 Y186.775 F18000
G1 F6962.186
G1 X117.793 Y187.656 E.04722
G1 X116.833 Y188.3 E.04722
G1 X115.733 Y188.657 E.04722
G1 X114.578 Y188.7 E.04722
G1 X113.455 Y188.426 E.04722
G1 X112.449 Y187.857 E.04722
G1 X111.637 Y187.034 E.04722
G1 X111.08 Y186.021 E.04722
G1 X110.821 Y184.894 E.04722
G1 X110.879 Y183.74 E.04722
G1 X111.25 Y182.645 E.04722
G1 X111.906 Y181.693 E.04722
G1 X112.797 Y180.956 E.04722
G1 X113.855 Y180.49 E.04722
G1 X115.189 Y180.302 E.05501
G1 X115.491 Y180.162 E.01364
G1 X115.575 Y180.048 E.00578
G1 X115.627 Y180.179 E.00578
G1 X115.792 Y180.336 E.00928
G1 X115.94 Y180.418 E.00692
G1 X117.097 Y180.892 E.05106
G1 X117.986 Y181.578 E.04588
G1 X118.661 Y182.476 E.04588
G1 X119.145 Y183.695 E.05355
G1 X119.354 Y183.955 E.01364
G1 X119.486 Y184.008 E.00579
G1 X119.37 Y184.091 E.00579
G1 X119.258 Y184.288 E.00928
G1 X119.214 Y184.452 E.00692
G1 X119.021 Y185.723 E.05251
G1 X118.558 Y186.738 E.04559
G1 E-.56 F1800
;WIPE_START
G1 F6962.186
G1 X117.918 Y187.507 E-.24
;WIPE_END
G1 Z.6 F18000
G1 X116.563 Y152.714 Z.6
G1 Z.2
G1 E.8 F1800
G1 F6962.186
G1 X115.412 Y153.19 E.05086
G1 X114.128 Y153.003 E.05301
G1 X113.324 Y152.644 E.03598
G1 X112.651 Y152.075 E.03598
G1 X112.161 Y151.343 E.03598
G1 X111.894 Y150.504 E.03598
G1 X111.869 Y149.623 E.03598
G1 X112.089 Y148.77 E.03598
G1 X112.537 Y148.012 E.03598
G1 X113.177 Y147.407 E.03598
G1 X113.959 Y147.002 E.03598
G1 X114.823 Y146.83 E.03598
G1 X115.701 Y146.904 E.03598
G1 X116.524 Y147.219 E.03598
G1 X117.564 Y147.994 E.05301
G1 X118.041 Y149.145 E.05086
G1 X118.153 Y149.966 E.03387
G1 X118.046 Y150.789 E.03387
G1 X117.729 Y151.555 E.03387
G1 X117.223 Y152.212 E.03387
G1 X116.594 Y152.69 E.03224
G1 X116.821 Y153.167 F18000
G1 F6962.186
G1 X115.751 Y153.603 E.04719
G1 X115.49 Y153.746 E.01214
G1 X115.202 Y153.677 E.0121
G1 X113.983 Y153.505 E.05028
G1 X113.046 Y153.086 E.04194
G1 X112.261 Y152.423 E.04194
G1 X111.691 Y151.57 E.04194
G1 X111.379 Y150.591 E.04194
G1 X111.35 Y149.565 E.04194
G1 X111.607 Y148.571 E.04194
G1 X112.128 Y147.686 E.04194
G1 X112.875 Y146.981 E.04194
G1 X113.787 Y146.509 E.04194
G1 X114.794 Y146.309 E.04194
G1 X115.817 Y146.395 E.04194
G1 X116.777 Y146.761 E.04194
G1 X117.741 Y147.487 E.04928
G1 X118.012 Y147.649 E.01292
G1 X118.096 Y147.942 E.01247
G1 X118.544 Y149.007 E.04719
G1 X118.674 Y149.965 E.03948
G1 X118.55 Y150.923 E.03948
G1 X118.18 Y151.816 E.03948
